%
(button #2)
(T1  D=3.175 CR=0 - ZMIN=-10 - flat end mill)
G90 G94
G17
G21
G28 G91 Z0
G90

(Adaptive3)
M9
T1 M6
S5000 M3
G54
G0 X-18.309 Y-39.678
Z3.002
Z-1.363
G1 Z-1.681 F1000
X-18.307 Y-39.67 Z-1.751
X-18.301 Y-39.647 Z-1.818
X-18.292 Y-39.61 Z-1.878
X-18.279 Y-39.562 Z-1.929
X-18.264 Y-39.503 Z-1.967
X-18.248 Y-39.438 Z-1.99
X-18.23 Y-39.37 Z-1.998
G3 X-17.982 Y-37.641 I-7.852 J2.011
G1 Y-37.491
X-18.129 Y-36.769
X-18.209 Y-36.035
X-18.252 Y-35.299
X-18.274 Y-34.561
X-18.286 Y-33.823
X-18.292 Y-33.086
X-18.295 Y-32.348
X-18.298 Y-30.872
X-18.299 Y-24.97
X-18.298 Y-1.359
X-18.175 Y-1.012
X-17.943 Y-0.725
X-17.367 Y-0.264
X-16.679 Y0.001
X-15.955 Y0.148
X-15.222 Y0.226
X-14.485 Y0.268
X-13.748 Y0.29
X-13.01 Y0.302
X-12.272 Y0.308
X-11.534 Y0.31
X-10.059 Y0.312
X-4.894 Y0.311
X16.503 Y0.299
X16.684 Y0.267
X17.022 Y0.118
X17.298 Y-0.126
X17.741 Y-0.716
X17.995 Y-1.409
X18.135 Y-2.133
X18.211 Y-2.867
X18.251 Y-3.604
X18.272 Y-4.342
X18.284 Y-5.079
X18.29 Y-5.817
X18.293 Y-6.555
X18.295 Y-8.03
X18.297 Y-14.671
X18.298 Y-27.951
Y-34.592
X18.244 Y-34.768
X18.068 Y-35.092
X17.81 Y-35.356
X17.204 Y-35.777
X16.506 Y-36.017
X15.78 Y-36.149
X15.046 Y-36.22
X14.309 Y-36.258
X13.572 Y-36.278
X12.834 Y-36.289
X12.096 Y-36.294
X11.358 Y-36.297
X9.883 Y-36.299
X2.505 Y-36.3
X-15.203 Y-36.299
X-15.382 Y-36.256
X-15.717 Y-36.101
X-15.995 Y-35.857
X-16.443 Y-35.272
X-16.706 Y-34.582
X-16.853 Y-33.859
X-16.934 Y-33.126
X-16.978 Y-32.389
X-17.002 Y-31.652
X-17.014 Y-30.914
X-17.021 Y-30.176
X-17.025 Y-29.439
X-17.028 Y-27.963
Y-27.225
X-17.029 Y-19.377
X-17.032 Y-19.339
X-17.039 Y-18.837
Y-16.829
X-17.035 Y-16.661
X-17.017 Y-15.924
X-17.023 Y-15.186
X-17.025 Y-14.448
X-17.028 Y-12.972
Y-5.594
Y-3.012
X-16.942 Y-2.653
X-16.759 Y-2.333
X-16.262 Y-1.788
X-15.611 Y-1.441
X-14.903 Y-1.232
X-14.175 Y-1.111
X-13.44 Y-1.043
X-12.704 Y-1.004
X-11.966 Y-0.983
X-11.228 Y-0.971
X-10.491 Y-0.965
X-9.753 Y-0.961
X-8.277 Y-0.959
X-4.588 Y-0.96
X-1.075 Y-0.961
X-1.045
X-1.015 Y-0.959
X-0.986 Y-0.956
X-0.837 Y-0.938
X-0.669 Y-0.936
X-0.335
X-0.167 Y-0.941
X0.57 Y-0.933
X1.308 Y-0.948
X2.046 Y-0.955
X2.784 Y-0.959
X4.259 Y-0.963
X8.686 Y-0.967
X14.958 Y-0.97
X15.316 Y-1.058
X15.637 Y-1.24
X16.185 Y-1.734
X16.534 Y-2.384
X16.745 Y-3.091
X16.867 Y-3.819
X16.937 Y-4.553
X16.977 Y-5.29
X16.999 Y-6.027
X17.011 Y-6.765
X17.018 Y-7.503
X17.022 Y-8.241
X17.025 Y-9.716
X17.027 Y-13.405
Y-17.157
X17.029 Y-17.197
X17.068 Y-17.678
X17.073 Y-17.833
Y-18.167
X17.068 Y-18.322
X17.047 Y-19.059
X17.037 Y-19.797
X17.033 Y-20.535
X17.03 Y-21.273
X17.028 Y-22.748
Y-33.078
X16.906 Y-33.426
X16.699 Y-33.731
X16.173 Y-34.248
X15.511 Y-34.575
X14.8 Y-34.77
X14.071 Y-34.884
X13.336 Y-34.948
X12.599 Y-34.985
X11.861 Y-35.005
X11.123 Y-35.016
X10.386 Y-35.023
X9.648 Y-35.026
X8.172 Y-35.029
X3.745 Y-35.03
X0.567
X0.557
X-0.167 Y-35.059
X-0.335 Y-35.064
X-0.669
X-0.837 Y-35.062
X-0.865 Y-35.058
X-1.523 Y-35.013
X-2.261 Y-35.021
X-2.999 Y-35.025
X-3.737 Y-35.027
X-5.95 Y-35.029
X-13.328
X-13.697 Y-35.026
X-14.053 Y-34.928
X-14.371 Y-34.741
X-14.914 Y-34.241
X-15.262 Y-33.591
X-15.473 Y-32.884
X-15.596 Y-32.156
X-15.667 Y-31.422
X-15.708 Y-30.685
X-15.73 Y-29.948
X-15.743 Y-29.21
X-15.75 Y-28.472
X-15.754 Y-27.734
X-15.757 Y-26.259
X-15.759 Y-24.724
X-15.763 Y-24.644
X-15.776 Y-24.565
X-15.797 Y-24.488
X-16.511 Y-22.351
X-16.566 Y-22.18
X-16.607 Y-22.016
X-16.637 Y-21.849
X-16.936 Y-20.008
X-16.962 Y-19.841
X-17.012 Y-19.506
X-17.032 Y-19.339
G3 X-17.162 Y-19.12 I-0.315 J-0.039
G2 X-17.294 Y-18.887 I0.185 J0.258
G1 X-17.313 Y-18.64
X-17.396 Y-17.603
Y-17.546
X-17.385 Y-17.489
X-17.364 Y-17.436
X-17.334 Y-17.387
G3 X-17.035 Y-16.661 I-1.268 J0.948
G1 X-17.017 Y-16.494
X-16.909 Y-15.825
X-16.637 Y-14.151
X-16.607 Y-13.984
X-16.565 Y-13.817
X-16.511 Y-13.649
X-16.232 Y-12.813
X-16.049 Y-12.159
X-15.93 Y-11.544
X-15.848 Y-10.81
X-15.805 Y-10.074
X-15.783 Y-9.336
X-15.771 Y-8.599
X-15.765 Y-7.861
X-15.762 Y-7.123
X-15.759 Y-5.647
Y-4.541
X-15.71 Y-4.175
X-15.568 Y-3.835
X-15.352 Y-3.535
X-14.818 Y-3.027
X-14.156 Y-2.701
X-13.445 Y-2.502
X-12.717 Y-2.385
X-11.982 Y-2.317
X-11.245 Y-2.278
X-10.508 Y-2.256
X-9.77 Y-2.243
X-9.032 Y-2.237
X-8.295 Y-2.233
X-7.557 Y-2.231
X-6.678 Y-2.23
X-6.569 Y-2.222
X-6.463 Y-2.198
X-6.361 Y-2.158
X-6.233 Y-2.103
X-5.775 Y-1.936
X-5.689 Y-1.909
X-3.681 Y-1.327
X-3.514 Y-1.284
X-3.012 Y-1.202
X-0.986 Y-0.956
G3 X-1.062 Y-0.326 I-0.038 J0.315
X-0.986 Y-0.956 I0.038 J-0.315
X-0.831 Y-0.893 I-0.038 J0.315
G1 X-0.546 Y-0.675
G3 X-0.931 Y-0.171 I-0.193 J0.252
X-0.911 Y-0.689 I0.193 J-0.252
X-0.167 Y-0.941 I0.863 J1.327
G1 X1.841 Y-1.022
X2.008 Y-1.039
X2.382 Y-1.099
X2.51 Y-1.122
X4.351 Y-1.498
X4.518 Y-1.533
X4.685 Y-1.573
X5.187 Y-1.744
X5.251 Y-1.768
X5.616 Y-1.886
X6.116 Y-2.005
X6.845 Y-2.116
X7.581 Y-2.174
X8.318 Y-2.204
X9.056 Y-2.22
X9.793 Y-2.228
X10.531 Y-2.233
X11.269 Y-2.236
X13.483 Y-2.239
X13.846 Y-2.301
X14.182 Y-2.454
X14.476 Y-2.677
X14.975 Y-3.22
X15.293 Y-3.886
X15.486 Y-4.598
X15.601 Y-5.327
X15.667 Y-6.062
X15.706 Y-6.799
X15.728 Y-7.536
X15.74 Y-8.274
X15.747 Y-9.012
X15.751 Y-9.749
X15.755 Y-11.225
Y-11.358
X15.762 Y-11.457
X15.782 Y-11.554
X15.814 Y-11.648
X16.097 Y-12.311
X16.16 Y-12.478
X16.232 Y-12.693
X16.27 Y-12.813
X16.806 Y-14.988
X16.834 Y-15.155
X16.888 Y-15.49
X16.901 Y-15.605
X17.029 Y-17.197
G3 X17.662 Y-17.146 I0.316 J0.026
X17.029 Y-17.197 I-0.316 J-0.026
X17.055 Y-17.298 I0.316 J0.026
G1 X17.318 Y-17.899
G3 X17.899 Y-17.645 I0.291 J0.127
X17.35 Y-17.588 I-0.291 J-0.127
X17.068 Y-18.322 I1.291 J-0.916
G1 X16.901 Y-20.395
X16.888 Y-20.51
X16.834 Y-20.845
X16.806 Y-21.012
X16.27 Y-23.187
X16.216 Y-23.355
X16.049 Y-23.952
X15.929 Y-24.567
X15.847 Y-25.3
X15.804 Y-26.037
X15.782 Y-26.774
X15.771 Y-27.512
X15.765 Y-28.25
X15.761 Y-28.988
X15.759 Y-30.463
Y-31.201
X15.756 Y-31.57
X15.671 Y-31.929
X15.5 Y-32.256
X15.028 Y-32.823
X14.392 Y-33.197
X13.692 Y-33.429
X12.967 Y-33.568
X12.234 Y-33.65
X11.497 Y-33.697
X10.76 Y-33.724
X10.023 Y-33.74
X9.285 Y-33.749
X8.547 Y-33.754
X7.809 Y-33.756
X6.633 Y-33.759
X6.544 Y-33.764
X6.457 Y-33.78
X6.371 Y-33.807
X5.187 Y-34.256
X4.685 Y-34.427
X4.518 Y-34.467
X3.681 Y-34.639
X2.51 Y-34.878
X2.382 Y-34.901
X2.008 Y-34.961
X1.841 Y-34.978
X0.557 Y-35.03
G3 X0.583 Y-35.665 I0.013 J-0.317
X0.883 Y-35.295 I-0.013 J0.317
X0.478 Y-35.043 I-0.313 J-0.052
G1 X-0.428 Y-35.316
G3 X-0.245 Y-35.924 I0.091 J-0.304
X-0.143 Y-35.368 I-0.091 J0.304
X-0.865 Y-35.058 I-0.965 J-1.254
G1 X-3.012 Y-34.798
X-3.514 Y-34.716
X-3.681 Y-34.673
X-5.522 Y-34.14
X-6.155 Y-33.99
X-6.885 Y-33.879
X-7.62 Y-33.821
X-8.357 Y-33.792
X-9.095 Y-33.776
X-9.833 Y-33.768
X-10.571 Y-33.764
X-11.309 Y-33.761
X-12.046 Y-33.76
X-12.414 Y-33.73
X-12.765 Y-33.617
X-13.079 Y-33.423
X-13.615 Y-32.916
X-13.966 Y-32.267
X-14.182 Y-31.562
X-14.311 Y-30.835
X-14.387 Y-30.101
X-14.43 Y-29.365
X-14.456 Y-28.627
X-14.47 Y-27.89
X-14.477 Y-27.254
X-14.488 Y-27.138
X-14.516 Y-27.024
X-14.562 Y-26.917
X-15.642 Y-24.861
X-15.722 Y-24.693
X-15.784 Y-24.526
X-15.797 Y-24.488
G3 X-16.397 Y-24.503 I-0.297 J-0.111
G1 X-16.418 Y-24.57 Z-1.99
X-16.439 Y-24.634 Z-1.967
X-16.457 Y-24.692 Z-1.929
X-16.472 Y-24.739 Z-1.878
X-16.484 Y-24.775 Z-1.818
X-16.491 Y-24.798 Z-1.751
X-16.493 Y-24.805 Z-1.681
G0 Z3.002
X-16.921 Y-13.665
Z-1.363
G1 Z-1.681 F1000
X-16.915 Y-13.66 Z-1.751
X-16.897 Y-13.645 Z-1.818
X-16.868 Y-13.62 Z-1.878
X-16.83 Y-13.587 Z-1.929
X-16.784 Y-13.548 Z-1.967
X-16.734 Y-13.504 Z-1.99
X-16.68 Y-13.458 Z-1.998
G3 X-16.232 Y-12.813 I-1.034 J1.198
G1 X-15.896 Y-11.809
X-15.838 Y-11.641
X-15.71 Y-11.307
X-15.642 Y-11.139
X-15.115 Y-10.135
X-15.019 Y-9.928
X-14.905 Y-9.618
X-14.786 Y-9.192
X-14.664 Y-8.563
X-14.581 Y-7.83
X-14.538 Y-7.093
X-14.515 Y-6.356
X-14.502 Y-5.618
X-14.384 Y-5.269
X-14.191 Y-4.954
X-13.692 Y-4.411
X-13.048 Y-4.051
X-12.345 Y-3.826
X-11.62 Y-3.69
X-10.887 Y-3.61
X-10.15 Y-3.562
X-9.413 Y-3.535
X-9.24 Y-3.531
X-9.103 Y-3.515
X-8.972 Y-3.475
X-8.85 Y-3.41
X-8.534 Y-3.203
X-8.367 Y-3.112
X-8.007 Y-2.94
X-6.361 Y-2.158
G3 X-6.447 Y-1.565 I-0.146 J0.282
G1 X-6.516 Y-1.551 Z-1.99
X-6.582 Y-1.539 Z-1.967
X-6.641 Y-1.527 Z-1.929
X-6.691 Y-1.518 Z-1.878
X-6.728 Y-1.511 Z-1.818
X-6.751 Y-1.506 Z-1.751
X-6.759 Y-1.505 Z-1.681
G0 Z3.002
X4.427 Y-1.046
Z-1.363
G1 Z-1.681 F1000
X4.432 Y-1.052 Z-1.751
X4.447 Y-1.07 Z-1.818
X4.47 Y-1.1 Z-1.878
X4.502 Y-1.139 Z-1.929
X4.539 Y-1.186 Z-1.967
X4.581 Y-1.239 Z-1.99
X4.625 Y-1.294 Z-1.998
G3 X5.251 Y-1.768 I1.239 J0.985
G1 X7.195 Y-2.506
X7.363 Y-2.581
X7.41 Y-2.605
X7.53 Y-2.673
X7.697 Y-2.769
X7.993 Y-2.921
X8.264 Y-3.033
X8.625 Y-3.15
X9.136 Y-3.271
X9.865 Y-3.383
X10.601 Y-3.442
X11.338 Y-3.473
X12.076 Y-3.49
X12.44 Y-3.544
X12.785 Y-3.677
X13.091 Y-3.883
X13.616 Y-4.401
X13.96 Y-5.054
X14.174 Y-5.76
X14.303 Y-6.486
X14.38 Y-7.22
X14.425 Y-7.957
X14.451 Y-8.694
X14.453 Y-8.775
X14.467 Y-8.908
X14.506 Y-9.037
X14.567 Y-9.156
X14.975 Y-9.801
X15.06 Y-9.939
X15.077 Y-9.968
X15.164 Y-10.135
X15.395 Y-10.663
X15.814 Y-11.648
G3 X16.411 Y-11.586 I0.288 J0.135
G1 X16.427 Y-11.517 Z-1.99
X16.443 Y-11.451 Z-1.967
X16.456 Y-11.393 Z-1.929
X16.468 Y-11.344 Z-1.878
X16.476 Y-11.307 Z-1.818
X16.482 Y-11.284 Z-1.751
X16.484 Y-11.276 Z-1.681
G0 Z3.002
X16.905 Y-22.503
Z-1.363
G1 Z-1.681 F1000
X16.899 Y-22.508 Z-1.751
X16.881 Y-22.523 Z-1.818
X16.852 Y-22.548 Z-1.878
X16.814 Y-22.581 Z-1.929
X16.768 Y-22.62 Z-1.967
X16.718 Y-22.664 Z-1.99
X16.664 Y-22.71 Z-1.998
G3 X16.216 Y-23.355 I1.034 J-1.198
G1 X16.16 Y-23.522
X16.097 Y-23.689
X15.384 Y-25.363
X15.164 Y-25.865
X15.116 Y-25.957
X15.014 Y-26.178
X14.9 Y-26.492
X14.781 Y-26.923
X14.658 Y-27.563
X14.578 Y-28.296
X14.536 Y-29.033
X14.514 Y-29.77
X14.507 Y-30.139
X14.447 Y-30.503
X14.301 Y-30.842
X14.086 Y-31.141
X13.555 Y-31.654
X12.897 Y-31.987
X12.188 Y-32.192
X11.461 Y-32.316
X10.727 Y-32.389
X9.99 Y-32.432
X9.222 Y-32.457
X9.098 Y-32.47
X8.978 Y-32.503
X8.866 Y-32.556
X7.865 Y-33.134
X7.406 Y-33.395
X7.363 Y-33.418
X7.013 Y-33.562
X6.693 Y-33.685
X6.371 Y-33.807
G3 X6.409 Y-34.405 I0.123 J-0.293
G1 X6.478 Y-34.424 Z-1.99
X6.542 Y-34.442 Z-1.967
X6.6 Y-34.458 Z-1.929
X6.649 Y-34.472 Z-1.878
X6.685 Y-34.482 Z-1.818
X6.708 Y-34.488 Z-1.751
X6.715 Y-34.49 Z-1.681
G0 Z3.002
X15.931 Y-25.224
Z-1.363
G1 Z-1.681 F1000
X15.924 Y-25.228 Z-1.751
X15.904 Y-25.24 Z-1.818
X15.872 Y-25.26 Z-1.878
X15.829 Y-25.287 Z-1.929
X15.778 Y-25.318 Z-1.967
X15.721 Y-25.354 Z-1.99
X15.661 Y-25.391 Z-1.998
G3 X15.116 Y-25.957 I0.833 J-1.346
G1 X15.077 Y-26.032
X15.06 Y-26.061
X14.975 Y-26.199
X14.056 Y-27.652
X13.883 Y-27.959
X13.768 Y-28.208
X13.648 Y-28.533
X13.449 Y-29.244
X13.27 Y-29.567
X12.808 Y-30.142
X12.191 Y-30.546
X11.501 Y-30.809
X11.326 Y-30.849
X11.218 Y-30.883
X11.116 Y-30.932
X11.023 Y-30.997
G0 Z3.002
X14.929 Y-26.989
Z-1.363
G1 Z-1.681 F1000
X14.922 Y-26.993 Z-1.751
X14.901 Y-27.004 Z-1.818
X14.867 Y-27.021 Z-1.878
X14.823 Y-27.044 Z-1.929
X14.769 Y-27.071 Z-1.967
X14.709 Y-27.101 Z-1.99
X14.646 Y-27.133 Z-1.998
G3 X14.056 Y-27.652 I0.717 J-1.411
G1 X13.811 Y-28.04
X13.722 Y-28.168
X13.422 Y-28.542
X13.387 Y-28.584
X12.383 Y-29.717
X12.216 Y-29.905
X11.881 Y-30.277
X11.772 Y-30.383
X11.714 Y-30.432
X10.877 Y-31.116
X9.873 Y-31.936
X9.703 Y-32.056
X9.538 Y-32.168
X8.866 Y-32.556
G3 X8.999 Y-33.141 I0.168 J-0.269
G1 X9.069 Y-33.149 Z-1.99
X9.136 Y-33.156 Z-1.967
X9.196 Y-33.163 Z-1.929
X9.246 Y-33.168 Z-1.878
X9.284 Y-33.172 Z-1.818
X9.307 Y-33.175 Z-1.751
X9.315 Y-33.176 Z-1.681
G0 Z3.002
X-4.643 Y-34.794
Z-1.363
G1 Z-1.681 F1000
X-4.648 Y-34.788 Z-1.751
X-4.664 Y-34.771 Z-1.818
X-4.69 Y-34.743 Z-1.878
X-4.725 Y-34.706 Z-1.929
X-4.766 Y-34.663 Z-1.967
X-4.812 Y-34.614 Z-1.99
X-4.86 Y-34.562 Z-1.998
G3 X-5.522 Y-34.14 I-1.155 J-1.082
G1 X-5.689 Y-34.091
X-5.775 Y-34.064
X-6.233 Y-33.897
X-6.359 Y-33.842
X-7.865 Y-33.128
X-8.263 Y-32.963
X-8.624 Y-32.846
X-9.135 Y-32.725
X-9.864 Y-32.614
X-10.6 Y-32.555
X-10.968 Y-32.531
X-11.325 Y-32.439
X-11.652 Y-32.268
X-12.226 Y-31.804
X-12.612 Y-31.175
X-12.855 Y-30.479
X-13.004 Y-29.756
X-13.082 Y-29.12
X-13.108 Y-28.993
X-13.157 Y-28.873
X-13.225 Y-28.764
G3 X-13.789 Y-28.967 I-0.247 J-0.2
G1 Y-29.038 Z-1.99
X-13.788 Y-29.105 Z-1.967
X-13.787 Y-29.165 Z-1.929
X-13.786 Y-29.215 Z-1.878
Y-29.253 Z-1.818
Y-29.277 Z-1.751
Y-29.285 Z-1.681
G0 Z3.002
X-7.102 Y-33.914
Z-1.363
G1 Z-1.681 F1000
X-7.106 Y-33.908 Z-1.751
X-7.119 Y-33.888 Z-1.818
X-7.14 Y-33.857 Z-1.878
X-7.169 Y-33.815 Z-1.929
X-7.202 Y-33.765 Z-1.967
X-7.239 Y-33.71 Z-1.99
X-7.279 Y-33.651 Z-1.998
G3 X-7.865 Y-33.128 I-1.314 J-0.882
G1 X-8.367 Y-32.89
X-8.534 Y-32.804
X-8.658 Y-32.726
X-8.701 Y-32.697
X-10.6 Y-31.387
X-10.71 Y-31.306
X-10.877 Y-31.171
X-11.008 Y-31.052
X-12.383 Y-29.731
X-12.733 Y-29.379
X-12.885 Y-29.216
X-14.056 Y-27.658
X-14.145 Y-27.538
X-14.391 Y-27.193
X-14.5 Y-27.036
X-14.562 Y-26.917
G3 X-15.152 Y-27.028 I-0.276 J-0.158
G1 X-15.162 Y-27.098 Z-1.99
X-15.172 Y-27.164 Z-1.967
X-15.181 Y-27.223 Z-1.929
X-15.189 Y-27.273 Z-1.878
X-15.194 Y-27.311 Z-1.818
X-15.198 Y-27.334 Z-1.751
X-15.199 Y-27.342 Z-1.681
G0 Z3.002
X-15.932 Y-10.866
Z-1.363
G1 Z-1.681 F1000
X-15.925 Y-10.862 Z-1.751
X-15.905 Y-10.849 Z-1.818
X-15.873 Y-10.83 Z-1.878
X-15.83 Y-10.803 Z-1.929
X-15.779 Y-10.772 Z-1.967
X-15.722 Y-10.737 Z-1.99
X-15.661 Y-10.7 Z-1.998
G3 X-15.115 Y-10.135 I-0.829 J1.348
G1 X-14.5 Y-8.964
X-14.384 Y-8.796
X-14.145 Y-8.462
X-14.056 Y-8.342
X-13.972 Y-8.218
X-13.863 Y-8.019
X-13.746 Y-7.757
X-13.628 Y-7.423
X-13.438 Y-6.71
X-13.257 Y-6.388
X-12.788 Y-5.819
X-12.165 Y-5.423
X-11.473 Y-5.167
X-11.369 Y-5.144
X-11.24 Y-5.103
X-11.121 Y-5.04
X-11.016 Y-4.955
G3 X-11.285 Y-4.419 I-0.228 J0.221
G1 X-11.355 Y-4.429 Z-1.99
X-11.422 Y-4.438 Z-1.967
X-11.482 Y-4.445 Z-1.929
X-11.531 Y-4.452 Z-1.878
X-11.569 Y-4.457 Z-1.818
X-11.592 Y-4.46 Z-1.751
X-11.6 Y-4.461 Z-1.681
G0 Z3.002
X-14.98 Y-8.933
Z-1.363
G1 Z-1.681 F1000
X-14.972 Y-8.93 Z-1.751
X-14.95 Y-8.921 Z-1.818
X-14.915 Y-8.906 Z-1.878
X-14.869 Y-8.887 Z-1.929
X-14.813 Y-8.864 Z-1.967
X-14.751 Y-8.839 Z-1.99
X-14.686 Y-8.812 Z-1.998
G3 X-14.056 Y-8.342 I-0.602 J1.464
G1 X-12.885 Y-6.784
X-12.733 Y-6.621
X-12.383 Y-6.269
X-11.008 Y-4.948
X-10.877 Y-4.829
X-10.71 Y-4.694
X-10.6 Y-4.613
X-9.036 Y-3.533
X-8.85 Y-3.41
G3 X-9.016 Y-2.834 I-0.183 J0.259
G1 X-9.087 Y-2.83 Z-1.99
X-9.154 Y-2.827 Z-1.967
X-9.214 Y-2.823 Z-1.929
X-9.264 Y-2.821 Z-1.878
X-9.302 Y-2.819 Z-1.818
X-9.325 Y-2.817 Z-1.751
X-9.333 Z-1.681
G0 Z3.002
X7 Y-1.924
Z-1.363
G1 Z-1.681 F1000
X7.004 Y-1.931 Z-1.751
X7.016 Y-1.951 Z-1.818
X7.034 Y-1.984 Z-1.878
X7.059 Y-2.028 Z-1.929
X7.088 Y-2.081 Z-1.967
X7.121 Y-2.139 Z-1.99
X7.156 Y-2.201 Z-1.998
G3 X7.697 Y-2.769 I1.381 J0.774
G1 X9.538 Y-3.832
X9.703 Y-3.944
X9.872 Y-4.05
X10.087 Y-4.162
X10.359 Y-4.278
X11.059 Y-4.511
X11.398 Y-4.658
X12.014 Y-5.064
X12.456 Y-5.654
X12.749 Y-6.332
X12.838 Y-6.674
X12.876 Y-6.784
X12.931 Y-6.887
X13.001 Y-6.98
G3 X13.547 Y-6.732 I0.23 J0.219
G1 X13.541 Y-6.662 Z-1.99
X13.534 Y-6.595 Z-1.967
X13.529 Y-6.535 Z-1.929
X13.524 Y-6.485 Z-1.878
X13.521 Y-6.447 Z-1.818
X13.519 Y-6.424 Z-1.751
X13.518 Y-6.416 Z-1.681
G0 Z3.002
X9.083 Y-3.04
Z-1.363
G1 Z-1.681 F1000
X9.087 Y-3.047 Z-1.751
X9.096 Y-3.069 Z-1.818
X9.112 Y-3.103 Z-1.878
X9.132 Y-3.149 Z-1.929
X9.157 Y-3.204 Z-1.967
X9.185 Y-3.265 Z-1.99
X9.214 Y-3.33 Z-1.998
G3 X9.703 Y-3.944 I1.444 J0.649
G1 X9.873 Y-4.064
X11.379 Y-5.294
X11.714 Y-5.568
X11.772 Y-5.617
X11.881 Y-5.723
X12.237 Y-6.119
X12.885 Y-6.849
X13.387 Y-7.416
X13.422 Y-7.458
X13.722 Y-7.832
X13.811 Y-7.96
X14.567 Y-9.156
G3 X14.982 Y-9.255 I0.262 J0.179
G1 X15.022 Y-9.218 Z-1.993
X15.06 Y-9.182 Z-1.979
X15.097 Y-9.149 Z-1.956
X15.112 Y-9.102 Z-1.92
X15.125 Y-9.062 Z-1.876
X15.136 Y-9.032 Z-1.825
X15.143 Y-9.011 Z-1.769
X15.146 Y-9 Z-1.709
Y-8.999 Z-1.681
G0 Z3.002
X-1.257 Y-17.167
Z2.5
G3 X1.257 Y-18.833 Z2.335 I1.257 J-0.833 F333.3
X-1.257 Y-17.167 Z2.169 I-1.257 J0.833
X1.257 Y-18.833 Z2.004 I1.257 J-0.833
X-1.257 Y-17.167 Z1.838 I-1.257 J0.833
X1.257 Y-18.833 Z1.673 I1.257 J-0.833
X-1.257 Y-17.167 Z1.507 I-1.257 J0.833
X1.257 Y-18.833 Z1.342 I1.257 J-0.833
X-1.257 Y-17.167 Z1.176 I-1.257 J0.833
X1.257 Y-18.833 Z1.011 I1.257 J-0.833
X-1.257 Y-17.167 Z0.845 I-1.257 J0.833
X1.257 Y-18.833 Z0.68 I1.257 J-0.833
X-1.257 Y-17.167 Z0.515 I-1.257 J0.833
X1.257 Y-18.833 Z0.349 I1.257 J-0.833
X-1.257 Y-17.167 Z0.184 I-1.257 J0.833
X1.257 Y-18.833 Z0.018 I1.257 J-0.833
X-1.257 Y-17.167 Z-0.147 I-1.257 J0.833
X1.257 Y-18.833 Z-0.313 I1.257 J-0.833
X-1.257 Y-17.167 Z-0.478 I-1.257 J0.833
X1.257 Y-18.833 Z-0.644 I1.257 J-0.833
X-1.257 Y-17.167 Z-0.809 I-1.257 J0.833
X1.257 Y-18.833 Z-0.974 I1.257 J-0.833
X-1.257 Y-17.167 Z-1.14 I-1.257 J0.833
X1.257 Y-18.833 Z-1.305 I1.257 J-0.833
X-1.257 Y-17.167 Z-1.471 I-1.257 J0.833
X1.257 Y-18.833 Z-1.636 I1.257 J-0.833
X-1.257 Y-17.167 Z-1.802 I-1.257 J0.833
X1.257 Y-18.833 Z-1.967 I1.257 J-0.833
X1.508 Y-18 Z-1.998 I-1.257 J0.833
X-1.508 I-1.508
X1.508 I1.508
G1 X1.527 Y-17.262 F1000
X1.549 Y-17.173
X1.565 Y-17.024
X1.552 Y-16.874
X1.517 Y-16.728
X1.462 Y-16.589
X1.39 Y-16.457
X1.304 Y-16.334
X1.206 Y-16.22
X1.098 Y-16.117
X0.98 Y-16.024
X0.854 Y-15.942
X0.722 Y-15.871
X0.584 Y-15.811
X0.437 Y-15.76
X0.283 Y-15.721
X0.123 Y-15.694
X-0.042 Y-15.679
X-0.211 Y-15.677
X-0.382 Y-15.689
X-0.554 Y-15.716
X-0.725 Y-15.756
X-0.895 Y-15.811
X-1.061 Y-15.879
X-1.223 Y-15.962
X-1.378 Y-16.058
X-1.527 Y-16.167
X-1.667 Y-16.289
X-1.798 Y-16.422
X-1.918 Y-16.566
X-2.027 Y-16.719
X-2.123 Y-16.882
X-2.207 Y-17.052
X-2.276 Y-17.229
X-2.332 Y-17.411
X-2.372 Y-17.598
X-2.398 Y-17.788
X-2.408 Y-17.979
X-2.403 Y-18.171
X-2.382 Y-18.362
X-2.347 Y-18.551
X-2.296 Y-18.737
X-2.23 Y-18.918
X-2.15 Y-19.094
X-2.056 Y-19.262
X-1.948 Y-19.423
X-1.828 Y-19.575
X-1.697 Y-19.716
X-1.554 Y-19.847
X-1.401 Y-19.965
X-1.239 Y-20.072
X-1.069 Y-20.164
X-0.892 Y-20.243
X-0.709 Y-20.308
X-0.522 Y-20.357
X-0.331 Y-20.392
X-0.139 Y-20.411
X0.055 Y-20.414
X0.249 Y-20.402
X0.441 Y-20.374
X0.63 Y-20.331
X0.815 Y-20.273
X0.994 Y-20.201
X1.168 Y-20.114
X1.334 Y-20.013
X1.491 Y-19.9
X1.639 Y-19.774
X1.776 Y-19.637
X1.901 Y-19.489
X2.015 Y-19.332
X2.119 Y-19.159
X2.23 Y-18.937
X2.377 Y-18.572
X2.484 Y-18.229
X2.548 Y-17.946
X2.585 Y-17.691
X2.6 Y-17.454
X2.596 Y-17.23
X2.574 Y-17.017
X2.537 Y-16.81
X2.483 Y-16.608
X2.414 Y-16.411
X2.328 Y-16.221
X2.228 Y-16.038
X2.114 Y-15.863
X1.984 Y-15.696
X1.84 Y-15.539
X1.682 Y-15.392
X1.51 Y-15.256
X1.326 Y-15.133
X1.129 Y-15.024
X0.921 Y-14.929
X0.704 Y-14.85
X0.477 Y-14.788
X0.243 Y-14.744
X0.003 Y-14.719
X-0.241 Y-14.712
X-0.487 Y-14.726
X-0.734 Y-14.759
X-0.98 Y-14.813
X-1.223 Y-14.887
X-1.46 Y-14.981
X-1.691 Y-15.094
X-1.914 Y-15.227
X-2.127 Y-15.378
X-2.328 Y-15.546
X-2.516 Y-15.731
X-2.689 Y-15.931
X-2.846 Y-16.146
X-2.986 Y-16.373
X-3.108 Y-16.612
X-3.21 Y-16.86
X-3.293 Y-17.117
X-3.355 Y-17.38
X-3.395 Y-17.647
X-3.414 Y-17.918
X-3.412 Y-18.19
X-3.387 Y-18.461
X-3.341 Y-18.73
X-3.273 Y-18.994
X-3.184 Y-19.253
X-3.074 Y-19.503
X-2.945 Y-19.744
X-2.796 Y-19.975
X-2.63 Y-20.192
X-2.446 Y-20.396
X-2.247 Y-20.585
X-2.033 Y-20.757
X-1.806 Y-20.911
X-1.567 Y-21.046
X-1.318 Y-21.162
X-1.06 Y-21.258
X-0.796 Y-21.333
X-0.526 Y-21.386
X-0.253 Y-21.417
X0.022 Y-21.427
X0.297 Y-21.414
X0.57 Y-21.379
X0.839 Y-21.323
X1.103 Y-21.245
X1.36 Y-21.146
X1.608 Y-21.026
X1.846 Y-20.888
X2.071 Y-20.73
X2.285 Y-20.554
X2.491 Y-20.355
X2.705 Y-20.111
X2.907 Y-19.84
X3.094 Y-19.543
X3.258 Y-19.227
X3.396 Y-18.902
X3.504 Y-18.575
X3.583 Y-18.252
X3.634 Y-17.932
X3.659 Y-17.615
X3.658 Y-17.303
X3.633 Y-16.995
X3.583 Y-16.694
X3.51 Y-16.4
X3.415 Y-16.114
X3.297 Y-15.838
X3.157 Y-15.573
X2.996 Y-15.319
X2.815 Y-15.078
X2.615 Y-14.852
X2.395 Y-14.641
X2.158 Y-14.447
X1.904 Y-14.272
X1.634 Y-14.116
X1.351 Y-13.981
X1.055 Y-13.868
X0.748 Y-13.779
X0.432 Y-13.714
X0.109 Y-13.674
X-0.218 Y-13.66
X-0.548 Y-13.673
X-0.877 Y-13.712
X-1.205 Y-13.778
X-1.529 Y-13.871
X-1.846 Y-13.99
X-2.154 Y-14.135
X-2.452 Y-14.305
X-2.736 Y-14.5
X-3.005 Y-14.718
X-3.257 Y-14.958
X-3.489 Y-15.218
X-3.701 Y-15.497
X-3.891 Y-15.794
X-4.056 Y-16.105
X-4.196 Y-16.43
X-4.311 Y-16.766
X-4.398 Y-17.111
X-4.457 Y-17.462
X-4.488 Y-17.818
X-4.49 Y-18.176
X-4.463 Y-18.533
X-4.408 Y-18.887
X-4.325 Y-19.236
X-4.213 Y-19.578
X-4.075 Y-19.91
X-3.91 Y-20.23
X-3.72 Y-20.536
X-3.505 Y-20.826
X-3.268 Y-21.098
X-3.01 Y-21.35
X-2.733 Y-21.58
X-2.437 Y-21.788
X-2.126 Y-21.972
X-1.801 Y-22.129
X-1.464 Y-22.261
X-1.118 Y-22.365
X-0.764 Y-22.441
X-0.406 Y-22.488
X-0.045 Y-22.506
X0.317 Y-22.495
X0.676 Y-22.455
X1.032 Y-22.387
X1.38 Y-22.29
X1.72 Y-22.166
X2.049 Y-22.014
X2.367 Y-21.835
X2.68 Y-21.625
X2.983 Y-21.383
X3.275 Y-21.11
X3.552 Y-20.805
X3.807 Y-20.474
X4.037 Y-20.12
X4.239 Y-19.749
X4.408 Y-19.365
X4.546 Y-18.971
X4.65 Y-18.572
X4.721 Y-18.169
X4.76 Y-17.765
X4.766 Y-17.363
X4.739 Y-16.964
X4.682 Y-16.572
X4.593 Y-16.188
X4.474 Y-15.813
X4.326 Y-15.45
X4.149 Y-15.1
X3.945 Y-14.765
X3.715 Y-14.448
X3.458 Y-14.149
X3.178 Y-13.871
X2.875 Y-13.615
X2.551 Y-13.383
X2.207 Y-13.176
X1.846 Y-12.997
X1.469 Y-12.846
X1.079 Y-12.726
X0.678 Y-12.636
X0.268 Y-12.579
X-0.147 Y-12.555
X-0.565 Y-12.564
X-0.983 Y-12.607
X-1.399 Y-12.683
X-1.809 Y-12.794
X-2.212 Y-12.937
X-2.603 Y-13.114
X-2.981 Y-13.322
X-3.342 Y-13.56
X-3.684 Y-13.829
X-4.005 Y-14.124
X-4.302 Y-14.446
X-4.574 Y-14.792
X-4.817 Y-15.159
X-5.031 Y-15.546
X-5.213 Y-15.95
X-5.363 Y-16.368
X-5.479 Y-16.797
X-5.56 Y-17.235
X-5.606 Y-17.68
X-5.616 Y-18.127
X-5.59 Y-18.574
X-5.529 Y-19.018
X-5.431 Y-19.456
X-5.299 Y-19.886
X-5.133 Y-20.304
X-4.933 Y-20.707
X-4.702 Y-21.094
X-4.44 Y-21.46
X-4.149 Y-21.805
X-3.832 Y-22.125
X-3.489 Y-22.42
X-3.124 Y-22.685
X-2.739 Y-22.921
X-2.336 Y-23.125
X-1.918 Y-23.296
X-1.487 Y-23.433
X-1.047 Y-23.535
X-0.6 Y-23.601
X-0.149 Y-23.632
X0.304 Y-23.626
X0.754 Y-23.583
X1.199 Y-23.505
X1.638 Y-23.391
X2.068 Y-23.241
X2.488 Y-23.056
X2.898 Y-22.835
X3.293 Y-22.578
X3.674 Y-22.285
X4.038 Y-21.955
X4.378 Y-21.593
X4.692 Y-21.2
X4.974 Y-20.781
X5.223 Y-20.339
X5.435 Y-19.88
X5.609 Y-19.406
X5.744 Y-18.922
X5.839 Y-18.432
X5.894 Y-17.938
X5.91 Y-17.444
X5.885 Y-16.953
X5.822 Y-16.467
X5.72 Y-15.99
X5.581 Y-15.524
X5.405 Y-15.072
X5.194 Y-14.636
X4.948 Y-14.217
X4.669 Y-13.82
X4.359 Y-13.446
X4.018 Y-13.096
X3.65 Y-12.775
X3.255 Y-12.482
X2.837 Y-12.222
X2.397 Y-11.994
X1.938 Y-11.802
X1.463 Y-11.647
X0.974 Y-11.529
X0.476 Y-11.451
X-0.03 Y-11.413
X-0.539 Y-11.416
X-1.05 Y-11.459
X-1.557 Y-11.544
X-2.058 Y-11.67
X-2.549 Y-11.837
X-3.027 Y-12.043
X-3.489 Y-12.287
X-3.932 Y-12.569
X-4.351 Y-12.887
X-4.746 Y-13.239
X-5.111 Y-13.622
X-5.446 Y-14.034
X-5.747 Y-14.473
X-6.013 Y-14.936
X-6.242 Y-15.42
X-6.431 Y-15.922
X-6.579 Y-16.438
X-6.686 Y-16.965
X-6.75 Y-17.5
X-6.771 Y-18.039
X-6.749 Y-18.579
X-6.683 Y-19.116
X-6.575 Y-19.646
X-6.424 Y-20.166
X-6.232 Y-20.673
X-5.999 Y-21.164
X-5.728 Y-21.634
X-5.419 Y-22.081
X-5.076 Y-22.503
X-4.7 Y-22.895
X-4.293 Y-23.256
X-3.858 Y-23.584
X-3.399 Y-23.875
X-2.917 Y-24.129
X-2.416 Y-24.344
X-1.9 Y-24.517
X-1.371 Y-24.649
X-0.834 Y-24.738
X-0.291 Y-24.783
X0.254 Y-24.785
X0.798 Y-24.743
X1.337 Y-24.657
X1.87 Y-24.528
X2.394 Y-24.355
X2.906 Y-24.14
X3.404 Y-23.881
X3.885 Y-23.579
X4.347 Y-23.236
X4.785 Y-22.852
X5.194 Y-22.431
X5.57 Y-21.975
X5.911 Y-21.487
X6.211 Y-20.973
X6.47 Y-20.437
X6.684 Y-19.882
X6.853 Y-19.312
X6.976 Y-18.733
X7.051 Y-18.148
X7.079 Y-17.56
X7.059 Y-16.975
X6.993 Y-16.394
X6.881 Y-15.823
X6.724 Y-15.263
X6.522 Y-14.719
X6.278 Y-14.193
X5.992 Y-13.688
X5.667 Y-13.207
X5.303 Y-12.754
X4.904 Y-12.33
X4.471 Y-11.939
X4.006 Y-11.583
X3.513 Y-11.264
X2.994 Y-10.985
X2.452 Y-10.748
X1.891 Y-10.554
X1.314 Y-10.405
X0.724 Y-10.303
X0.126 Y-10.248
X-0.477 Y-10.241
X-1.081 Y-10.283
X-1.682 Y-10.373
X-2.277 Y-10.512
X-2.86 Y-10.699
X-3.428 Y-10.933
X-3.977 Y-11.213
X-4.504 Y-11.536
X-5.005 Y-11.903
X-5.476 Y-12.309
X-5.914 Y-12.753
X-6.316 Y-13.232
X-6.679 Y-13.742
X-7 Y-14.282
X-7.278 Y-14.846
X-7.51 Y-15.432
X-7.694 Y-16.036
X-7.83 Y-16.653
X-7.916 Y-17.281
X-7.951 Y-17.914
X-7.935 Y-18.548
X-7.869 Y-19.18
X-7.751 Y-19.805
X-7.584 Y-20.419
X-7.368 Y-21.018
X-7.105 Y-21.598
X-6.795 Y-22.156
X-6.442 Y-22.687
X-6.046 Y-23.188
X-5.612 Y-23.656
X-5.142 Y-24.088
X-4.638 Y-24.481
X-4.104 Y-24.832
X-3.543 Y-25.14
X-2.96 Y-25.401
X-2.357 Y-25.615
X-1.739 Y-25.78
X-1.109 Y-25.894
X-0.472 Y-25.958
X0.168 Y-25.971
X0.808 Y-25.932
X1.444 Y-25.841
X2.074 Y-25.699
X2.693 Y-25.507
X3.3 Y-25.263
X3.889 Y-24.969
X4.458 Y-24.626
X5.002 Y-24.235
X5.516 Y-23.798
X5.997 Y-23.319
X6.441 Y-22.799
X6.843 Y-22.243
X7.2 Y-21.655
X7.51 Y-21.039
X7.769 Y-20.4
X7.975 Y-19.743
X8.128 Y-19.074
X8.227 Y-18.395
X8.27 Y-17.713
X8.259 Y-17.031
X8.193 Y-16.354
X8.074 Y-15.685
X7.901 Y-15.03
X7.676 Y-14.391
X7.401 Y-13.772
X7.078 Y-13.178
X6.707 Y-12.611
X6.292 Y-12.076
X5.835 Y-11.574
X5.338 Y-11.11
X4.804 Y-10.687
X4.236 Y-10.307
X3.638 Y-9.973
X3.014 Y-9.686
X2.366 Y-9.451
X1.699 Y-9.267
X1.017 Y-9.137
X0.325 Y-9.062
X-0.373 Y-9.043
X-1.073 Y-9.079
X-1.77 Y-9.173
X-2.46 Y-9.322
X-3.137 Y-9.527
X-3.798 Y-9.786
X-4.438 Y-10.099
X-5.052 Y-10.463
X-5.637 Y-10.876
X-6.188 Y-11.335
X-6.701 Y-11.839
X-7.174 Y-12.384
X-7.602 Y-12.966
X-7.983 Y-13.581
X-8.314 Y-14.226
X-8.592 Y-14.897
X-8.816 Y-15.589
X-8.984 Y-16.298
X-9.095 Y-17.018
X-9.147 Y-17.747
X-9.141 Y-18.477
X-9.076 Y-19.206
X-8.953 Y-19.928
X-8.773 Y-20.637
X-8.535 Y-21.331
X-8.243 Y-22.004
X-7.923 Y-22.601
X-7.875 Y-22.685
X-7.778 Y-22.853
X-7.697 Y-22.982
X-7.456 Y-23.355
X-7.363 Y-23.494
X-6.469 Y-24.526
X-6.359 Y-24.647
X-6.024 Y-24.918
X-5.522 Y-25.313
X-5.457 Y-25.363
X-5.012 Y-25.697
X-4.853 Y-25.805
X-3.763 Y-26.367
X-3.681 Y-26.402
X-3.179 Y-26.612
X-3.012 Y-26.662
X-2.175 Y-26.908
X-2.008 Y-26.956
X-1.506 Y-27.05
X-1.339 Y-27.072
X-0.335 Y-27.168
X-0.167 Y-27.172
X0.167
X0.335 Y-27.168
X1.339 Y-27.072
X1.506 Y-27.05
X2.008 Y-26.956
X2.175 Y-26.908
X3.012 Y-26.662
X3.179 Y-26.612
X3.681 Y-26.402
X3.763 Y-26.367
X4.853 Y-25.805
X5.02 Y-25.691
X5.457 Y-25.363
X5.522 Y-25.313
X6.024 Y-24.918
X6.359 Y-24.647
X6.469 Y-24.526
X7.363 Y-23.494
X7.456 Y-23.355
X7.697 Y-22.982
X7.778 Y-22.853
X8.357 Y-21.849
X8.367 Y-21.828
X8.421 Y-21.681
X8.885 Y-20.343
X8.94 Y-20.175
X8.967 Y-20.008
X9.112 Y-19.004
X9.134 Y-18.837
X9.18 Y-18.335
X9.179 Y-18.167
X9.132 Y-17.163
X9.101 Y-16.829
X9.085 Y-16.661
X9.06 Y-16.494
X8.817 Y-15.49
X8.771 Y-15.323
X8.668 Y-14.988
X8.616 Y-14.821
X8.158 Y-13.817
X8.078 Y-13.649
X7.787 Y-13.147
X7.53 Y-12.785
X7.191 Y-12.311
X6.946 Y-11.976
X6.908 Y-11.931
X5.727 Y-10.805
X5.689 Y-10.775
X5.487 Y-10.637
X5.187 Y-10.444
X4.351 Y-9.906
X4.183 Y-9.827
X3.752 Y-9.633
X2.677 Y-9.203
X2.594 Y-9.171
X2.51 Y-9.154
X1.506 Y-8.959
X0.879 Y-8.841
X0.837 Y-8.838
X-0.837
X-0.879 Y-8.841
X-1.529 Y-8.964
X-2.51 Y-9.154
X-2.594 Y-9.171
X-2.677 Y-9.203
X-3.752 Y-9.633
X-4.183 Y-9.827
X-4.351 Y-9.906
X-5.355 Y-10.552
X-5.487 Y-10.637
X-5.689 Y-10.775
X-5.727 Y-10.805
X-6.908 Y-11.931
X-6.946 Y-11.976
X-7.195 Y-12.316
X-7.697 Y-13.02
X-7.787 Y-13.147
X-8.078 Y-13.649
X-8.158 Y-13.817
X-8.616 Y-14.821
X-8.701 Y-15.097
X-8.771 Y-15.323
X-8.817 Y-15.49
X-9.06 Y-16.494
X-9.085 Y-16.661
X-9.117 Y-16.996
X-9.132 Y-17.163
X-9.179 Y-18.167
X-9.18 Y-18.335
X-9.134 Y-18.837
X-9.112 Y-19.004
X-8.967 Y-20.008
X-8.94 Y-20.175
X-8.869 Y-20.389
X-8.421 Y-21.681
X-8.367 Y-21.828
X-8.357 Y-21.849
X-7.923 Y-22.601
G3 X-7.513 Y-22.717 I0.269 J0.168
G1 X-7.472 Y-22.682 Z-1.993
X-7.432 Y-22.647 Z-1.979
X-7.394 Y-22.615 Z-1.956
X-7.377 Y-22.569 Z-1.92
X-7.362 Y-22.53 Z-1.876
X-7.351 Y-22.5 Z-1.825
X-7.343 Y-22.479 Z-1.769
X-7.339 Y-22.469 Z-1.709
Y-22.467 Z-1.681
G0 Z3.002
X-0.35 Y-25.108
Z-1.165
G1 Z-1.482 F1000
X-0.352 Y-25.116 Z-1.553
X-0.36 Y-25.138 Z-1.62
X-0.373 Y-25.173 Z-1.68
X-0.39 Y-25.221 Z-1.731
X-0.411 Y-25.277 Z-1.769
X-0.433 Y-25.34 Z-1.792
X-0.457 Y-25.407 Z-1.8
G3 X-0.869 Y-27.104 I7.626 J-2.748
G1 X-0.883 Y-27.253
X-0.853 Y-27.29
X-0.813 Y-27.315
X-0.767 Y-27.327
X-0.31 Y-27.371
X-0.167 Y-27.372
X0.167
X0.31 Y-27.371
X1.339 Y-27.273
X1.506 Y-27.251
X2.008 Y-27.165
X2.175 Y-27.117
X3.023 Y-26.869
X3.179 Y-26.822
X3.681 Y-26.628
X3.849 Y-26.551
X4.855 Y-26.032
X5.02 Y-25.931
X5.187 Y-25.824
X5.362 Y-25.697
X6.214 Y-25.028
X6.359 Y-24.91
X6.586 Y-24.693
X6.693 Y-24.579
X7.195 Y-23.999
X7.596 Y-23.522
X7.697 Y-23.381
X7.715 Y-23.355
X7.821 Y-23.187
X8.304 Y-22.351
X8.367 Y-22.239
X8.563 Y-21.849
X8.638 Y-21.681
X8.985 Y-20.677
X9.037 Y-20.51
X9.128 Y-20.175
X9.173 Y-20.008
X9.318 Y-19.004
X9.34 Y-18.837
X9.384 Y-18.335
X9.382 Y-18.167
X9.335 Y-17.163
X9.306 Y-16.829
X9.292 Y-16.661
X9.267 Y-16.494
X9.024 Y-15.49
X8.941 Y-15.155
X8.869 Y-14.924
X8.835 Y-14.821
X8.367 Y-13.794
X8.298 Y-13.649
X8.024 Y-13.147
X7.913 Y-12.98
X7.195 Y-11.972
X7.028 Y-11.784
X6.896 Y-11.641
X6.019 Y-10.805
X5.801 Y-10.637
X5.522 Y-10.424
X5.342 Y-10.303
X4.853 Y-9.989
X4.351 Y-9.674
X4.27 Y-9.633
X3.849 Y-9.455
X3.681 Y-9.386
X3.012 Y-9.118
X2.845 Y-9.054
X2.677 Y-8.999
X2.56 Y-8.964
X2.008 Y-8.848
X1.506 Y-8.751
X1.339 Y-8.722
X1.004 Y-8.668
X0.837 Y-8.644
X0.335 Y-8.634
X0.167 Y-8.633
X-0.167
X-0.335 Y-8.634
X-0.837 Y-8.644
X-1.004 Y-8.668
X-1.339 Y-8.722
X-1.506 Y-8.751
X-2.008 Y-8.848
X-2.56 Y-8.964
X-2.677 Y-8.999
X-2.845 Y-9.054
X-3.012 Y-9.118
X-3.681 Y-9.386
X-3.874 Y-9.466
X-4.27 Y-9.633
X-4.351 Y-9.674
X-4.853 Y-9.989
X-5.355 Y-10.311
X-5.522 Y-10.424
X-5.857 Y-10.679
X-6.019 Y-10.805
X-6.896 Y-11.641
X-7.051 Y-11.809
X-7.195 Y-11.972
X-7.913 Y-12.98
X-8.024 Y-13.147
X-8.298 Y-13.649
X-8.377 Y-13.817
X-8.835 Y-14.821
X-8.889 Y-14.988
X-8.941 Y-15.155
X-9.036 Y-15.541
X-9.267 Y-16.494
X-9.292 Y-16.661
X-9.321 Y-16.996
X-9.335 Y-17.163
X-9.382 Y-18.167
X-9.384 Y-18.335
X-9.34 Y-18.837
X-9.318 Y-19.004
X-9.173 Y-20.008
X-9.082 Y-20.343
X-9.036 Y-20.511
X-8.985 Y-20.677
X-8.638 Y-21.681
X-8.563 Y-21.849
X-8.367 Y-22.239
X-8.304 Y-22.351
X-7.821 Y-23.187
X-7.715 Y-23.355
X-7.697 Y-23.381
X-7.596 Y-23.522
X-7.174 Y-24.024
X-6.693 Y-24.579
X-6.586 Y-24.693
X-6.359 Y-24.91
X-6.191 Y-25.046
X-5.355 Y-25.703
X-5.187 Y-25.824
X-5.02 Y-25.931
X-4.853 Y-26.033
X-3.849 Y-26.551
X-3.681 Y-26.628
X-3.179 Y-26.822
X-3.012 Y-26.872
X-2.175 Y-27.117
X-2.008 Y-27.165
X-1.506 Y-27.251
X-1.339 Y-27.273
X-0.767 Y-27.327
G3 X-0.434 Y-27.06 I0.019 J0.317
G1 X-0.43 Y-27.01 Z-1.796
X-0.444 Y-26.956 Z-1.781
X-0.457 Y-26.905 Z-1.756
X-0.469 Y-26.859 Z-1.722
X-0.498 Y-26.823 Z-1.673
X-0.519 Y-26.796 Z-1.614
X-0.532 Y-26.779 Z-1.55
X-0.537 Y-26.773 Z-1.483
G0 Z3.002
X6.506 Y-14.661
Z-0.965
G1 Z-1.283 F1000
X6.514 Y-14.659 Z-1.353
X6.537 Y-14.655 Z-1.42
X6.575 Y-14.649 Z-1.48
X6.624 Y-14.64 Z-1.531
X6.683 Y-14.629 Z-1.569
X6.749 Y-14.617 Z-1.592
X6.819 Y-14.604 Z-1.6
G3 X8.494 Y-14.111 I-1.44 J7.977
G1 X8.63 Y-14.049
X8.648 Y-14.001
X8.65 Y-13.95
X8.636 Y-13.9
X8.521 Y-13.649
X8.365 Y-13.315
X8.269 Y-13.147
X8.199 Y-13.04
X7.803 Y-12.478
X7.446 Y-11.976
X7.313 Y-11.809
X7.195 Y-11.662
X7.008 Y-11.474
X6.838 Y-11.307
X6.489 Y-10.972
X6.138 Y-10.637
X6.024 Y-10.534
X5.689 Y-10.294
X5.522 Y-10.177
X5.461 Y-10.135
X4.853 Y-9.745
X4.685 Y-9.639
X4.351 Y-9.458
X4.183 Y-9.381
X3.849 Y-9.235
X3.681 Y-9.164
X3.179 Y-8.963
X2.673 Y-8.796
X2.51 Y-8.751
X2.008 Y-8.638
X1.339 Y-8.509
X1.171 Y-8.486
X0.959 Y-8.462
X0.837 Y-8.45
X0.335 Y-8.428
X0.167 Y-8.426
X-0.167
X-0.335 Y-8.428
X-0.837 Y-8.45
X-1.004 Y-8.467
X-1.171 Y-8.486
X-1.339 Y-8.509
X-2.008 Y-8.638
X-2.51 Y-8.751
X-2.677 Y-8.798
X-3.182 Y-8.964
X-3.681 Y-9.164
X-3.849 Y-9.235
X-4.183 Y-9.381
X-4.351 Y-9.458
X-4.685 Y-9.639
X-4.853 Y-9.745
X-5.461 Y-10.135
X-5.522 Y-10.177
X-5.701 Y-10.303
X-6.024 Y-10.534
X-6.138 Y-10.637
X-6.693 Y-11.167
X-6.861 Y-11.328
X-7.028 Y-11.494
X-7.195 Y-11.662
X-7.363 Y-11.871
X-7.446 Y-11.976
X-7.865 Y-12.565
X-8.199 Y-13.04
X-8.269 Y-13.147
X-8.367 Y-13.318
X-8.534 Y-13.677
X-8.904 Y-14.486
X-9.054 Y-14.821
X-9.101 Y-14.988
X-9.204 Y-15.373
X-9.233 Y-15.49
X-9.371 Y-16.061
X-9.473 Y-16.494
X-9.497 Y-16.661
X-9.538 Y-17.139
X-9.587 Y-18.167
X-9.589 Y-18.335
X-9.546 Y-18.837
X-9.538 Y-18.905
X-9.501 Y-19.171
X-9.381 Y-20.008
X-9.371 Y-20.049
X-9.251 Y-20.51
X-9.201 Y-20.677
X-9.03 Y-21.179
X-8.855 Y-21.681
X-8.784 Y-21.849
X-8.625 Y-22.183
X-8.543 Y-22.351
X-8.253 Y-22.853
X-8.199 Y-22.942
X-7.946 Y-23.355
X-7.865 Y-23.484
X-7.838 Y-23.522
X-7.713 Y-23.689
X-7.445 Y-24.024
X-7.363 Y-24.121
X-7.012 Y-24.526
X-6.859 Y-24.693
X-6.693 Y-24.862
X-6.518 Y-25.028
X-6.333 Y-25.195
X-6.024 Y-25.439
X-5.689 Y-25.702
X-5.522 Y-25.83
X-5.474 Y-25.865
X-4.959 Y-26.199
X-4.853 Y-26.263
X-4.328 Y-26.534
X-3.849 Y-26.77
X-3.642 Y-26.869
X-3.514 Y-26.928
X-3.173 Y-27.036
X-2.605 Y-27.204
X-2.175 Y-27.323
X-2.008 Y-27.369
X-1.506 Y-27.454
X-1.339 Y-27.475
X-0.837 Y-27.523
X-0.335 Y-27.569
X-0.167 Y-27.572
X0.167
X0.335 Y-27.569
X1.004 Y-27.507
X1.339 Y-27.475
X1.506 Y-27.454
X2.008 Y-27.369
X2.175 Y-27.323
X2.605 Y-27.204
X3.179 Y-27.034
X3.514 Y-26.928
X3.681 Y-26.851
X3.849 Y-26.77
X4.351 Y-26.522
X4.853 Y-26.263
X4.959 Y-26.199
X5.474 Y-25.865
X5.522 Y-25.83
X5.696 Y-25.697
X6.191 Y-25.307
X6.333 Y-25.195
X6.526 Y-25.021
X6.695 Y-24.861
X6.861 Y-24.691
X7.012 Y-24.526
X7.363 Y-24.121
X7.445 Y-24.024
X7.713 Y-23.689
X7.838 Y-23.522
X7.865 Y-23.484
X7.946 Y-23.355
X8.199 Y-22.942
X8.253 Y-22.853
X8.543 Y-22.351
X8.625 Y-22.183
X8.784 Y-21.849
X8.855 Y-21.681
X9.036 Y-21.161
X9.204 Y-20.67
X9.251 Y-20.51
X9.371 Y-20.049
X9.381 Y-20.008
X9.501 Y-19.171
X9.538 Y-18.905
X9.546 Y-18.837
X9.589 Y-18.335
X9.587 Y-18.167
X9.538 Y-17.139
X9.497 Y-16.661
X9.473 Y-16.494
X9.355 Y-15.992
X9.233 Y-15.49
X9.204 Y-15.373
X9.101 Y-14.988
X9.054 Y-14.821
X8.904 Y-14.486
X8.636 Y-13.9
G3 X8.239 Y-13.746 I-0.284 J-0.142
G1 X8.194 Y-13.778 Z-1.595
X8.151 Y-13.808 Z-1.581
X8.111 Y-13.837 Z-1.558
X8.089 Y-13.881 Z-1.522
X8.071 Y-13.918 Z-1.478
X8.056 Y-13.947 Z-1.427
X8.047 Y-13.967 Z-1.371
X8.042 Y-13.977 Z-1.311
Y-13.978 Z-1.283
G0 Z3.002
X5.943 Y-13.394
Z-0.765
G1 Z-1.082 F1000
X5.951 Y-13.392 Z-1.153
X5.972 Y-13.383 Z-1.22
X6.008 Y-13.37 Z-1.28
X6.055 Y-13.352 Z-1.331
X6.111 Y-13.33 Z-1.369
X6.174 Y-13.306 Z-1.392
X6.24 Y-13.281 Z-1.4
G3 X7.794 Y-12.486 I-2.893 J7.572
G1 X7.917 Y-12.399
X7.925 Y-12.353
X7.918 Y-12.306
X7.897 Y-12.264
X7.53 Y-11.747
X7.447 Y-11.641
X7.195 Y-11.382
X6.953 Y-11.139
X6.861 Y-11.049
X6.608 Y-10.805
X6.359 Y-10.567
X6.246 Y-10.47
X6.045 Y-10.303
X6.024 Y-10.287
X5.522 Y-9.936
X5.317 Y-9.801
X5.02 Y-9.609
X4.853 Y-9.506
X4.351 Y-9.243
X4.183 Y-9.163
X4.016 Y-9.085
X3.735 Y-8.964
X3.179 Y-8.741
X3.012 Y-8.691
X2.677 Y-8.594
X2.51 Y-8.547
X2.343 Y-8.503
X2.008 Y-8.428
X1.506 Y-8.331
X1.339 Y-8.307
X1.004 Y-8.272
X0.837 Y-8.255
X0.335 Y-8.223
X0.167 Y-8.22
X-0.167
X-0.335 Y-8.223
X-0.837 Y-8.255
X-1.004 Y-8.272
X-1.339 Y-8.307
X-1.506 Y-8.331
X-2.008 Y-8.428
X-2.343 Y-8.503
X-2.51 Y-8.547
X-2.677 Y-8.594
X-3.012 Y-8.691
X-3.179 Y-8.741
X-3.735 Y-8.964
X-4.016 Y-9.085
X-4.183 Y-9.163
X-4.351 Y-9.243
X-4.853 Y-9.506
X-5.02 Y-9.609
X-5.355 Y-9.825
X-5.522 Y-9.936
X-6.024 Y-10.287
X-6.045 Y-10.303
X-6.246 Y-10.47
X-6.359 Y-10.567
X-6.608 Y-10.805
X-6.861 Y-11.049
X-7.028 Y-11.215
X-7.195 Y-11.382
X-7.447 Y-11.641
X-7.53 Y-11.747
X-7.93 Y-12.311
X-8.199 Y-12.693
X-8.4 Y-12.98
X-8.507 Y-13.147
X-8.896 Y-13.984
X-8.973 Y-14.151
X-9.036 Y-14.293
X-9.258 Y-14.821
X-9.305 Y-14.988
X-9.439 Y-15.49
X-9.482 Y-15.657
X-9.538 Y-15.885
X-9.564 Y-15.992
X-9.67 Y-16.494
X-9.693 Y-16.661
X-9.737 Y-17.163
X-9.768 Y-17.665
X-9.775 Y-17.833
X-9.786 Y-18.167
X-9.785 Y-18.335
X-9.741 Y-18.837
X-9.703 Y-19.171
X-9.683 Y-19.339
X-9.661 Y-19.506
X-9.586 Y-20.008
X-9.497 Y-20.343
X-9.453 Y-20.51
X-9.404 Y-20.677
X-9.248 Y-21.179
X-9.07 Y-21.681
X-9.036 Y-21.767
X-8.842 Y-22.183
X-8.761 Y-22.351
X-8.49 Y-22.853
X-8.367 Y-23.069
X-8.293 Y-23.187
X-8.185 Y-23.355
X-8.074 Y-23.522
X-7.84 Y-23.857
X-7.718 Y-24.024
X-7.697 Y-24.05
X-7.195 Y-24.63
X-6.969 Y-24.861
X-6.636 Y-25.195
X-6.526 Y-25.289
X-6.024 Y-25.701
X-5.857 Y-25.827
X-5.522 Y-26.068
X-5.187 Y-26.304
X-5.088 Y-26.367
X-4.853 Y-26.494
X-4.351 Y-26.753
X-4.106 Y-26.869
X-3.747 Y-27.036
X-3.514 Y-27.122
X-3.179 Y-27.245
X-3.012 Y-27.295
X-2.677 Y-27.393
X-2.51 Y-27.44
X-2.142 Y-27.538
X-2.008 Y-27.573
X-1.506 Y-27.656
X-1.339 Y-27.677
X-0.837 Y-27.725
X-0.335 Y-27.769
X-0.167 Y-27.772
X0.167
X0.335 Y-27.769
X0.837 Y-27.725
X1.339 Y-27.677
X1.506 Y-27.656
X2.008 Y-27.573
X2.175 Y-27.529
X2.51 Y-27.44
X2.677 Y-27.393
X3.012 Y-27.295
X3.179 Y-27.245
X3.681 Y-27.061
X3.747 Y-27.036
X4.183 Y-26.833
X4.351 Y-26.753
X4.853 Y-26.494
X5.088 Y-26.367
X5.187 Y-26.304
X5.522 Y-26.068
X5.857 Y-25.827
X6.028 Y-25.697
X6.526 Y-25.289
X6.636 Y-25.195
X6.969 Y-24.861
X7.195 Y-24.63
X7.697 Y-24.05
X7.718 Y-24.024
X7.84 Y-23.857
X8.074 Y-23.522
X8.199 Y-23.333
X8.293 Y-23.187
X8.367 Y-23.069
X8.49 Y-22.853
X8.761 Y-22.351
X8.842 Y-22.183
X9.036 Y-21.767
X9.07 Y-21.681
X9.248 Y-21.179
X9.404 Y-20.677
X9.453 Y-20.51
X9.542 Y-20.175
X9.586 Y-20.008
X9.661 Y-19.506
X9.683 Y-19.339
X9.723 Y-19.004
X9.741 Y-18.837
X9.785 Y-18.335
X9.786 Y-18.167
X9.775 Y-17.833
X9.768 Y-17.665
X9.737 Y-17.163
X9.693 Y-16.661
X9.67 Y-16.494
X9.564 Y-15.992
X9.523 Y-15.825
X9.482 Y-15.657
X9.395 Y-15.323
X9.305 Y-14.988
X9.258 Y-14.821
X9.036 Y-14.293
X8.973 Y-14.151
X8.819 Y-13.817
X8.507 Y-13.147
X8.4 Y-12.98
X8.166 Y-12.645
X7.897 Y-12.264
G3 X7.478 Y-12.186 I-0.253 J-0.192
G1 X7.44 Y-12.225 Z-1.395
X7.403 Y-12.263 Z-1.381
X7.369 Y-12.299 Z-1.358
X7.356 Y-12.346 Z-1.322
X7.345 Y-12.386 Z-1.278
X7.336 Y-12.417 Z-1.227
X7.33 Y-12.439 Z-1.171
X7.327 Y-12.45 Z-1.111
Y-12.451 Z-1.082
G0 Z3.002
X6.853 Y-14.458
Z-0.565
G1 Z-0.882 F1000
X6.861 Y-14.456 Z-0.953
X6.884 Y-14.452 Z-1.02
X6.921 Y-14.445 Z-1.08
X6.97 Y-14.436 Z-1.131
X7.029 Y-14.425 Z-1.169
X7.095 Y-14.413 Z-1.192
X7.165 Y-14.4 Z-1.2
G3 X8.837 Y-13.898 I-1.482 J7.969
G1 X8.973 Y-13.834
X8.991 Y-13.788
X8.993 Y-13.738
X8.98 Y-13.69
X8.727 Y-13.147
X8.701 Y-13.099
X8.367 Y-12.587
X8.292 Y-12.478
X7.94 Y-11.976
X7.821 Y-11.809
X7.691 Y-11.641
X7.53 Y-11.449
X7.399 Y-11.307
X6.897 Y-10.805
X6.693 Y-10.606
X6.526 Y-10.449
X6.359 Y-10.297
X6.191 Y-10.165
X5.522 Y-9.697
X5.429 Y-9.633
X4.916 Y-9.299
X4.853 Y-9.264
X4.518 Y-9.104
X4.183 Y-8.948
X3.849 Y-8.794
X3.681 Y-8.721
X3.179 Y-8.528
X3.012 Y-8.481
X2.51 Y-8.347
X2.008 Y-8.217
X1.506 Y-8.125
X1.339 Y-8.104
X0.335 Y-8.017
X0.167 Y-8.013
X-0.167
X-0.335 Y-8.017
X-1.339 Y-8.104
X-1.506 Y-8.125
X-2.008 Y-8.217
X-2.51 Y-8.347
X-3.012 Y-8.481
X-3.179 Y-8.528
X-3.681 Y-8.721
X-3.854 Y-8.796
X-4.351 Y-9.026
X-4.575 Y-9.131
X-4.853 Y-9.264
X-4.916 Y-9.299
X-5.429 Y-9.633
X-5.522 Y-9.697
X-6.191 Y-10.165
X-6.359 Y-10.297
X-6.549 Y-10.47
X-6.693 Y-10.606
X-6.897 Y-10.805
X-7.399 Y-11.307
X-7.53 Y-11.449
X-7.697 Y-11.649
X-7.821 Y-11.809
X-7.94 Y-11.976
X-8.292 Y-12.478
X-8.367 Y-12.587
X-8.701 Y-13.099
X-8.727 Y-13.147
X-9.116 Y-13.984
X-9.204 Y-14.173
X-9.267 Y-14.319
X-9.462 Y-14.821
X-9.509 Y-14.988
X-9.643 Y-15.49
X-9.773 Y-15.992
X-9.873 Y-16.519
X-9.89 Y-16.661
X-9.934 Y-17.163
X-9.972 Y-17.665
X-9.978 Y-17.833
X-9.983 Y-18.167
X-9.981 Y-18.335
X-9.937 Y-18.837
X-9.889 Y-19.339
X-9.873 Y-19.476
X-9.787 Y-20.008
X-9.698 Y-20.343
X-9.517 Y-21.012
X-9.467 Y-21.179
X-9.284 Y-21.681
X-9.212 Y-21.849
X-8.978 Y-22.351
X-8.898 Y-22.518
X-8.728 Y-22.853
X-8.701 Y-22.902
X-8.367 Y-23.439
X-8.311 Y-23.522
X-7.959 Y-24.024
X-7.836 Y-24.191
X-7.697 Y-24.366
X-7.53 Y-24.559
X-7.405 Y-24.693
X-7.195 Y-24.91
X-6.693 Y-25.412
X-6.566 Y-25.53
X-6.359 Y-25.698
X-6.191 Y-25.829
X-6.024 Y-25.956
X-5.522 Y-26.307
X-5.433 Y-26.367
X-4.895 Y-26.701
X-4.853 Y-26.724
X-4.518 Y-26.891
X-4.351 Y-26.971
X-3.849 Y-27.205
X-3.681 Y-27.277
X-3.179 Y-27.457
X-3.012 Y-27.507
X-2.51 Y-27.644
X-2.175 Y-27.734
X-2.008 Y-27.778
X-1.506 Y-27.859
X-1.41 Y-27.873
X-0.669 Y-27.939
X-0.335 Y-27.969
X-0.167 Y-27.972
X0.167
X0.335 Y-27.969
X1.004 Y-27.91
X1.41 Y-27.873
X1.506 Y-27.859
X2.008 Y-27.778
X2.343 Y-27.689
X2.677 Y-27.599
X3.012 Y-27.507
X3.179 Y-27.457
X3.681 Y-27.277
X3.852 Y-27.204
X4.351 Y-26.971
X4.518 Y-26.891
X4.853 Y-26.724
X4.895 Y-26.701
X5.433 Y-26.367
X5.522 Y-26.307
X6.024 Y-25.956
X6.191 Y-25.829
X6.359 Y-25.697
X6.566 Y-25.53
X6.693 Y-25.412
X7.195 Y-24.91
X7.405 Y-24.693
X7.53 Y-24.559
X7.703 Y-24.359
X7.836 Y-24.191
X7.959 Y-24.024
X8.311 Y-23.522
X8.367 Y-23.439
X8.701 Y-22.902
X8.728 Y-22.853
X8.898 Y-22.518
X8.978 Y-22.351
X9.212 Y-21.849
X9.284 Y-21.681
X9.467 Y-21.179
X9.517 Y-21.012
X9.706 Y-20.316
X9.787 Y-20.008
X9.873 Y-19.476
X9.889 Y-19.339
X9.937 Y-18.837
X9.981 Y-18.335
X9.983 Y-18.167
X9.978 Y-17.833
X9.972 Y-17.665
X9.934 Y-17.163
X9.89 Y-16.661
X9.873 Y-16.519
X9.773 Y-15.992
X9.643 Y-15.49
X9.509 Y-14.988
X9.462 Y-14.821
X9.267 Y-14.319
X9.204 Y-14.173
X8.98 Y-13.69
G3 X8.581 Y-13.538 I-0.283 J-0.144
G1 X8.537 Y-13.57 Z-1.195
X8.494 Y-13.6 Z-1.181
X8.454 Y-13.629 Z-1.158
X8.432 Y-13.673 Z-1.122
X8.414 Y-13.711 Z-1.078
X8.4 Y-13.74 Z-1.027
X8.39 Y-13.76 Z-0.971
X8.386 Y-13.77 Z-0.911
X8.385 Y-13.771 Z-0.882
G0 Z3.002
X-0.363 Y-25.901
Z-0.365
G1 Z-0.683 F1000
X-0.365 Y-25.908 Z-0.753
X-0.373 Y-25.93 Z-0.82
X-0.386 Y-25.966 Z-0.88
X-0.402 Y-26.014 Z-0.931
X-0.422 Y-26.07 Z-0.969
X-0.444 Y-26.134 Z-0.992
X-0.468 Y-26.2 Z-1
G3 X-0.866 Y-27.901 I7.647 J-2.688
G1 X-0.879 Y-28.05
X-0.846 Y-28.091
X-0.801 Y-28.119
X-0.75 Y-28.132
X-0.335 Y-28.169
X-0.167 Y-28.172
X0.167
X0.335 Y-28.169
X1.506 Y-28.066
X1.685 Y-28.04
X2.008 Y-27.982
X2.343 Y-27.893
X3.043 Y-27.706
X3.179 Y-27.667
X3.681 Y-27.495
X3.849 Y-27.421
X4.853 Y-26.953
X5.007 Y-26.869
X5.355 Y-26.653
X5.522 Y-26.545
X6.024 Y-26.193
X6.526 Y-25.826
X6.679 Y-25.697
X6.861 Y-25.519
X7.363 Y-25.017
X7.53 Y-24.848
X7.697 Y-24.674
X7.822 Y-24.526
X8.199 Y-24.019
X8.547 Y-23.522
X8.657 Y-23.355
X8.869 Y-23.019
X8.957 Y-22.853
X9.425 Y-21.849
X9.498 Y-21.681
X9.673 Y-21.179
X9.706 Y-21.066
X9.944 Y-20.175
X9.988 Y-20.008
X10.052 Y-19.673
X10.072 Y-19.506
X10.089 Y-19.339
X10.176 Y-18.335
X10.18 Y-18.167
X10.179 Y-17.833
X10.175 Y-17.665
X10.072 Y-16.494
X10.056 Y-16.327
X9.982 Y-15.992
X9.848 Y-15.49
X9.706 Y-14.957
X9.667 Y-14.821
X9.49 Y-14.319
X9.415 Y-14.151
X8.947 Y-13.147
X8.869 Y-13.003
X8.645 Y-12.645
X8.534 Y-12.476
X8.184 Y-11.976
X7.822 Y-11.474
X7.697 Y-11.326
X7.009 Y-10.637
X6.84 Y-10.47
X6.67 Y-10.303
X6.526 Y-10.181
X6.012 Y-9.801
X5.522 Y-9.457
X5.355 Y-9.347
X5.015 Y-9.131
X4.853 Y-9.045
X3.849 Y-8.577
X3.681 Y-8.504
X3.179 Y-8.327
X3.066 Y-8.294
X2.175 Y-8.056
X2.008 Y-8.012
X1.673 Y-7.943
X1.506 Y-7.925
X1.339 Y-7.909
X0.335 Y-7.822
X0.167 Y-7.818
X-0.167
X-0.335 Y-7.822
X-1.339 Y-7.909
X-1.506 Y-7.925
X-1.673 Y-7.943
X-2.008 Y-8.012
X-2.343 Y-8.101
X-3.066 Y-8.294
X-3.179 Y-8.327
X-3.681 Y-8.504
X-3.849 Y-8.577
X-4.853 Y-9.045
X-5.02 Y-9.135
X-5.355 Y-9.347
X-5.534 Y-9.466
X-6.024 Y-9.809
X-6.526 Y-10.181
X-6.67 Y-10.303
X-6.861 Y-10.49
X-7.53 Y-11.158
X-7.697 Y-11.326
X-7.822 Y-11.474
X-8.199 Y-11.998
X-8.535 Y-12.478
X-8.645 Y-12.645
X-8.869 Y-13.003
X-8.947 Y-13.147
X-9.415 Y-14.151
X-9.49 Y-14.319
X-9.667 Y-14.821
X-9.714 Y-14.988
X-9.938 Y-15.825
X-9.982 Y-15.992
X-10.056 Y-16.327
X-10.072 Y-16.494
X-10.175 Y-17.665
X-10.179 Y-17.833
X-10.18 Y-18.167
X-10.176 Y-18.335
X-10.089 Y-19.339
X-10.072 Y-19.506
X-10.052 Y-19.673
X-9.988 Y-20.008
X-9.899 Y-20.343
X-9.706 Y-21.066
X-9.673 Y-21.179
X-9.498 Y-21.681
X-9.425 Y-21.849
X-8.957 Y-22.853
X-8.868 Y-23.02
X-8.657 Y-23.355
X-8.547 Y-23.522
X-8.196 Y-24.024
X-7.822 Y-24.526
X-7.697 Y-24.674
X-7.518 Y-24.861
X-7.352 Y-25.028
X-6.849 Y-25.53
X-6.679 Y-25.697
X-6.526 Y-25.826
X-6.015 Y-26.199
X-5.522 Y-26.545
X-5.355 Y-26.653
X-5.007 Y-26.869
X-4.853 Y-26.953
X-3.849 Y-27.421
X-3.681 Y-27.495
X-3.179 Y-27.667
X-3.012 Y-27.714
X-2.175 Y-27.938
X-2.008 Y-27.982
X-1.673 Y-28.042
X-1.506 Y-28.066
X-0.75 Y-28.132
G3 X-0.419 Y-27.863 I0.017 J0.317
G1 X-0.416 Y-27.815 Z-0.996
X-0.43 Y-27.761 Z-0.982
X-0.443 Y-27.71 Z-0.958
X-0.454 Y-27.664 Z-0.924
X-0.484 Y-27.627 Z-0.875
X-0.506 Y-27.599 Z-0.816
X-0.519 Y-27.582 Z-0.751
X-0.524 Y-27.577 Z-0.683
G0 Z3.002
X13.235 Y-4.112
Z-0.165
G1 Z-0.482 F1000
X13.229 Y-4.118 Z-0.553
X13.213 Y-4.134 Z-0.62
X13.187 Y-4.162 Z-0.68
X13.152 Y-4.198 Z-0.731
X13.11 Y-4.241 Z-0.769
X13.063 Y-4.289 Z-0.792
X13.014 Y-4.34 Z-0.8
G3 X11.943 Y-5.719 I5.827 J-5.635
G1 X11.919 Y-5.761
X11.918 Y-5.809
X11.941 Y-5.852
X12.048 Y-5.968
X13.387 Y-7.479
X13.64 Y-7.792
X13.722 Y-7.897
X14.925 Y-9.801
X15.03 Y-9.968
X15.06 Y-10.02
X15.117 Y-10.135
X15.339 Y-10.637
X16.064 Y-12.341
X16.122 Y-12.478
X16.176 Y-12.645
X16.227 Y-12.813
X16.763 Y-14.988
X16.792 Y-15.155
X16.846 Y-15.49
X16.863 Y-15.657
X17.025 Y-17.665
X17.031 Y-17.833
Y-18.167
X17.025 Y-18.335
X16.863 Y-20.343
X16.846 Y-20.51
X16.792 Y-20.845
X16.763 Y-21.012
X16.227 Y-23.187
X16.176 Y-23.355
X16.122 Y-23.522
X15.695 Y-24.526
X15.339 Y-25.363
X15.117 Y-25.865
X15.06 Y-25.98
X15.03 Y-26.032
X14.224 Y-27.309
X13.722 Y-28.103
X13.64 Y-28.208
X13.387 Y-28.521
X12.034 Y-30.048
X11.879 Y-30.216
X11.714 Y-30.376
X11.094 Y-30.885
X9.864 Y-31.889
X9.706 Y-32.007
X9.635 Y-32.056
X9.538 Y-32.119
X7.865 Y-33.086
X7.53 Y-33.277
X7.363 Y-33.371
X6.861 Y-33.576
X5.187 Y-34.211
X4.685 Y-34.384
X4.639 Y-34.399
X3.828 Y-34.566
X2.51 Y-34.835
X2.343 Y-34.865
X2.008 Y-34.919
X1.841 Y-34.936
X-0.167 Y-35.018
X-0.335 Y-35.022
X-0.669
X-0.837 Y-35.02
X-3.012 Y-34.756
X-3.514 Y-34.675
X-3.681 Y-34.629
X-5.689 Y-34.048
X-5.857 Y-33.99
X-6.191 Y-33.866
X-6.359 Y-33.796
X-8.032 Y-33.002
X-8.367 Y-32.84
X-8.534 Y-32.749
X-8.869 Y-32.529
X-9.072 Y-32.391
X-10.542 Y-31.376
X-10.71 Y-31.251
X-11.119 Y-30.885
X-11.212 Y-30.799
X-12.55 Y-29.513
X-12.68 Y-29.379
X-12.835 Y-29.212
X-13.722 Y-28.033
X-14.056 Y-27.588
X-14.093 Y-27.538
X-14.449 Y-27.036
X-14.541 Y-26.869
X-15.595 Y-24.861
X-15.664 Y-24.693
X-15.793 Y-24.359
X-15.852 Y-24.191
X-16.355 Y-22.685
X-16.518 Y-22.183
X-16.56 Y-22.016
X-16.62 Y-21.681
X-16.649 Y-21.514
X-16.901 Y-19.964
X-16.92 Y-19.841
X-16.97 Y-19.506
X-16.991 Y-19.339
X-16.997 Y-18.837
Y-17.163
X-16.991 Y-16.661
X-16.97 Y-16.494
X-16.92 Y-16.159
X-16.894 Y-15.992
X-16.649 Y-14.486
X-16.59 Y-14.151
X-16.56 Y-13.984
X-16.518 Y-13.817
X-16.355 Y-13.315
X-15.852 Y-11.809
X-15.793 Y-11.641
X-15.664 Y-11.307
X-15.595 Y-11.139
X-14.541 Y-9.131
X-14.449 Y-8.964
X-14.093 Y-8.462
X-13.968 Y-8.294
X-12.885 Y-6.854
X-12.835 Y-6.788
X-12.68 Y-6.621
X-12.55 Y-6.487
X-11.212 Y-5.201
X-11.119 Y-5.115
X-10.71 Y-4.749
X-10.542 Y-4.624
X-9.036 Y-3.584
X-8.869 Y-3.471
X-8.534 Y-3.251
X-8.367 Y-3.16
X-7.91 Y-2.94
X-6.359 Y-2.204
X-6.191 Y-2.134
X-5.857 Y-2.01
X-5.689 Y-1.952
X-3.681 Y-1.371
X-3.514 Y-1.325
X-3.012 Y-1.244
X-0.837 Y-0.98
X-0.669 Y-0.978
X-0.335
X-0.167 Y-0.982
X1.841 Y-1.064
X2.008 Y-1.081
X2.343 Y-1.135
X2.51 Y-1.165
X4.183 Y-1.507
X4.639 Y-1.601
X4.685 Y-1.616
X5.187 Y-1.789
X6.861 Y-2.424
X7.363 Y-2.629
X7.53 Y-2.723
X8.032 Y-3.011
X9.538 Y-3.881
X9.635 Y-3.944
X9.706 Y-3.993
X9.873 Y-4.118
X11.298 Y-5.282
X11.714 Y-5.624
X11.881 Y-5.787
X11.941 Y-5.852
X11.989 Y-5.891
X12.044 Y-5.921
X12.104 Y-5.939
X12.166 Y-5.945
X12.22 Y-5.941
X12.273 Y-5.927
X12.322 Y-5.904
X12.367 Y-5.874
X12.399 Y-5.83 Z-0.795
X12.431 Y-5.788 Z-0.781
X12.46 Y-5.748 Z-0.758
X12.469 Y-5.7 Z-0.723
X12.477 Y-5.66 Z-0.68
X12.484 Y-5.628 Z-0.63
X12.483 Y-5.608 Z-0.583
X12.482 Y-5.596 Z-0.533
Y-5.592 Z-0.483
G0 Z3.002
X7.209 Y-14.277
Z-0.165
G1 Z-0.482 F1000
X7.217 Y-14.276 Z-0.553
X7.24 Y-14.272 Z-0.62
X7.277 Y-14.265 Z-0.68
X7.326 Y-14.255 Z-0.731
X7.385 Y-14.244 Z-0.769
X7.451 Y-14.232 Z-0.792
X7.521 Y-14.219 Z-0.8
G3 X9.192 Y-13.714 I-1.496 J7.967
G1 X9.328 Y-13.65
X9.346 Y-13.604
X9.348 Y-13.555
X9.334 Y-13.507
X9.166 Y-13.147
X9.036 Y-12.903
X8.896 Y-12.645
X8.032 Y-11.412
X7.939 Y-11.307
X7.786 Y-11.139
X7.697 Y-11.046
X6.954 Y-10.303
X6.861 Y-10.213
X6.693 Y-10.059
X6.592 Y-9.968
X5.355 Y-9.101
X5.02 Y-8.919
X4.853 Y-8.83
X3.849 Y-8.362
X3.691 Y-8.294
X3.179 Y-8.126
X3.012 Y-8.079
X2.175 Y-7.855
X2.008 Y-7.811
X1.506 Y-7.735
X1.339 Y-7.715
X0.312 Y-7.625
X0.167 Y-7.623
X-0.167
X-0.312 Y-7.625
X-1.339 Y-7.715
X-1.506 Y-7.735
X-2.008 Y-7.811
X-2.343 Y-7.9
X-3.012 Y-8.079
X-3.184 Y-8.127
X-3.691 Y-8.294
X-3.849 Y-8.362
X-4.853 Y-8.83
X-5.02 Y-8.919
X-5.355 Y-9.101
X-6.592 Y-9.968
X-6.693 Y-10.059
X-6.861 Y-10.213
X-6.954 Y-10.303
X-7.697 Y-11.046
X-7.786 Y-11.139
X-7.939 Y-11.307
X-8.032 Y-11.412
X-8.896 Y-12.645
X-9.036 Y-12.903
X-9.166 Y-13.147
X-9.635 Y-14.151
X-9.706 Y-14.32
X-9.873 Y-14.824
X-9.918 Y-14.988
X-10.142 Y-15.825
X-10.186 Y-15.992
X-10.264 Y-16.494
X-10.283 Y-16.661
X-10.371 Y-17.665
X-10.375 Y-17.715
X-10.376 Y-18.167
X-10.375 Y-18.302
X-10.284 Y-19.339
X-10.265 Y-19.506
X-10.189 Y-20.008
X-10.1 Y-20.343
X-9.921 Y-21.012
X-9.873 Y-21.184
X-9.706 Y-21.694
X-9.639 Y-21.849
X-9.171 Y-22.853
X-9.082 Y-23.02
X-8.9 Y-23.355
X-8.032 Y-24.595
X-7.944 Y-24.693
X-7.79 Y-24.861
X-7.697 Y-24.957
X-6.957 Y-25.697
X-6.861 Y-25.79
X-6.693 Y-25.943
X-6.594 Y-26.032
X-5.355 Y-26.899
X-5.02 Y-27.081
X-4.853 Y-27.169
X-3.849 Y-27.637
X-3.688 Y-27.706
X-3.176 Y-27.873
X-3.012 Y-27.918
X-2.175 Y-28.142
X-2.008 Y-28.186
X-1.506 Y-28.261
X-1.339 Y-28.281
X-0.335 Y-28.369
X-0.167 Y-28.372
X0.167
X0.335 Y-28.369
X1.339 Y-28.281
X1.506 Y-28.261
X2.008 Y-28.186
X2.343 Y-28.098
X3.012 Y-27.918
X3.179 Y-27.872
X3.688 Y-27.706
X3.849 Y-27.637
X4.853 Y-27.169
X5.102 Y-27.036
X5.355 Y-26.899
X6.594 Y-26.032
X6.693 Y-25.943
X6.861 Y-25.79
X6.957 Y-25.697
X7.697 Y-24.957
X7.79 Y-24.861
X7.944 Y-24.693
X8.032 Y-24.595
X8.9 Y-23.355
X9.082 Y-23.02
X9.171 Y-22.853
X9.639 Y-21.849
X9.706 Y-21.694
X9.874 Y-21.179
X9.921 Y-21.012
X10.145 Y-20.175
X10.189 Y-20.008
X10.265 Y-19.506
X10.284 Y-19.339
X10.375 Y-18.302
X10.376 Y-18.167
X10.375 Y-17.715
X10.371 Y-17.665
X10.283 Y-16.661
X10.264 Y-16.494
X10.186 Y-15.992
X10.098 Y-15.657
X9.918 Y-14.988
X9.872 Y-14.821
X9.705 Y-14.319
X9.635 Y-14.151
X9.334 Y-13.507
G3 X8.935 Y-13.356 I-0.283 J-0.144
G1 X8.891 Y-13.388 Z-0.795
X8.848 Y-13.418 Z-0.781
X8.808 Y-13.447 Z-0.758
X8.787 Y-13.492 Z-0.722
X8.769 Y-13.529 Z-0.678
X8.755 Y-13.558 Z-0.627
X8.745 Y-13.578 Z-0.571
X8.74 Y-13.588 Z-0.511
Y-13.589 Z-0.483
G0 Z3.002
X-1.834 Y-26.11
Z0.035
G1 Z-0.282 F1000
X-1.838 Y-26.117 Z-0.353
X-1.85 Y-26.138 Z-0.42
X-1.868 Y-26.171 Z-0.48
X-1.893 Y-26.215 Z-0.531
X-1.922 Y-26.267 Z-0.569
X-1.955 Y-26.326 Z-0.592
X-1.99 Y-26.387 Z-0.6
G3 X-2.677 Y-27.992 I7.064 J-3.975
G1 X-2.716 Y-28.137
X-2.69 Y-28.183
X-2.651 Y-28.219
X-2.603 Y-28.24
X-2.1 Y-28.375
X-2.008 Y-28.399
X-1.506 Y-28.469
X-1.339 Y-28.488
X-0.335 Y-28.576
X-0.167 Y-28.58
X0.167
X0.335 Y-28.576
X1.339 Y-28.488
X1.506 Y-28.469
X2.008 Y-28.399
X2.175 Y-28.355
X3.179 Y-28.086
X3.347 Y-28.039
X3.681 Y-27.933
X3.826 Y-27.873
X4.853 Y-27.394
X4.9 Y-27.371
X5.355 Y-27.131
X5.514 Y-27.036
X6.526 Y-26.328
X6.698 Y-26.199
X6.861 Y-26.073
X6.909 Y-26.032
X8.032 Y-24.909
X8.073 Y-24.861
X8.203 Y-24.693
X8.328 Y-24.526
X9.036 Y-23.514
X9.131 Y-23.355
X9.371 Y-22.9
X9.394 Y-22.853
X9.873 Y-21.826
X9.933 Y-21.681
X10.04 Y-21.344
X10.086 Y-21.179
X10.375 Y-20.1
X10.399 Y-20.008
X10.469 Y-19.506
X10.488 Y-19.339
X10.576 Y-18.335
X10.58 Y-18.167
Y-17.833
X10.576 Y-17.665
X10.488 Y-16.661
X10.469 Y-16.494
X10.399 Y-15.992
X10.355 Y-15.825
X10.086 Y-14.821
X10.039 Y-14.653
X9.933 Y-14.319
X9.873 Y-14.174
X9.394 Y-13.147
X9.371 Y-13.1
X9.131 Y-12.645
X9.036 Y-12.486
X8.328 Y-11.474
X8.199 Y-11.302
X8.073 Y-11.139
X8.032 Y-11.091
X6.909 Y-9.968
X6.861 Y-9.927
X6.693 Y-9.797
X6.526 Y-9.672
X5.514 Y-8.964
X5.355 Y-8.869
X4.9 Y-8.629
X4.853 Y-8.606
X3.826 Y-8.127
X3.681 Y-8.067
X3.344 Y-7.96
X3.179 Y-7.914
X2.1 Y-7.625
X2.008 Y-7.601
X1.506 Y-7.531
X1.339 Y-7.512
X0.335 Y-7.424
X0.167 Y-7.42
X-0.167
X-0.335 Y-7.424
X-1.339 Y-7.512
X-1.506 Y-7.531
X-2.008 Y-7.601
X-2.175 Y-7.645
X-3.179 Y-7.914
X-3.347 Y-7.961
X-3.681 Y-8.067
X-3.826 Y-8.127
X-4.853 Y-8.606
X-4.9 Y-8.629
X-5.355 Y-8.869
X-5.514 Y-8.964
X-6.526 Y-9.672
X-6.698 Y-9.801
X-6.861 Y-9.927
X-6.909 Y-9.968
X-8.032 Y-11.091
X-8.073 Y-11.139
X-8.203 Y-11.307
X-8.328 Y-11.474
X-9.036 Y-12.486
X-9.131 Y-12.645
X-9.371 Y-13.1
X-9.394 Y-13.147
X-9.873 Y-14.174
X-9.933 Y-14.319
X-10.04 Y-14.656
X-10.086 Y-14.821
X-10.375 Y-15.9
X-10.399 Y-15.992
X-10.469 Y-16.494
X-10.488 Y-16.661
X-10.576 Y-17.665
X-10.58 Y-17.833
Y-18.167
X-10.576 Y-18.335
X-10.488 Y-19.339
X-10.469 Y-19.506
X-10.399 Y-20.008
X-10.355 Y-20.175
X-10.086 Y-21.179
X-10.039 Y-21.347
X-9.933 Y-21.681
X-9.873 Y-21.826
X-9.394 Y-22.853
X-9.371 Y-22.9
X-9.131 Y-23.355
X-9.036 Y-23.514
X-8.328 Y-24.526
X-8.199 Y-24.698
X-8.073 Y-24.861
X-8.032 Y-24.909
X-6.909 Y-26.032
X-6.861 Y-26.073
X-6.693 Y-26.203
X-6.526 Y-26.328
X-5.514 Y-27.036
X-5.355 Y-27.131
X-4.9 Y-27.371
X-4.853 Y-27.394
X-3.826 Y-27.873
X-3.681 Y-27.933
X-3.344 Y-28.04
X-3.179 Y-28.086
X-2.603 Y-28.24
G3 X-2.231 Y-28.032 I0.071 J0.309
G1 X-2.222 Y-27.981 Z-0.596
X-2.214 Y-27.931 Z-0.583
X-2.229 Y-27.872 Z-0.554
X-2.242 Y-27.821 Z-0.514
X-2.253 Y-27.779 Z-0.463
X-2.27 Y-27.753 Z-0.407
X-2.281 Y-27.737 Z-0.346
X-2.284 Y-27.732 Z-0.283
G0 Z3.002
X13.453 Y-4.423
Z0.035
G1 Z-0.282 F1000
X13.447 Y-4.427 Z-0.353
X13.427 Y-4.44 Z-0.42
X13.395 Y-4.461 Z-0.48
X13.353 Y-4.488 Z-0.531
X13.303 Y-4.521 Z-0.569
X13.247 Y-4.558 Z-0.592
X13.187 Y-4.597 Z-0.6
G3 X11.837 Y-5.704 I4.434 J-6.785
G1 X11.736 Y-5.815
X11.734 Y-5.838
X11.74 Y-5.861
X11.754 Y-5.881
X11.82 Y-5.952
X12.119 Y-6.286
X13.387 Y-7.717
X13.448 Y-7.792
X13.554 Y-7.935
X13.892 Y-8.462
X14.632 Y-9.633
X14.893 Y-10.048
X14.941 Y-10.135
X15.024 Y-10.303
X15.808 Y-12.143
X15.877 Y-12.311
X16.003 Y-12.645
X16.064 Y-12.813
X16.6 Y-14.988
X16.638 Y-15.155
X16.672 Y-15.323
X16.69 Y-15.49
X16.718 Y-15.825
X16.867 Y-17.665
X16.872 Y-17.833
Y-18.167
X16.867 Y-18.335
X16.705 Y-20.343
X16.69 Y-20.51
X16.672 Y-20.677
X16.638 Y-20.845
X16.6 Y-21.012
X16.064 Y-23.187
X15.94 Y-23.522
X15.877 Y-23.689
X15.808 Y-23.857
X15.024 Y-25.697
X14.941 Y-25.865
X14.893 Y-25.952
X14.421 Y-26.701
X13.889 Y-27.542
X13.554 Y-28.065
X13.448 Y-28.208
X13.387 Y-28.283
X12.048 Y-29.793
X11.82 Y-30.048
X11.714 Y-30.161
X11.654 Y-30.216
X11.546 Y-30.311
X10.208 Y-31.404
X10.022 Y-31.554
X9.599 Y-31.889
X9.538 Y-31.934
X9.036 Y-32.227
X7.53 Y-33.096
X7.363 Y-33.191
X6.861 Y-33.406
X6.526 Y-33.534
X5.02 Y-34.105
X4.853 Y-34.164
X4.655 Y-34.232
X4.351 Y-34.296
X4.016 Y-34.366
X2.51 Y-34.674
X2.343 Y-34.704
X2.008 Y-34.759
X1.841 Y-34.778
X-0.167 Y-34.859
X-0.335 Y-34.864
X-0.669 Y-34.863
X-0.837 Y-34.861
X-3.012 Y-34.597
X-3.514 Y-34.509
X-3.681 Y-34.465
X-5.689 Y-33.883
X-5.857 Y-33.823
X-6.191 Y-33.693
X-6.359 Y-33.621
X-7.893 Y-32.893
X-8.234 Y-32.726
X-8.367 Y-32.66
X-8.534 Y-32.567
X-8.701 Y-32.455
X-10.248 Y-31.387
X-10.542 Y-31.18
X-10.71 Y-31.051
X-10.892 Y-30.885
X-11.068 Y-30.718
X-12.287 Y-29.546
X-12.627 Y-29.212
X-12.718 Y-29.099
X-12.885 Y-28.883
X-13.896 Y-27.538
X-14.056 Y-27.32
X-14.264 Y-27.036
X-14.358 Y-26.869
X-14.449 Y-26.701
X-14.626 Y-26.367
X-15.416 Y-24.861
X-15.496 Y-24.693
X-15.572 Y-24.526
X-15.685 Y-24.191
X-16.232 Y-22.554
X-16.353 Y-22.183
X-16.397 Y-22.016
X-16.459 Y-21.681
X-16.489 Y-21.514
X-16.734 Y-20.007
X-16.76 Y-19.841
X-16.81 Y-19.506
X-16.832 Y-19.339
X-16.839 Y-18.837
Y-17.163
X-16.832 Y-16.661
X-16.81 Y-16.494
X-16.76 Y-16.159
X-16.679 Y-15.657
X-16.489 Y-14.486
X-16.459 Y-14.319
X-16.397 Y-13.984
X-16.353 Y-13.817
X-16.188 Y-13.315
X-15.629 Y-11.641
X-15.572 Y-11.474
X-15.496 Y-11.307
X-15.416 Y-11.139
X-14.538 Y-9.466
X-14.449 Y-9.299
X-14.358 Y-9.131
X-14.264 Y-8.964
X-14.019 Y-8.629
X-13.889 Y-8.453
X-12.885 Y-7.117
X-12.718 Y-6.901
X-12.627 Y-6.788
X-12.287 Y-6.454
X-11.044 Y-5.26
X-10.877 Y-5.101
X-10.709 Y-4.948
X-10.542 Y-4.82
X-10.208 Y-4.585
X-8.701 Y-3.545
X-8.534 Y-3.433
X-8.367 Y-3.34
X-8.032 Y-3.175
X-7.865 Y-3.094
X-6.359 Y-2.379
X-6.191 Y-2.307
X-5.857 Y-2.177
X-5.689 Y-2.117
X-3.681 Y-1.535
X-3.514 Y-1.491
X-3.012 Y-1.403
X-0.837 Y-1.139
X-0.669 Y-1.137
X-0.335 Y-1.136
X-0.167 Y-1.141
X1.841 Y-1.222
X2.008 Y-1.241
X2.343 Y-1.296
X2.51 Y-1.326
X4.183 Y-1.668
X4.518 Y-1.739
X4.655 Y-1.768
X4.853 Y-1.836
X5.02 Y-1.895
X6.693 Y-2.529
X6.861 Y-2.594
X7.363 Y-2.809
X7.593 Y-2.94
X9.042 Y-3.776
X9.538 Y-4.066
X9.599 Y-4.111
X10.04 Y-4.46
X10.229 Y-4.613
X11.546 Y-5.689
X11.687 Y-5.814
X11.714 Y-5.839
X11.754 Y-5.881
G3 X12.18 Y-5.899 I0.223 J0.226
G1 X12.212 Y-5.855 Z-0.595
X12.243 Y-5.813 Z-0.581
X12.272 Y-5.772 Z-0.558
X12.281 Y-5.726 Z-0.525
X12.288 Y-5.687 Z-0.483
X12.294 Y-5.655 Z-0.436
X12.293 Y-5.634 Z-0.387
X12.292 Y-5.62 Z-0.336
Y-5.616 Z-0.283
G0 Z3.002
X13.596 Y-4.814
Z0.235
G1 Z-0.083 F1000
X13.59 Y-4.818 Z-0.153
X13.569 Y-4.829 Z-0.22
X13.537 Y-4.849 Z-0.28
X13.493 Y-4.874 Z-0.331
X13.441 Y-4.905 Z-0.369
X13.384 Y-4.939 Z-0.392
X13.323 Y-4.974 Z-0.4
G3 X11.921 Y-6.016 I4.104 J-6.99
G1 X11.814 Y-6.121
X11.777 Y-6.266
X11.764 Y-6.416
X11.769 Y-6.566
X11.79 Y-6.728
X11.83 Y-6.923
X11.9 Y-7.161
X12.087 Y-7.649
X12.406 Y-8.314
X12.762 Y-8.96
X13.136 Y-9.596
X13.505 Y-10.235
X13.837 Y-10.894
X14.15 Y-11.562
X14.446 Y-12.238
X14.696 Y-12.932
X14.912 Y-13.638
X15.11 Y-14.348
X15.269 Y-15.069
X15.381 Y-15.798
X15.469 Y-16.531
X15.532 Y-17.266
X15.541 Y-18.004
X15.518 Y-18.741
X15.478 Y-19.478
X15.388 Y-20.21
X15.257 Y-20.936
X15.105 Y-21.658
X14.92 Y-22.373
X14.688 Y-23.073
X14.428 Y-23.763
X14.153 Y-24.448
X13.825 Y-25.109
X13.465 Y-25.753
X13.088 Y-26.387
X12.677 Y-27
X12.228 Y-27.586
X11.76 Y-28.156
X11.275 Y-28.712
X10.748 Y-29.228
X10.199 Y-29.721
X9.638 Y-30.2
X9.046 Y-30.641
X8.432 Y-31.049
X7.805 Y-31.439
X7.162 Y-31.8
X6.495 Y-32.116
X5.817 Y-32.407
X5.132 Y-32.681
X4.428 Y-32.901
X3.714 Y-33.087
X2.995 Y-33.254
X2.268 Y-33.38
X1.535 Y-33.461
X0.799 Y-33.519
X0.062 Y-33.551
X-0.675 Y-33.527
X-1.411 Y-33.473
X-2.145 Y-33.399
X-2.873 Y-33.276
X-3.593 Y-33.115
X-4.308 Y-32.933
X-5.013 Y-32.718
X-5.703 Y-32.455
X-6.382 Y-32.166
X-7.053 Y-31.861
X-7.699 Y-31.503
X-8.327 Y-31.117
X-8.946 Y-30.714
X-9.539 Y-30.276
X-10.105 Y-29.802
X-10.655 Y-29.311
X-11.188 Y-28.8
X-11.681 Y-28.251
X-12.151 Y-27.682
X-12.607 Y-27.102
X-13.021 Y-26.492
X-13.402 Y-25.86
X-13.765 Y-25.218
X-14.097 Y-24.559
X-14.384 Y-23.879
X-14.646 Y-23.189
X-14.888 Y-22.492
X-15.077 Y-21.779
X-15.233 Y-21.058
X-15.37 Y-20.333
X-15.463 Y-19.601
X-15.513 Y-18.865
X-15.539 Y-18.128
X-15.537 Y-17.39
X-15.482 Y-16.654
X-15.397 Y-15.921
X-15.293 Y-15.191
X-15.138 Y-14.469
X-14.946 Y-13.757
X-14.734 Y-13.05
X-14.487 Y-12.355
X-14.194 Y-11.678
X-13.878 Y-11.011
X-13.542 Y-10.354
X-13.157 Y-9.725
X-12.744 Y-9.113
X-12.317 Y-8.512
X-11.852 Y-7.939
X-11.354 Y-7.394
X-10.84 Y-6.865
X-10.305 Y-6.357
X-9.736 Y-5.888
X-9.148 Y-5.442
X-8.55 Y-5.009
X-7.921 Y-4.624
X-7.273 Y-4.27
X-6.617 Y-3.934
X-5.943 Y-3.633
X-5.251 Y-3.376
X-4.551 Y-3.143
X-3.844 Y-2.934
X-3.123 Y-2.776
X-2.396 Y-2.65
X-1.666 Y-2.541
X-0.931 Y-2.482
X-0.193 Y-2.464
X0.544 Y-2.469
X1.281 Y-2.505
X2.014 Y-2.592
X2.743 Y-2.707
X3.469 Y-2.839
X4.182 Y-3.028
X4.885 Y-3.251
X5.582 Y-3.492
X6.266 Y-3.771
X6.93 Y-4.093
X7.582 Y-4.437
X8.223 Y-4.803
X8.835 Y-5.214
X9.429 Y-5.652
X9.921 Y-6.202
X10.285 Y-6.844
X10.607 Y-7.508
X10.928 Y-8.172
X11.265 Y-8.828
X11.62 Y-9.475
X11.982 Y-10.118
X12.329 Y-10.769
X12.659 Y-11.429
X12.969 Y-12.099
X13.246 Y-12.783
X13.491 Y-13.478
X13.706 Y-14.184
X13.883 Y-14.901
X14.022 Y-15.625
X14.129 Y-16.355
X14.196 Y-17.09
X14.221 Y-17.827
X14.215 Y-18.565
X14.166 Y-19.301
X14.077 Y-20.034
X13.953 Y-20.761
X13.791 Y-21.481
X13.589 Y-22.191
X13.356 Y-22.891
X13.087 Y-23.577
X12.778 Y-24.247
X12.438 Y-24.902
X12.065 Y-25.539
X11.655 Y-26.153
X11.217 Y-26.746
X10.75 Y-27.318
X10.251 Y-27.861
X9.725 Y-28.378
X9.175 Y-28.87
X8.597 Y-29.329
X7.998 Y-29.759
X7.379 Y-30.161
X6.738 Y-30.526
X6.079 Y-30.858
X5.406 Y-31.161
X4.716 Y-31.421
X4.013 Y-31.645
X3.3 Y-31.836
X2.578 Y-31.987
X1.849 Y-32.1
X1.115 Y-32.18
X0.379 Y-32.219
X-0.359 Y-32.218
X-1.096 Y-32.183
X-1.83 Y-32.108
X-2.559 Y-31.991
X-3.281 Y-31.84
X-3.994 Y-31.652
X-4.696 Y-31.424
X-5.386 Y-31.164
X-6.063 Y-30.868
X-6.72 Y-30.535
X-7.362 Y-30.17
X-7.984 Y-29.774
X-8.583 Y-29.342
X-9.159 Y-28.882
X-9.713 Y-28.394
X-10.237 Y-27.875
X-10.735 Y-27.33
X-11.206 Y-26.762
X-11.643 Y-26.168
X-12.05 Y-25.553
X-12.428 Y-24.919
X-12.769 Y-24.265
X-13.076 Y-23.594
X-13.353 Y-22.91
X-13.589 Y-22.211
X-13.786 Y-21.5
X-13.95 Y-20.781
X-14.021 Y-20.046
X-14.078 Y-19.31
X-14.113 Y-18.574
X-14.116 Y-17.836
X-14.081 Y-17.099
X-14.017 Y-16.364
X-13.912 Y-15.633
X-13.766 Y-14.91
X-13.586 Y-14.195
X-13.369 Y-13.49
X-13.112 Y-12.798
X-12.823 Y-12.119
X-12.499 Y-11.456
X-12.138 Y-10.813
X-11.747 Y-10.187
X-11.324 Y-9.582
X-10.867 Y-9.003
X-10.382 Y-8.447
X-9.869 Y-7.916
X-9.327 Y-7.416
X-8.761 Y-6.943
X-8.172 Y-6.498
X-7.559 Y-6.089
X-6.925 Y-5.71
X-6.275 Y-5.362
X-5.605 Y-5.053
X-4.92 Y-4.778
X-4.223 Y-4.537
X-3.513 Y-4.337
X-2.793 Y-4.173
X-2.067 Y-4.044
X-1.334 Y-3.956
X-0.598 Y-3.907
X0.14 Y-3.893
X0.877 Y-3.92
X1.612 Y-3.987
X2.343 Y-4.084
X3.067 Y-4.226
X3.782 Y-4.409
X4.488 Y-4.624
X5.181 Y-4.878
X5.858 Y-5.169
X6.522 Y-5.491
X7.168 Y-5.849
X7.79 Y-6.245
X8.332 Y-6.745
X8.784 Y-7.328
X8.882 Y-7.485
X9.269 Y-8.113
X9.633 Y-8.755
X9.992 Y-9.399
X10.353 Y-10.043
X10.707 Y-10.69
X11.049 Y-11.344
X11.374 Y-12.007
X11.672 Y-12.681
X11.942 Y-13.368
X12.178 Y-14.067
X12.378 Y-14.777
X12.54 Y-15.497
X12.662 Y-16.225
X12.743 Y-16.958
X12.783 Y-17.695
X12.779 Y-18.433
X12.731 Y-19.169
X12.641 Y-19.901
X12.509 Y-20.627
X12.336 Y-21.344
X12.124 Y-22.051
X11.871 Y-22.744
X11.579 Y-23.421
X11.248 Y-24.081
X10.877 Y-24.719
X10.471 Y-25.335
X10.03 Y-25.927
X9.555 Y-26.491
X9.049 Y-27.028
X8.513 Y-27.535
X7.949 Y-28.01
X7.359 Y-28.454
X6.744 Y-28.861
X6.106 Y-29.232
X5.448 Y-29.566
X4.772 Y-29.86
X4.079 Y-30.115
X3.373 Y-30.33
X2.656 Y-30.503
X1.931 Y-30.637
X1.199 Y-30.729
X0.462 Y-30.776
X-0.276 Y-30.782
X-1.012 Y-30.744
X-1.746 Y-30.663
X-2.473 Y-30.541
X-3.193 Y-30.377
X-3.902 Y-30.172
X-4.598 Y-29.929
X-5.279 Y-29.644
X-5.942 Y-29.32
X-6.585 Y-28.959
X-7.205 Y-28.56
X-7.803 Y-28.126
X-8.374 Y-27.659
X-8.917 Y-27.16
X-9.431 Y-26.63
X-9.913 Y-26.072
X-10.362 Y-25.487
X-10.777 Y-24.877
X-11.155 Y-24.243
X-11.497 Y-23.589
X-11.801 Y-22.917
X-12.064 Y-22.228
X-12.288 Y-21.525
X-12.45 Y-20.805
X-12.564 Y-20.076
X-12.641 Y-19.342
X-12.681 Y-18.605
X-12.683 Y-17.868
X-12.647 Y-17.131
X-12.571 Y-16.397
X-12.454 Y-15.668
X-12.296 Y-14.948
X-12.096 Y-14.237
X-11.857 Y-13.54
X-11.578 Y-12.857
X-11.258 Y-12.192
X-10.9 Y-11.546
X-10.506 Y-10.923
X-10.076 Y-10.323
X-9.612 Y-9.75
X-9.115 Y-9.204
X-8.587 Y-8.688
X-8.032 Y-8.203
X-7.448 Y-7.752
X-6.838 Y-7.336
X-6.206 Y-6.956
X-5.552 Y-6.615
X-4.88 Y-6.311
X-4.191 Y-6.046
X-3.487 Y-5.823
X-2.773 Y-5.64
X-2.049 Y-5.499
X-1.317 Y-5.401
X-0.582 Y-5.346
X0.156 Y-5.335
X0.893 Y-5.365
X1.628 Y-5.437
X2.356 Y-5.553
X3.077 Y-5.712
X3.787 Y-5.911
X4.484 Y-6.152
X5.167 Y-6.434
X5.831 Y-6.755
X6.462 Y-7.137
X6.602 Y-7.257
X6.67 Y-7.319
G3 X7.097 Y-7.306 I0.206 J0.241
G1 X7.126 Y-7.26 Z-0.395
X7.153 Y-7.216 Z-0.381
X7.179 Y-7.174 Z-0.358
X7.188 Y-7.121 Z-0.319
X7.194 Y-7.078 Z-0.271
X7.191 Y-7.044 Z-0.213
X7.189 Y-7.023 Z-0.149
X7.188 Y-7.016 Z-0.083
G0 Z3.002
X-18.309 Y-39.678
Z-3.165
G1 Z-3.483 F1000
X-18.307 Y-39.67 Z-3.553
X-18.301 Y-39.647 Z-3.62
X-18.292 Y-39.61 Z-3.68
X-18.279 Y-39.562 Z-3.731
X-18.264 Y-39.503 Z-3.769
X-18.248 Y-39.438 Z-3.792
X-18.23 Y-39.37 Z-3.8
G3 X-17.982 Y-37.641 I-7.852 J2.011
G1 Y-37.491
X-18.129 Y-36.769
X-18.209 Y-36.035
X-18.252 Y-35.299
X-18.274 Y-34.561
X-18.286 Y-33.823
X-18.292 Y-33.086
X-18.295 Y-32.348
X-18.298 Y-30.872
X-18.299 Y-24.97
X-18.298 Y-1.359
X-18.175 Y-1.012
X-17.943 Y-0.725
X-17.367 Y-0.264
X-16.679 Y0.001
X-15.955 Y0.148
X-15.222 Y0.226
X-14.485 Y0.268
X-13.748 Y0.29
X-13.01 Y0.302
X-12.272 Y0.308
X-11.534 Y0.31
X-10.059 Y0.312
X-4.894 Y0.311
X16.503 Y0.299
X16.684 Y0.267
X17.022 Y0.118
X17.298 Y-0.126
X17.741 Y-0.716
X17.995 Y-1.409
X18.135 Y-2.133
X18.211 Y-2.867
X18.251 Y-3.604
X18.272 Y-4.342
X18.284 Y-5.079
X18.29 Y-5.817
X18.293 Y-6.555
X18.295 Y-8.03
X18.297 Y-14.671
X18.298 Y-27.951
Y-34.592
X18.244 Y-34.768
X18.068 Y-35.092
X17.81 Y-35.356
X17.204 Y-35.777
X16.506 Y-36.017
X15.78 Y-36.149
X15.046 Y-36.22
X14.309 Y-36.258
X13.572 Y-36.278
X12.834 Y-36.289
X12.096 Y-36.294
X11.358 Y-36.297
X9.883 Y-36.299
X2.505 Y-36.3
X-15.203 Y-36.299
X-15.382 Y-36.256
X-15.717 Y-36.101
X-15.995 Y-35.857
X-16.443 Y-35.272
X-16.706 Y-34.582
X-16.853 Y-33.859
X-16.934 Y-33.126
X-16.978 Y-32.389
X-17.002 Y-31.652
X-17.014 Y-30.914
X-17.021 Y-30.176
X-17.025 Y-29.439
X-17.028 Y-27.963
Y-27.225
X-17.029 Y-19.377
X-17.032 Y-19.339
X-17.039 Y-18.837
Y-16.829
X-17.035 Y-16.661
X-17.017 Y-15.924
X-17.023 Y-15.186
X-17.025 Y-14.448
X-17.028 Y-12.972
Y-5.594
Y-3.012
X-16.942 Y-2.653
X-16.759 Y-2.333
X-16.262 Y-1.788
X-15.611 Y-1.441
X-14.903 Y-1.232
X-14.175 Y-1.111
X-13.44 Y-1.043
X-12.704 Y-1.004
X-11.966 Y-0.983
X-11.228 Y-0.971
X-10.491 Y-0.965
X-9.753 Y-0.961
X-8.277 Y-0.959
X-4.588 Y-0.96
X-1.075 Y-0.961
X-1.045
X-1.015 Y-0.959
X-0.986 Y-0.956
X-0.837 Y-0.938
X-0.669 Y-0.936
X-0.335
X-0.167 Y-0.941
X0.57 Y-0.933
X1.308 Y-0.948
X2.046 Y-0.955
X2.784 Y-0.959
X4.259 Y-0.963
X8.686 Y-0.967
X14.958 Y-0.97
X15.316 Y-1.058
X15.637 Y-1.24
X16.185 Y-1.734
X16.534 Y-2.384
X16.745 Y-3.091
X16.867 Y-3.819
X16.937 Y-4.553
X16.977 Y-5.29
X16.999 Y-6.027
X17.011 Y-6.765
X17.018 Y-7.503
X17.022 Y-8.241
X17.025 Y-9.716
X17.027 Y-13.405
Y-17.157
X17.029 Y-17.197
X17.068 Y-17.678
X17.073 Y-17.833
Y-18.167
X17.068 Y-18.322
X17.047 Y-19.059
X17.037 Y-19.797
X17.033 Y-20.535
X17.03 Y-21.273
X17.028 Y-22.748
Y-33.078
X16.906 Y-33.426
X16.699 Y-33.731
X16.173 Y-34.248
X15.511 Y-34.575
X14.8 Y-34.77
X14.071 Y-34.884
X13.336 Y-34.948
X12.599 Y-34.985
X11.861 Y-35.005
X11.123 Y-35.016
X10.386 Y-35.023
X9.648 Y-35.026
X8.172 Y-35.029
X3.745 Y-35.03
X0.567
X0.557
X-0.167 Y-35.059
X-0.335 Y-35.064
X-0.669
X-0.837 Y-35.062
X-0.865 Y-35.058
X-1.523 Y-35.013
X-2.261 Y-35.021
X-2.999 Y-35.025
X-3.737 Y-35.027
X-5.95 Y-35.029
X-13.328
X-13.697 Y-35.026
X-14.053 Y-34.928
X-14.371 Y-34.741
X-14.914 Y-34.241
X-15.262 Y-33.591
X-15.473 Y-32.884
X-15.596 Y-32.156
X-15.667 Y-31.422
X-15.708 Y-30.685
X-15.73 Y-29.948
X-15.743 Y-29.21
X-15.75 Y-28.472
X-15.754 Y-27.734
X-15.757 Y-26.259
X-15.759 Y-24.724
X-15.763 Y-24.644
X-15.776 Y-24.565
X-15.797 Y-24.488
X-16.511 Y-22.351
X-16.566 Y-22.18
X-16.607 Y-22.016
X-16.637 Y-21.849
X-16.936 Y-20.008
X-16.962 Y-19.841
X-17.012 Y-19.506
X-17.032 Y-19.339
G3 X-17.162 Y-19.12 I-0.315 J-0.039
G2 X-17.294 Y-18.887 I0.185 J0.258
G1 X-17.313 Y-18.64
X-17.396 Y-17.603
Y-17.546
X-17.385 Y-17.489
X-17.364 Y-17.436
X-17.334 Y-17.387
G3 X-17.035 Y-16.661 I-1.268 J0.948
G1 X-17.017 Y-16.494
X-16.909 Y-15.825
X-16.637 Y-14.151
X-16.607 Y-13.984
X-16.565 Y-13.817
X-16.511 Y-13.649
X-16.232 Y-12.813
X-16.049 Y-12.159
X-15.93 Y-11.544
X-15.848 Y-10.81
X-15.805 Y-10.074
X-15.783 Y-9.336
X-15.771 Y-8.599
X-15.765 Y-7.861
X-15.762 Y-7.123
X-15.759 Y-5.647
Y-4.541
X-15.71 Y-4.175
X-15.568 Y-3.835
X-15.352 Y-3.535
X-14.818 Y-3.027
X-14.156 Y-2.701
X-13.445 Y-2.502
X-12.717 Y-2.385
X-11.982 Y-2.317
X-11.245 Y-2.278
X-10.508 Y-2.256
X-9.77 Y-2.243
X-9.032 Y-2.237
X-8.295 Y-2.233
X-7.557 Y-2.231
X-6.678 Y-2.23
X-6.569 Y-2.222
X-6.463 Y-2.198
X-6.361 Y-2.158
X-6.233 Y-2.103
X-5.775 Y-1.936
X-5.689 Y-1.909
X-3.681 Y-1.327
X-3.514 Y-1.284
X-3.012 Y-1.202
X-0.986 Y-0.956
G3 X-1.062 Y-0.326 I-0.038 J0.315
X-0.986 Y-0.956 I0.038 J-0.315
X-0.831 Y-0.893 I-0.038 J0.315
G1 X-0.546 Y-0.675
G3 X-0.931 Y-0.171 I-0.193 J0.252
X-0.911 Y-0.689 I0.193 J-0.252
X-0.167 Y-0.941 I0.863 J1.327
G1 X1.841 Y-1.022
X2.008 Y-1.039
X2.382 Y-1.099
X2.51 Y-1.122
X4.351 Y-1.498
X4.518 Y-1.533
X4.685 Y-1.573
X5.187 Y-1.744
X5.251 Y-1.768
X5.616 Y-1.886
X6.116 Y-2.005
X6.845 Y-2.116
X7.581 Y-2.174
X8.318 Y-2.204
X9.056 Y-2.22
X9.793 Y-2.228
X10.531 Y-2.233
X11.269 Y-2.236
X13.483 Y-2.239
X13.846 Y-2.301
X14.182 Y-2.454
X14.476 Y-2.677
X14.975 Y-3.22
X15.293 Y-3.886
X15.486 Y-4.598
X15.601 Y-5.327
X15.667 Y-6.062
X15.706 Y-6.799
X15.728 Y-7.536
X15.74 Y-8.274
X15.747 Y-9.012
X15.751 Y-9.749
X15.755 Y-11.225
Y-11.358
X15.762 Y-11.457
X15.782 Y-11.554
X15.814 Y-11.648
X16.097 Y-12.311
X16.16 Y-12.478
X16.232 Y-12.693
X16.27 Y-12.813
X16.806 Y-14.988
X16.834 Y-15.155
X16.888 Y-15.49
X16.901 Y-15.605
X17.029 Y-17.197
G3 X17.662 Y-17.146 I0.316 J0.026
X17.029 Y-17.197 I-0.316 J-0.026
X17.055 Y-17.298 I0.316 J0.026
G1 X17.318 Y-17.899
G3 X17.899 Y-17.645 I0.291 J0.127
X17.35 Y-17.588 I-0.291 J-0.127
X17.068 Y-18.322 I1.291 J-0.916
G1 X16.901 Y-20.395
X16.888 Y-20.51
X16.834 Y-20.845
X16.806 Y-21.012
X16.27 Y-23.187
X16.216 Y-23.355
X16.049 Y-23.952
X15.929 Y-24.567
X15.847 Y-25.3
X15.804 Y-26.037
X15.782 Y-26.774
X15.771 Y-27.512
X15.765 Y-28.25
X15.761 Y-28.988
X15.759 Y-30.463
Y-31.201
X15.756 Y-31.57
X15.671 Y-31.929
X15.5 Y-32.256
X15.028 Y-32.823
X14.392 Y-33.197
X13.692 Y-33.429
X12.967 Y-33.568
X12.234 Y-33.65
X11.497 Y-33.697
X10.76 Y-33.724
X10.023 Y-33.74
X9.285 Y-33.749
X8.547 Y-33.754
X7.809 Y-33.756
X6.633 Y-33.759
X6.544 Y-33.764
X6.457 Y-33.78
X6.371 Y-33.807
X5.187 Y-34.256
X4.685 Y-34.427
X4.518 Y-34.467
X3.681 Y-34.639
X2.51 Y-34.878
X2.382 Y-34.901
X2.008 Y-34.961
X1.841 Y-34.978
X0.557 Y-35.03
G3 X0.583 Y-35.665 I0.013 J-0.317
X0.883 Y-35.295 I-0.013 J0.317
X0.478 Y-35.043 I-0.313 J-0.052
G1 X-0.428 Y-35.316
G3 X-0.245 Y-35.924 I0.091 J-0.304
X-0.143 Y-35.368 I-0.091 J0.304
X-0.865 Y-35.058 I-0.965 J-1.254
G1 X-3.012 Y-34.798
X-3.514 Y-34.716
X-3.681 Y-34.673
X-5.522 Y-34.14
X-6.155 Y-33.99
X-6.885 Y-33.879
X-7.62 Y-33.821
X-8.357 Y-33.792
X-9.095 Y-33.776
X-9.833 Y-33.768
X-10.571 Y-33.764
X-11.309 Y-33.761
X-12.046 Y-33.76
X-12.414 Y-33.73
X-12.765 Y-33.617
X-13.079 Y-33.423
X-13.615 Y-32.916
X-13.966 Y-32.267
X-14.182 Y-31.562
X-14.311 Y-30.835
X-14.387 Y-30.101
X-14.43 Y-29.365
X-14.456 Y-28.627
X-14.47 Y-27.89
X-14.477 Y-27.254
X-14.488 Y-27.138
X-14.516 Y-27.024
X-14.562 Y-26.917
X-15.642 Y-24.861
X-15.722 Y-24.693
X-15.784 Y-24.526
X-15.797 Y-24.488
G3 X-16.397 Y-24.503 I-0.297 J-0.111
G1 X-16.418 Y-24.57 Z-3.792
X-16.439 Y-24.634 Z-3.769
X-16.457 Y-24.692 Z-3.731
X-16.472 Y-24.739 Z-3.68
X-16.484 Y-24.775 Z-3.62
X-16.491 Y-24.798 Z-3.553
X-16.493 Y-24.805 Z-3.483
G0 Z3.002
X-16.921 Y-13.665
Z-3.165
G1 Z-3.483 F1000
X-16.915 Y-13.66 Z-3.553
X-16.897 Y-13.645 Z-3.62
X-16.868 Y-13.62 Z-3.68
X-16.83 Y-13.587 Z-3.731
X-16.784 Y-13.548 Z-3.769
X-16.734 Y-13.504 Z-3.792
X-16.68 Y-13.458 Z-3.8
G3 X-16.232 Y-12.813 I-1.034 J1.198
G1 X-15.896 Y-11.809
X-15.838 Y-11.641
X-15.71 Y-11.307
X-15.642 Y-11.139
X-15.115 Y-10.135
X-15.019 Y-9.928
X-14.905 Y-9.618
X-14.786 Y-9.192
X-14.664 Y-8.563
X-14.581 Y-7.83
X-14.538 Y-7.093
X-14.515 Y-6.356
X-14.502 Y-5.618
X-14.384 Y-5.269
X-14.191 Y-4.954
X-13.692 Y-4.411
X-13.048 Y-4.051
X-12.345 Y-3.826
X-11.62 Y-3.69
X-10.887 Y-3.61
X-10.15 Y-3.562
X-9.413 Y-3.535
X-9.24 Y-3.531
X-9.103 Y-3.515
X-8.972 Y-3.475
X-8.85 Y-3.41
X-8.534 Y-3.203
X-8.367 Y-3.112
X-8.007 Y-2.94
X-6.361 Y-2.158
G3 X-6.447 Y-1.565 I-0.146 J0.282
G1 X-6.516 Y-1.551 Z-3.792
X-6.582 Y-1.539 Z-3.769
X-6.641 Y-1.527 Z-3.731
X-6.691 Y-1.518 Z-3.68
X-6.728 Y-1.511 Z-3.62
X-6.751 Y-1.506 Z-3.553
X-6.759 Y-1.505 Z-3.483
G0 Z3.002
X4.427 Y-1.046
Z-3.165
G1 Z-3.483 F1000
X4.432 Y-1.052 Z-3.553
X4.447 Y-1.07 Z-3.62
X4.47 Y-1.1 Z-3.68
X4.502 Y-1.139 Z-3.731
X4.539 Y-1.186 Z-3.769
X4.581 Y-1.239 Z-3.792
X4.625 Y-1.294 Z-3.8
G3 X5.251 Y-1.768 I1.239 J0.985
G1 X7.195 Y-2.506
X7.363 Y-2.581
X7.41 Y-2.605
X7.53 Y-2.673
X7.697 Y-2.769
X7.993 Y-2.921
X8.264 Y-3.033
X8.625 Y-3.15
X9.136 Y-3.271
X9.865 Y-3.383
X10.601 Y-3.442
X11.338 Y-3.473
X12.076 Y-3.49
X12.44 Y-3.544
X12.785 Y-3.677
X13.091 Y-3.883
X13.616 Y-4.401
X13.96 Y-5.054
X14.174 Y-5.76
X14.303 Y-6.486
X14.38 Y-7.22
X14.425 Y-7.957
X14.451 Y-8.694
X14.453 Y-8.775
X14.467 Y-8.908
X14.506 Y-9.037
X14.567 Y-9.156
X14.975 Y-9.801
X15.06 Y-9.939
X15.077 Y-9.968
X15.164 Y-10.135
X15.395 Y-10.663
X15.814 Y-11.648
G3 X16.411 Y-11.586 I0.288 J0.135
G1 X16.427 Y-11.517 Z-3.792
X16.443 Y-11.451 Z-3.769
X16.456 Y-11.393 Z-3.731
X16.468 Y-11.344 Z-3.68
X16.476 Y-11.307 Z-3.62
X16.482 Y-11.284 Z-3.553
X16.484 Y-11.276 Z-3.483
G0 Z3.002
X16.905 Y-22.503
Z-3.165
G1 Z-3.483 F1000
X16.899 Y-22.508 Z-3.553
X16.881 Y-22.523 Z-3.62
X16.852 Y-22.548 Z-3.68
X16.814 Y-22.581 Z-3.731
X16.768 Y-22.62 Z-3.769
X16.718 Y-22.664 Z-3.792
X16.664 Y-22.71 Z-3.8
G3 X16.216 Y-23.355 I1.034 J-1.198
G1 X16.16 Y-23.522
X16.097 Y-23.689
X15.384 Y-25.363
X15.164 Y-25.865
X15.116 Y-25.957
X15.014 Y-26.178
X14.9 Y-26.492
X14.781 Y-26.923
X14.658 Y-27.563
X14.578 Y-28.296
X14.536 Y-29.033
X14.514 Y-29.77
X14.507 Y-30.139
X14.447 Y-30.503
X14.301 Y-30.842
X14.086 Y-31.141
X13.555 Y-31.654
X12.897 Y-31.987
X12.188 Y-32.192
X11.461 Y-32.316
X10.727 Y-32.389
X9.99 Y-32.432
X9.222 Y-32.457
X9.098 Y-32.47
X8.978 Y-32.503
X8.866 Y-32.556
X7.865 Y-33.134
X7.406 Y-33.395
X7.363 Y-33.418
X7.013 Y-33.562
X6.693 Y-33.685
X6.371 Y-33.807
G3 X6.409 Y-34.405 I0.123 J-0.293
G1 X6.478 Y-34.424 Z-3.792
X6.542 Y-34.442 Z-3.769
X6.6 Y-34.458 Z-3.731
X6.649 Y-34.472 Z-3.68
X6.685 Y-34.482 Z-3.62
X6.708 Y-34.488 Z-3.553
X6.715 Y-34.49 Z-3.483
G0 Z3.002
X15.931 Y-25.224
Z-3.165
G1 Z-3.483 F1000
X15.924 Y-25.228 Z-3.553
X15.904 Y-25.24 Z-3.62
X15.872 Y-25.26 Z-3.68
X15.829 Y-25.287 Z-3.731
X15.778 Y-25.318 Z-3.769
X15.721 Y-25.354 Z-3.792
X15.661 Y-25.391 Z-3.8
G3 X15.116 Y-25.957 I0.833 J-1.346
G1 X15.077 Y-26.032
X15.06 Y-26.061
X14.975 Y-26.199
X14.056 Y-27.652
X13.883 Y-27.959
X13.768 Y-28.208
X13.648 Y-28.533
X13.449 Y-29.244
X13.27 Y-29.567
X12.808 Y-30.142
X12.191 Y-30.546
X11.501 Y-30.809
X11.326 Y-30.849
X11.218 Y-30.883
X11.116 Y-30.932
X11.023 Y-30.997
G0 Z3.002
X14.929 Y-26.989
Z-3.165
G1 Z-3.483 F1000
X14.922 Y-26.993 Z-3.553
X14.901 Y-27.004 Z-3.62
X14.867 Y-27.021 Z-3.68
X14.823 Y-27.044 Z-3.731
X14.769 Y-27.071 Z-3.769
X14.709 Y-27.101 Z-3.792
X14.646 Y-27.133 Z-3.8
G3 X14.056 Y-27.652 I0.717 J-1.411
G1 X13.811 Y-28.04
X13.722 Y-28.168
X13.422 Y-28.542
X13.387 Y-28.584
X12.383 Y-29.717
X12.216 Y-29.905
X11.881 Y-30.277
X11.772 Y-30.383
X11.714 Y-30.432
X10.877 Y-31.116
X9.873 Y-31.936
X9.703 Y-32.056
X9.538 Y-32.168
X8.866 Y-32.556
G3 X8.999 Y-33.141 I0.168 J-0.269
G1 X9.069 Y-33.149 Z-3.792
X9.136 Y-33.156 Z-3.769
X9.196 Y-33.163 Z-3.731
X9.246 Y-33.168 Z-3.68
X9.284 Y-33.172 Z-3.62
X9.307 Y-33.175 Z-3.553
X9.315 Y-33.176 Z-3.483
G0 Z3.002
X-4.643 Y-34.794
Z-3.165
G1 Z-3.483 F1000
X-4.648 Y-34.788 Z-3.553
X-4.664 Y-34.771 Z-3.62
X-4.69 Y-34.743 Z-3.68
X-4.725 Y-34.706 Z-3.731
X-4.766 Y-34.663 Z-3.769
X-4.812 Y-34.614 Z-3.792
X-4.86 Y-34.562 Z-3.8
G3 X-5.522 Y-34.14 I-1.155 J-1.082
G1 X-5.689 Y-34.091
X-5.775 Y-34.064
X-6.233 Y-33.897
X-6.359 Y-33.842
X-7.865 Y-33.128
X-8.263 Y-32.963
X-8.624 Y-32.846
X-9.135 Y-32.725
X-9.864 Y-32.614
X-10.6 Y-32.555
X-10.968 Y-32.531
X-11.325 Y-32.439
X-11.652 Y-32.268
X-12.226 Y-31.804
X-12.612 Y-31.175
X-12.855 Y-30.479
X-13.004 Y-29.756
X-13.082 Y-29.12
X-13.108 Y-28.993
X-13.157 Y-28.873
X-13.225 Y-28.764
G3 X-13.789 Y-28.967 I-0.247 J-0.2
G1 Y-29.038 Z-3.792
X-13.788 Y-29.105 Z-3.769
X-13.787 Y-29.165 Z-3.731
X-13.786 Y-29.215 Z-3.68
Y-29.253 Z-3.62
Y-29.277 Z-3.553
Y-29.285 Z-3.483
G0 Z3.002
X-7.102 Y-33.914
Z-3.165
G1 Z-3.483 F1000
X-7.106 Y-33.908 Z-3.553
X-7.119 Y-33.888 Z-3.62
X-7.14 Y-33.857 Z-3.68
X-7.169 Y-33.815 Z-3.731
X-7.202 Y-33.765 Z-3.769
X-7.239 Y-33.71 Z-3.792
X-7.279 Y-33.651 Z-3.8
G3 X-7.865 Y-33.128 I-1.314 J-0.882
G1 X-8.367 Y-32.89
X-8.534 Y-32.804
X-8.658 Y-32.726
X-8.701 Y-32.697
X-10.6 Y-31.387
X-10.71 Y-31.306
X-10.877 Y-31.171
X-11.008 Y-31.052
X-12.383 Y-29.731
X-12.733 Y-29.379
X-12.885 Y-29.216
X-14.056 Y-27.658
X-14.145 Y-27.538
X-14.391 Y-27.193
X-14.5 Y-27.036
X-14.562 Y-26.917
G3 X-15.152 Y-27.028 I-0.276 J-0.158
G1 X-15.162 Y-27.098 Z-3.792
X-15.172 Y-27.164 Z-3.769
X-15.181 Y-27.223 Z-3.731
X-15.189 Y-27.273 Z-3.68
X-15.194 Y-27.311 Z-3.62
X-15.198 Y-27.334 Z-3.553
X-15.199 Y-27.342 Z-3.483
G0 Z3.002
X-15.932 Y-10.866
Z-3.165
G1 Z-3.483 F1000
X-15.925 Y-10.862 Z-3.553
X-15.905 Y-10.849 Z-3.62
X-15.873 Y-10.83 Z-3.68
X-15.83 Y-10.803 Z-3.731
X-15.779 Y-10.772 Z-3.769
X-15.722 Y-10.737 Z-3.792
X-15.661 Y-10.7 Z-3.8
G3 X-15.115 Y-10.135 I-0.829 J1.348
G1 X-14.5 Y-8.964
X-14.384 Y-8.796
X-14.145 Y-8.462
X-14.056 Y-8.342
X-13.972 Y-8.218
X-13.863 Y-8.019
X-13.746 Y-7.757
X-13.628 Y-7.423
X-13.438 Y-6.71
X-13.257 Y-6.388
X-12.788 Y-5.819
X-12.165 Y-5.423
X-11.473 Y-5.167
X-11.369 Y-5.144
X-11.24 Y-5.103
X-11.121 Y-5.04
X-11.016 Y-4.955
G3 X-11.285 Y-4.419 I-0.228 J0.221
G1 X-11.355 Y-4.429 Z-3.792
X-11.422 Y-4.438 Z-3.769
X-11.482 Y-4.445 Z-3.731
X-11.531 Y-4.452 Z-3.68
X-11.569 Y-4.457 Z-3.62
X-11.592 Y-4.46 Z-3.553
X-11.6 Y-4.461 Z-3.483
G0 Z3.002
X-14.98 Y-8.933
Z-3.165
G1 Z-3.483 F1000
X-14.972 Y-8.93 Z-3.553
X-14.95 Y-8.921 Z-3.62
X-14.915 Y-8.906 Z-3.68
X-14.869 Y-8.887 Z-3.731
X-14.813 Y-8.864 Z-3.769
X-14.751 Y-8.839 Z-3.792
X-14.686 Y-8.812 Z-3.8
G3 X-14.056 Y-8.342 I-0.602 J1.464
G1 X-12.885 Y-6.784
X-12.733 Y-6.621
X-12.383 Y-6.269
X-11.008 Y-4.948
X-10.877 Y-4.829
X-10.71 Y-4.694
X-10.6 Y-4.613
X-9.036 Y-3.533
X-8.85 Y-3.41
G3 X-9.016 Y-2.834 I-0.183 J0.259
G1 X-9.087 Y-2.83 Z-3.792
X-9.154 Y-2.827 Z-3.769
X-9.214 Y-2.823 Z-3.731
X-9.264 Y-2.821 Z-3.68
X-9.302 Y-2.819 Z-3.62
X-9.325 Y-2.817 Z-3.553
X-9.333 Z-3.483
G0 Z3.002
X7 Y-1.924
Z-3.165
G1 Z-3.483 F1000
X7.004 Y-1.931 Z-3.553
X7.016 Y-1.951 Z-3.62
X7.034 Y-1.984 Z-3.68
X7.059 Y-2.028 Z-3.731
X7.088 Y-2.081 Z-3.769
X7.121 Y-2.139 Z-3.792
X7.156 Y-2.201 Z-3.8
G3 X7.697 Y-2.769 I1.381 J0.774
G1 X9.538 Y-3.832
X9.703 Y-3.944
X9.872 Y-4.05
X10.087 Y-4.162
X10.359 Y-4.278
X11.059 Y-4.511
X11.398 Y-4.658
X12.014 Y-5.064
X12.456 Y-5.654
X12.749 Y-6.332
X12.838 Y-6.674
X12.876 Y-6.784
X12.931 Y-6.887
X13.001 Y-6.98
G3 X13.547 Y-6.732 I0.23 J0.219
G1 X13.541 Y-6.662 Z-3.792
X13.534 Y-6.595 Z-3.769
X13.529 Y-6.535 Z-3.731
X13.524 Y-6.485 Z-3.68
X13.521 Y-6.447 Z-3.62
X13.519 Y-6.424 Z-3.553
X13.518 Y-6.416 Z-3.483
G0 Z3.002
X9.083 Y-3.04
Z-3.165
G1 Z-3.483 F1000
X9.087 Y-3.047 Z-3.553
X9.096 Y-3.069 Z-3.62
X9.112 Y-3.103 Z-3.68
X9.132 Y-3.149 Z-3.731
X9.157 Y-3.204 Z-3.769
X9.185 Y-3.265 Z-3.792
X9.214 Y-3.33 Z-3.8
G3 X9.703 Y-3.944 I1.444 J0.649
G1 X9.873 Y-4.064
X11.379 Y-5.294
X11.714 Y-5.568
X11.772 Y-5.617
X11.881 Y-5.723
X12.237 Y-6.119
X12.885 Y-6.849
X13.387 Y-7.416
X13.422 Y-7.458
X13.722 Y-7.832
X13.811 Y-7.96
X14.567 Y-9.156
G3 X14.982 Y-9.255 I0.262 J0.179
G1 X15.022 Y-9.218 Z-3.795
X15.06 Y-9.182 Z-3.781
X15.097 Y-9.149 Z-3.758
X15.112 Y-9.102 Z-3.722
X15.125 Y-9.062 Z-3.678
X15.136 Y-9.032 Z-3.627
X15.143 Y-9.011 Z-3.571
X15.146 Y-9 Z-3.511
Y-8.999 Z-3.483
G0 Z3.002
X1.508 Y-18.007
Z0.502
G3 X-1.508 Y-17.993 Z0.337 I-1.508 J0.007 F333.3
X1.508 Y-18.007 Z0.171 I1.508 J-0.007
X-1.508 Y-17.993 Z0.006 I-1.508 J0.007
X1.508 Y-18.007 Z-0.16 I1.508 J-0.007
X-1.508 Y-17.993 Z-0.325 I-1.508 J0.007
X1.508 Y-18.007 Z-0.491 I1.508 J-0.007
X-1.508 Y-17.993 Z-0.656 I-1.508 J0.007
X1.508 Y-18.007 Z-0.822 I1.508 J-0.007
X-1.508 Y-17.993 Z-0.987 I-1.508 J0.007
X1.508 Y-18.007 Z-1.153 I1.508 J-0.007
X-1.508 Y-17.993 Z-1.318 I-1.508 J0.007
X1.508 Y-18.007 Z-1.483 I1.508 J-0.007
X-1.508 Y-17.993 Z-1.649 I-1.508 J0.007
X1.508 Y-18.007 Z-1.814 I1.508 J-0.007
X-1.508 Y-17.993 Z-1.98 I-1.508 J0.007
X1.508 Y-18.007 Z-2.145 I1.508 J-0.007
X-1.508 Y-17.993 Z-2.311 I-1.508 J0.007
X1.508 Y-18.007 Z-2.476 I1.508 J-0.007
X-1.508 Y-17.993 Z-2.642 I-1.508 J0.007
X1.508 Y-18.007 Z-2.807 I1.508 J-0.007
X-1.508 Y-17.993 Z-2.972 I-1.508 J0.007
X1.508 Y-18.007 Z-3.138 I1.508 J-0.007
X-1.508 Y-17.993 Z-3.303 I-1.508 J0.007
X1.508 Y-18.007 Z-3.469 I1.508 J-0.007
X-1.508 Y-17.993 Z-3.634 I-1.508 J0.007
X-0.004 Y-19.508 Z-3.717 I1.508 J-0.007
X1.508 Y-18 Z-3.8 I0.004 J1.508
X-1.508 I-1.508
X1.508 I1.508
G1 X1.527 Y-17.262 F1000
X1.549 Y-17.173
X1.565 Y-17.024
X1.552 Y-16.874
X1.517 Y-16.728
X1.462 Y-16.589
X1.39 Y-16.457
X1.304 Y-16.334
X1.206 Y-16.22
X1.098 Y-16.117
X0.98 Y-16.024
X0.854 Y-15.942
X0.722 Y-15.871
X0.584 Y-15.811
X0.437 Y-15.76
X0.283 Y-15.721
X0.123 Y-15.694
X-0.042 Y-15.679
X-0.211 Y-15.677
X-0.382 Y-15.689
X-0.554 Y-15.716
X-0.725 Y-15.756
X-0.895 Y-15.811
X-1.061 Y-15.879
X-1.223 Y-15.962
X-1.378 Y-16.058
X-1.527 Y-16.167
X-1.667 Y-16.289
X-1.798 Y-16.422
X-1.918 Y-16.566
X-2.027 Y-16.719
X-2.123 Y-16.882
X-2.207 Y-17.052
X-2.276 Y-17.229
X-2.332 Y-17.411
X-2.372 Y-17.598
X-2.398 Y-17.788
X-2.408 Y-17.979
X-2.403 Y-18.171
X-2.382 Y-18.362
X-2.347 Y-18.551
X-2.296 Y-18.737
X-2.23 Y-18.918
X-2.15 Y-19.094
X-2.056 Y-19.262
X-1.948 Y-19.423
X-1.828 Y-19.575
X-1.697 Y-19.716
X-1.554 Y-19.847
X-1.401 Y-19.965
X-1.239 Y-20.072
X-1.069 Y-20.164
X-0.892 Y-20.243
X-0.709 Y-20.308
X-0.522 Y-20.357
X-0.331 Y-20.392
X-0.139 Y-20.411
X0.055 Y-20.414
X0.249 Y-20.402
X0.441 Y-20.374
X0.63 Y-20.331
X0.815 Y-20.273
X0.994 Y-20.201
X1.168 Y-20.114
X1.334 Y-20.013
X1.491 Y-19.9
X1.639 Y-19.774
X1.776 Y-19.637
X1.901 Y-19.489
X2.015 Y-19.332
X2.119 Y-19.159
X2.23 Y-18.937
X2.377 Y-18.572
X2.484 Y-18.229
X2.548 Y-17.946
X2.585 Y-17.691
X2.6 Y-17.454
X2.596 Y-17.23
X2.574 Y-17.017
X2.537 Y-16.81
X2.483 Y-16.608
X2.414 Y-16.411
X2.328 Y-16.221
X2.228 Y-16.038
X2.114 Y-15.863
X1.984 Y-15.696
X1.84 Y-15.539
X1.682 Y-15.392
X1.51 Y-15.256
X1.326 Y-15.133
X1.129 Y-15.024
X0.921 Y-14.929
X0.704 Y-14.85
X0.477 Y-14.788
X0.243 Y-14.744
X0.003 Y-14.719
X-0.241 Y-14.712
X-0.487 Y-14.726
X-0.734 Y-14.759
X-0.98 Y-14.813
X-1.223 Y-14.887
X-1.46 Y-14.981
X-1.691 Y-15.094
X-1.914 Y-15.227
X-2.127 Y-15.378
X-2.328 Y-15.546
X-2.516 Y-15.731
X-2.689 Y-15.931
X-2.846 Y-16.146
X-2.986 Y-16.373
X-3.108 Y-16.612
X-3.21 Y-16.86
X-3.293 Y-17.117
X-3.355 Y-17.38
X-3.395 Y-17.647
X-3.414 Y-17.918
X-3.412 Y-18.19
X-3.387 Y-18.461
X-3.341 Y-18.73
X-3.273 Y-18.994
X-3.184 Y-19.253
X-3.074 Y-19.503
X-2.945 Y-19.744
X-2.796 Y-19.975
X-2.63 Y-20.192
X-2.446 Y-20.396
X-2.247 Y-20.585
X-2.033 Y-20.757
X-1.806 Y-20.911
X-1.567 Y-21.046
X-1.318 Y-21.162
X-1.06 Y-21.258
X-0.796 Y-21.333
X-0.526 Y-21.386
X-0.253 Y-21.417
X0.022 Y-21.427
X0.297 Y-21.414
X0.57 Y-21.379
X0.839 Y-21.323
X1.103 Y-21.245
X1.36 Y-21.146
X1.608 Y-21.026
X1.846 Y-20.888
X2.071 Y-20.73
X2.285 Y-20.554
X2.491 Y-20.355
X2.705 Y-20.111
X2.907 Y-19.84
X3.094 Y-19.543
X3.258 Y-19.227
X3.396 Y-18.902
X3.504 Y-18.575
X3.583 Y-18.252
X3.634 Y-17.932
X3.659 Y-17.615
X3.658 Y-17.303
X3.633 Y-16.995
X3.583 Y-16.694
X3.51 Y-16.4
X3.415 Y-16.114
X3.297 Y-15.838
X3.157 Y-15.573
X2.996 Y-15.319
X2.815 Y-15.078
X2.615 Y-14.852
X2.395 Y-14.641
X2.158 Y-14.447
X1.904 Y-14.272
X1.634 Y-14.116
X1.351 Y-13.981
X1.055 Y-13.868
X0.748 Y-13.779
X0.432 Y-13.714
X0.109 Y-13.674
X-0.218 Y-13.66
X-0.548 Y-13.673
X-0.877 Y-13.712
X-1.205 Y-13.778
X-1.529 Y-13.871
X-1.846 Y-13.99
X-2.154 Y-14.135
X-2.452 Y-14.305
X-2.736 Y-14.5
X-3.005 Y-14.718
X-3.257 Y-14.958
X-3.489 Y-15.218
X-3.701 Y-15.497
X-3.891 Y-15.794
X-4.056 Y-16.105
X-4.196 Y-16.43
X-4.311 Y-16.766
X-4.398 Y-17.111
X-4.457 Y-17.462
X-4.488 Y-17.818
X-4.49 Y-18.176
X-4.463 Y-18.533
X-4.408 Y-18.887
X-4.325 Y-19.236
X-4.213 Y-19.578
X-4.075 Y-19.91
X-3.91 Y-20.23
X-3.72 Y-20.536
X-3.505 Y-20.826
X-3.268 Y-21.098
X-3.01 Y-21.35
X-2.733 Y-21.58
X-2.437 Y-21.788
X-2.126 Y-21.972
X-1.801 Y-22.129
X-1.464 Y-22.261
X-1.118 Y-22.365
X-0.764 Y-22.441
X-0.406 Y-22.488
X-0.045 Y-22.506
X0.317 Y-22.495
X0.676 Y-22.455
X1.032 Y-22.387
X1.38 Y-22.29
X1.72 Y-22.166
X2.049 Y-22.014
X2.367 Y-21.835
X2.68 Y-21.625
X2.983 Y-21.383
X3.275 Y-21.11
X3.552 Y-20.805
X3.807 Y-20.474
X4.037 Y-20.12
X4.239 Y-19.749
X4.408 Y-19.365
X4.546 Y-18.971
X4.65 Y-18.572
X4.721 Y-18.169
X4.76 Y-17.765
X4.766 Y-17.363
X4.739 Y-16.964
X4.682 Y-16.572
X4.593 Y-16.188
X4.474 Y-15.813
X4.326 Y-15.45
X4.149 Y-15.1
X3.945 Y-14.765
X3.715 Y-14.448
X3.458 Y-14.149
X3.178 Y-13.871
X2.875 Y-13.615
X2.551 Y-13.383
X2.207 Y-13.176
X1.846 Y-12.997
X1.469 Y-12.846
X1.079 Y-12.726
X0.678 Y-12.636
X0.268 Y-12.579
X-0.147 Y-12.555
X-0.565 Y-12.564
X-0.983 Y-12.607
X-1.399 Y-12.683
X-1.809 Y-12.794
X-2.212 Y-12.937
X-2.603 Y-13.114
X-2.981 Y-13.322
X-3.342 Y-13.56
X-3.684 Y-13.829
X-4.005 Y-14.124
X-4.302 Y-14.446
X-4.574 Y-14.792
X-4.817 Y-15.159
X-5.031 Y-15.546
X-5.213 Y-15.95
X-5.363 Y-16.368
X-5.479 Y-16.797
X-5.56 Y-17.235
X-5.606 Y-17.68
X-5.616 Y-18.127
X-5.59 Y-18.574
X-5.529 Y-19.018
X-5.431 Y-19.456
X-5.299 Y-19.886
X-5.133 Y-20.304
X-4.933 Y-20.707
X-4.702 Y-21.094
X-4.44 Y-21.46
X-4.149 Y-21.805
X-3.832 Y-22.125
X-3.489 Y-22.42
X-3.124 Y-22.685
X-2.739 Y-22.921
X-2.336 Y-23.125
X-1.918 Y-23.296
X-1.487 Y-23.433
X-1.047 Y-23.535
X-0.6 Y-23.601
X-0.149 Y-23.632
X0.304 Y-23.626
X0.754 Y-23.583
X1.199 Y-23.505
X1.638 Y-23.391
X2.068 Y-23.241
X2.488 Y-23.056
X2.898 Y-22.835
X3.293 Y-22.578
X3.674 Y-22.285
X4.038 Y-21.955
X4.378 Y-21.593
X4.692 Y-21.2
X4.974 Y-20.781
X5.223 Y-20.339
X5.435 Y-19.88
X5.609 Y-19.406
X5.744 Y-18.922
X5.839 Y-18.432
X5.894 Y-17.938
X5.91 Y-17.444
X5.885 Y-16.953
X5.822 Y-16.467
X5.72 Y-15.99
X5.581 Y-15.524
X5.405 Y-15.072
X5.194 Y-14.636
X4.948 Y-14.217
X4.669 Y-13.82
X4.359 Y-13.446
X4.018 Y-13.096
X3.65 Y-12.775
X3.255 Y-12.482
X2.837 Y-12.222
X2.397 Y-11.994
X1.938 Y-11.802
X1.463 Y-11.647
X0.974 Y-11.529
X0.476 Y-11.451
X-0.03 Y-11.413
X-0.539 Y-11.416
X-1.05 Y-11.459
X-1.557 Y-11.544
X-2.058 Y-11.67
X-2.549 Y-11.837
X-3.027 Y-12.043
X-3.489 Y-12.287
X-3.932 Y-12.569
X-4.351 Y-12.887
X-4.746 Y-13.239
X-5.111 Y-13.622
X-5.446 Y-14.034
X-5.747 Y-14.473
X-6.013 Y-14.936
X-6.242 Y-15.42
X-6.431 Y-15.922
X-6.579 Y-16.438
X-6.686 Y-16.965
X-6.75 Y-17.5
X-6.771 Y-18.039
X-6.749 Y-18.579
X-6.683 Y-19.116
X-6.575 Y-19.646
X-6.424 Y-20.166
X-6.232 Y-20.673
X-5.999 Y-21.164
X-5.728 Y-21.634
X-5.419 Y-22.081
X-5.076 Y-22.503
X-4.7 Y-22.895
X-4.293 Y-23.256
X-3.858 Y-23.584
X-3.399 Y-23.875
X-2.917 Y-24.129
X-2.416 Y-24.344
X-1.9 Y-24.517
X-1.371 Y-24.649
X-0.834 Y-24.738
X-0.291 Y-24.783
X0.254 Y-24.785
X0.798 Y-24.743
X1.337 Y-24.657
X1.87 Y-24.528
X2.394 Y-24.355
X2.906 Y-24.14
X3.404 Y-23.881
X3.885 Y-23.579
X4.347 Y-23.236
X4.785 Y-22.852
X5.194 Y-22.431
X5.57 Y-21.975
X5.911 Y-21.487
X6.211 Y-20.973
X6.47 Y-20.437
X6.684 Y-19.882
X6.853 Y-19.312
X6.976 Y-18.733
X7.051 Y-18.148
X7.079 Y-17.56
X7.059 Y-16.975
X6.993 Y-16.394
X6.881 Y-15.823
X6.724 Y-15.263
X6.522 Y-14.719
X6.278 Y-14.193
X5.992 Y-13.688
X5.667 Y-13.207
X5.303 Y-12.754
X4.904 Y-12.33
X4.471 Y-11.939
X4.006 Y-11.583
X3.513 Y-11.264
X2.994 Y-10.985
X2.452 Y-10.748
X1.891 Y-10.554
X1.314 Y-10.405
X0.724 Y-10.303
X0.126 Y-10.248
X-0.477 Y-10.241
X-1.081 Y-10.283
X-1.682 Y-10.373
X-2.277 Y-10.512
X-2.86 Y-10.699
X-3.428 Y-10.933
X-3.977 Y-11.213
X-4.504 Y-11.536
X-5.005 Y-11.903
X-5.476 Y-12.309
X-5.914 Y-12.753
X-6.316 Y-13.232
X-6.679 Y-13.742
X-7 Y-14.282
X-7.278 Y-14.846
X-7.51 Y-15.432
X-7.694 Y-16.036
X-7.83 Y-16.653
X-7.916 Y-17.281
X-7.951 Y-17.914
X-7.935 Y-18.548
X-7.869 Y-19.18
X-7.751 Y-19.805
X-7.584 Y-20.419
X-7.368 Y-21.018
X-7.105 Y-21.598
X-6.795 Y-22.156
X-6.442 Y-22.687
X-6.046 Y-23.188
X-5.612 Y-23.656
X-5.142 Y-24.088
X-4.638 Y-24.481
X-4.104 Y-24.832
X-3.543 Y-25.14
X-2.96 Y-25.401
X-2.357 Y-25.615
X-1.739 Y-25.78
X-1.109 Y-25.894
X-0.472 Y-25.958
X0.168 Y-25.971
X0.808 Y-25.932
X1.444 Y-25.841
X2.074 Y-25.699
X2.693 Y-25.507
X3.3 Y-25.263
X3.889 Y-24.969
X4.458 Y-24.626
X5.002 Y-24.235
X5.516 Y-23.798
X5.997 Y-23.319
X6.441 Y-22.799
X6.843 Y-22.243
X7.2 Y-21.655
X7.51 Y-21.039
X7.769 Y-20.4
X7.975 Y-19.743
X8.128 Y-19.074
X8.227 Y-18.395
X8.27 Y-17.713
X8.259 Y-17.031
X8.193 Y-16.354
X8.074 Y-15.685
X7.901 Y-15.03
X7.676 Y-14.391
X7.401 Y-13.772
X7.078 Y-13.178
X6.707 Y-12.611
X6.292 Y-12.076
X5.835 Y-11.574
X5.338 Y-11.11
X4.804 Y-10.687
X4.236 Y-10.307
X3.638 Y-9.973
X3.014 Y-9.686
X2.366 Y-9.451
X2.127 Y-9.385
X2.089 Y-9.377
X1.004 Y-9.168
X0.837 Y-9.138
X0.502 Y-9.137
X-0.669
X-0.837 Y-9.138
X-1.004 Y-9.168
X-2.343 Y-9.426
X-2.51 Y-9.46
X-2.528 Y-9.466
X-4.016 Y-10.061
X-4.086 Y-10.092
X-4.183 Y-10.153
X-5.457 Y-10.972
X-5.522 Y-11.02
X-6.701 Y-12.143
X-6.738 Y-12.185
X-6.769 Y-12.227
X-7.697 Y-13.531
X-7.756 Y-13.649
X-8.405 Y-15.072
X-8.43 Y-15.155
X-8.795 Y-16.661
X-8.812 Y-16.745
X-8.817 Y-16.829
X-8.889 Y-18.335
X-8.891 Y-18.418
X-8.882 Y-18.502
X-8.665 Y-20.008
X-8.652 Y-20.092
X-8.626 Y-20.175
X-8.104 Y-21.681
X-8.032 Y-21.813
X-7.287 Y-23.104
X-7.262 Y-23.146
X-7.232 Y-23.187
X-6.191 Y-24.388
X-6.157 Y-24.427
X-6.115 Y-24.466
X-4.853 Y-25.459
X-4.794 Y-25.499
X-4.685 Y-25.556
X-3.347 Y-26.246
X-3.305 Y-26.265
X-3.263 Y-26.279
X-1.823 Y-26.701
X-1.673 Y-26.742
X-1.506 Y-26.759
X-0.167 Y-26.887
X0 Y-26.902
X0.167 Y-26.887
X1.506 Y-26.759
X1.673 Y-26.742
X1.841 Y-26.696
X3.263 Y-26.279
X3.305 Y-26.265
X3.347 Y-26.246
X4.735 Y-25.53
X4.794 Y-25.499
X4.853 Y-25.459
X6.115 Y-24.466
X6.157 Y-24.427
X6.217 Y-24.359
X7.232 Y-23.187
X7.262 Y-23.146
X7.53 Y-22.683
X8.032 Y-21.813
X8.104 Y-21.681
X8.626 Y-20.175
X8.652 Y-20.092
X8.665 Y-20.008
X8.882 Y-18.502
X8.891 Y-18.418
X8.889 Y-18.335
X8.817 Y-16.829
X8.812 Y-16.745
X8.795 Y-16.661
X8.43 Y-15.155
X8.405 Y-15.072
X7.756 Y-13.649
X7.697 Y-13.531
X6.769 Y-12.227
X6.738 Y-12.185
X6.701 Y-12.143
X5.522 Y-11.02
X5.457 Y-10.972
X4.155 Y-10.135
X4.086 Y-10.092
X4.016 Y-10.061
X2.528 Y-9.466
X2.51 Y-9.46
X2.343 Y-9.426
X2.089 Y-9.377
G3 X1.733 Y-9.611 I-0.049 J-0.314
G1 X1.727 Y-9.651 Z-3.797
X1.722 Y-9.691 Z-3.79
X1.737 Y-9.747 Z-3.768
X1.75 Y-9.798 Z-3.735
X1.761 Y-9.842 Z-3.692
X1.781 Y-9.87 Z-3.646
X1.795 Y-9.89 Z-3.595
X1.804 Y-9.902 Z-3.54
X1.807 Y-9.906 Z-3.483
G0 Z3.002
X-6.415 Y-19.997
Z-1.765
G1 Z-2.082 F1000
X-6.423 Y-20 Z-2.153
X-6.445 Y-20.008 Z-2.22
X-6.481 Y-20.021 Z-2.28
X-6.528 Y-20.038 Z-2.331
X-6.585 Y-20.058 Z-2.369
X-6.648 Y-20.081 Z-2.392
X-6.714 Y-20.104 Z-2.4
G3 X-8.285 Y-20.867 I2.736 J-7.63
G1 X-8.33 Y-20.898
X-8.354 Y-20.947
X-8.35 Y-21.002
X-8.115 Y-21.681
X-8.023 Y-21.849
X-7.347 Y-23.02
X-7.245 Y-23.187
X-6.955 Y-23.522
X-6.191 Y-24.404
X-6.16 Y-24.438
X-6.123 Y-24.472
X-4.853 Y-25.471
X-4.805 Y-25.505
X-3.347 Y-26.257
X-3.305 Y-26.275
X-3.263 Y-26.289
X-1.841 Y-26.707
X-1.673 Y-26.752
X-1.506 Y-26.769
X-0.167 Y-26.897
X0 Y-26.912
X0.167 Y-26.897
X1.506 Y-26.769
X1.673 Y-26.752
X1.859 Y-26.701
X3.263 Y-26.289
X3.305 Y-26.275
X3.347 Y-26.257
X4.805 Y-25.505
X4.853 Y-25.471
X6.123 Y-24.472
X6.16 Y-24.438
X6.191 Y-24.404
X7.195 Y-23.245
X7.245 Y-23.187
X7.347 Y-23.02
X8.032 Y-21.833
X8.115 Y-21.681
X8.636 Y-20.175
X8.662 Y-20.092
X8.675 Y-20.008
X8.892 Y-18.502
X8.901 Y-18.418
X8.899 Y-18.335
X8.827 Y-16.829
X8.822 Y-16.745
X8.805 Y-16.661
X8.44 Y-15.155
X8.416 Y-15.072
X7.736 Y-13.581
X7.719 Y-13.547
X7.697 Y-13.513
X6.841 Y-12.311
X6.715 Y-12.143
X5.522 Y-11.006
X5.476 Y-10.972
X4.174 Y-10.135
X4.095 Y-10.085
X4.016 Y-10.05
X2.556 Y-9.466
X2.51 Y-9.449
X2.343 Y-9.415
X0.867 Y-9.131
X0.837 Y-9.128
X0.335 Y-9.127
X-0.669
X-0.837 Y-9.128
X-0.867 Y-9.131
X-2.343 Y-9.415
X-2.51 Y-9.449
X-2.556 Y-9.466
X-4.016 Y-10.05
X-4.095 Y-10.085
X-4.518 Y-10.356
X-5.476 Y-10.972
X-5.522 Y-11.006
X-6.715 Y-12.143
X-6.841 Y-12.311
X-7.697 Y-13.513
X-7.719 Y-13.547
X-7.736 Y-13.581
X-8.416 Y-15.072
X-8.44 Y-15.155
X-8.805 Y-16.661
X-8.822 Y-16.745
X-8.827 Y-16.829
X-8.899 Y-18.335
X-8.901 Y-18.418
X-8.892 Y-18.502
X-8.675 Y-20.008
X-8.662 Y-20.092
X-8.636 Y-20.175
X-8.35 Y-21.002
G3 X-7.969 Y-21.193 I0.296 J0.114
G1 X-7.922 Y-21.166 Z-2.395
X-7.876 Y-21.14 Z-2.381
X-7.833 Y-21.116 Z-2.358
X-7.807 Y-21.074 Z-2.322
X-7.786 Y-21.038 Z-2.278
X-7.768 Y-21.011 Z-2.227
X-7.757 Y-20.992 Z-2.171
X-7.751 Y-20.983 Z-2.111
Y-20.981 Z-2.082
G0 Z3.002
X-6.499 Y-20.026
Z-1.565
G1 Z-1.883 F1000
X-6.507 Y-20.029 Z-1.953
X-6.529 Y-20.037 Z-2.02
X-6.564 Y-20.05 Z-2.08
X-6.612 Y-20.067 Z-2.131
X-6.668 Y-20.087 Z-2.169
X-6.732 Y-20.11 Z-2.192
X-6.798 Y-20.134 Z-2.2
G3 X-8.369 Y-20.897 I2.736 J-7.63
G1 X-8.415 Y-20.927
X-8.439 Y-20.977
X-8.435 Y-21.032
X-8.325 Y-21.347
X-8.186 Y-21.741
X-8.169 Y-21.777
X-7.53 Y-22.883
X-7.44 Y-23.02
X-7.218 Y-23.355
X-7.195 Y-23.382
X-6.494 Y-24.191
X-6.359 Y-24.347
X-6.173 Y-24.526
X-6.024 Y-24.665
X-4.924 Y-25.53
X-4.853 Y-25.572
X-4.518 Y-25.752
X-4.304 Y-25.865
X-3.849 Y-26.099
X-3.65 Y-26.199
X-3.347 Y-26.35
X-3.311 Y-26.367
X-3.179 Y-26.408
X-2.175 Y-26.702
X-2.008 Y-26.75
X-1.506 Y-26.852
X-1.41 Y-26.869
X-0.335 Y-26.972
X-0.167 Y-26.975
X0.167
X0.335 Y-26.972
X1.41 Y-26.869
X1.506 Y-26.852
X2.008 Y-26.75
X2.178 Y-26.701
X3.179 Y-26.408
X3.311 Y-26.367
X3.347 Y-26.35
X3.681 Y-26.184
X3.849 Y-26.099
X4.351 Y-25.841
X4.518 Y-25.752
X4.853 Y-25.572
X4.924 Y-25.53
X6.024 Y-24.665
X6.191 Y-24.509
X6.359 Y-24.347
X6.784 Y-23.857
X7.195 Y-23.382
X7.218 Y-23.355
X7.44 Y-23.02
X7.53 Y-22.883
X8.169 Y-21.777
X8.186 Y-21.741
X8.384 Y-21.179
X8.558 Y-20.677
X8.612 Y-20.51
X8.716 Y-20.175
X8.766 Y-20.008
X8.935 Y-18.837
X8.953 Y-18.669
X8.982 Y-18.335
X8.981 Y-18.167
X8.933 Y-17.163
X8.917 Y-16.996
X8.883 Y-16.661
X8.869 Y-16.542
X8.614 Y-15.49
X8.566 Y-15.323
X8.401 Y-14.821
X7.865 Y-13.647
X7.785 Y-13.482
X7.19 Y-12.645
X7.067 Y-12.478
X6.662 Y-11.976
X6.526 Y-11.839
X6.024 Y-11.36
X5.522 Y-10.905
X5.382 Y-10.805
X4.34 Y-10.135
X4.183 Y-10.058
X3.849 Y-9.895
X3.681 Y-9.82
X2.677 Y-9.418
X2.51 Y-9.367
X2.008 Y-9.259
X0.879 Y-9.042
X0.837 Y-9.039
X0.167 Y-9.037
X-0.502 Y-9.038
X-0.837 Y-9.039
X-0.879 Y-9.042
X-2.008 Y-9.259
X-2.51 Y-9.367
X-2.677 Y-9.418
X-3.681 Y-9.82
X-3.849 Y-9.895
X-4.183 Y-10.058
X-4.34 Y-10.135
X-5.382 Y-10.805
X-5.522 Y-10.905
X-6.024 Y-11.36
X-6.526 Y-11.839
X-6.662 Y-11.976
X-7.067 Y-12.478
X-7.195 Y-12.653
X-7.785 Y-13.482
X-7.866 Y-13.649
X-8.401 Y-14.821
X-8.566 Y-15.323
X-8.614 Y-15.49
X-8.869 Y-16.542
X-8.883 Y-16.661
X-8.917 Y-16.996
X-8.933 Y-17.163
X-8.981 Y-18.167
X-8.982 Y-18.335
X-8.953 Y-18.669
X-8.935 Y-18.837
X-8.766 Y-20.008
X-8.701 Y-20.222
X-8.612 Y-20.51
X-8.558 Y-20.677
X-8.435 Y-21.032
G3 X-8.054 Y-21.224 I0.296 J0.114
G1 X-8.006 Y-21.197 Z-2.195
X-7.961 Y-21.171 Z-2.181
X-7.918 Y-21.146 Z-2.158
X-7.892 Y-21.104 Z-2.122
X-7.87 Y-21.069 Z-2.078
X-7.853 Y-21.041 Z-2.027
X-7.841 Y-21.022 Z-1.971
X-7.836 Y-21.013 Z-1.911
X-7.835 Y-21.012 Z-1.883
G0 Z3.002
X-18.309 Y-39.678
Z-5.165
G1 Z-5.483 F1000
X-18.307 Y-39.67 Z-5.553
X-18.301 Y-39.647 Z-5.62
X-18.292 Y-39.61 Z-5.68
X-18.279 Y-39.562 Z-5.731
X-18.264 Y-39.503 Z-5.769
X-18.248 Y-39.438 Z-5.792
X-18.23 Y-39.37 Z-5.8
G3 X-17.982 Y-37.641 I-7.852 J2.011
G1 Y-37.491
X-18.129 Y-36.769
X-18.209 Y-36.035
X-18.252 Y-35.299
X-18.274 Y-34.561
X-18.286 Y-33.823
X-18.292 Y-33.086
X-18.295 Y-32.348
X-18.298 Y-30.872
X-18.299 Y-24.97
X-18.298 Y-1.359
X-18.175 Y-1.012
X-17.943 Y-0.725
X-17.367 Y-0.264
X-16.679 Y0.001
X-15.955 Y0.148
X-15.222 Y0.226
X-14.485 Y0.268
X-13.748 Y0.29
X-13.01 Y0.302
X-12.272 Y0.308
X-11.534 Y0.31
X-10.059 Y0.312
X-4.894 Y0.311
X16.503 Y0.299
X16.684 Y0.267
X17.022 Y0.118
X17.298 Y-0.126
X17.741 Y-0.716
X17.995 Y-1.409
X18.135 Y-2.133
X18.211 Y-2.867
X18.251 Y-3.604
X18.272 Y-4.342
X18.284 Y-5.079
X18.29 Y-5.817
X18.293 Y-6.555
X18.295 Y-8.03
X18.297 Y-14.671
X18.298 Y-27.951
Y-34.592
X18.244 Y-34.768
X18.068 Y-35.092
X17.81 Y-35.356
X17.204 Y-35.777
X16.506 Y-36.017
X15.78 Y-36.149
X15.046 Y-36.22
X14.309 Y-36.258
X13.572 Y-36.278
X12.834 Y-36.289
X12.096 Y-36.294
X11.358 Y-36.297
X9.883 Y-36.299
X2.505 Y-36.3
X-15.203 Y-36.299
X-15.382 Y-36.256
X-15.717 Y-36.101
X-15.995 Y-35.857
X-16.443 Y-35.272
X-16.706 Y-34.582
X-16.853 Y-33.859
X-16.934 Y-33.126
X-16.978 Y-32.389
X-17.002 Y-31.652
X-17.014 Y-30.914
X-17.021 Y-30.176
X-17.025 Y-29.439
X-17.028 Y-27.963
Y-27.225
X-17.029 Y-19.377
X-17.032 Y-19.339
