%
(1001)
(T1  D=3.175 CR=0 - ZMIN=-12 - flat end mill)
G90 G94
G17
G21
G28 G91 Z0
G90

(Adaptive3)
M9
T1 M6
S5000 M3
G54
G0 X-17.814 Y-38.607
Z3.004
Z-3.361
G1 Z-3.678 F1000
X-17.812 Y-38.599 Z-3.749
X-17.807 Y-38.576 Z-3.816
X-17.797 Y-38.54 Z-3.876
X-17.785 Y-38.491 Z-3.927
X-17.77 Y-38.433 Z-3.965
X-17.753 Y-38.368 Z-3.988
X-17.736 Y-38.299 Z-3.996
G3 X-17.487 Y-36.571 I-7.852 J2.011
G1 Y-36.421
X-17.635 Y-35.698
X-17.714 Y-34.964
X-17.757 Y-34.228
X-17.779 Y-33.49
X-17.791 Y-32.753
X-17.797 Y-32.015
X-17.8 Y-31.277
X-17.802 Y-29.801
Y-23.899
X-17.797 Y-1.396
X-17.743 Y-1.219
X-17.568 Y-0.894
X-17.311 Y-0.63
X-16.706 Y-0.208
X-16.008 Y0.032
X-15.283 Y0.164
X-14.548 Y0.235
X-13.811 Y0.273
X-13.074 Y0.293
X-12.336 Y0.303
X-11.598 Y0.308
X-10.86 Y0.31
X-9.385 Y0.312
X-3.482 Y0.309
X16.07 Y0.298
X16.247 Y0.247
X16.574 Y0.076
X16.841 Y-0.179
X17.266 Y-0.782
X17.509 Y-1.478
X17.643 Y-2.204
X17.715 Y-2.938
X17.753 Y-3.675
X17.773 Y-4.413
X17.784 Y-5.15
X17.79 Y-5.888
X17.793 Y-6.626
X17.795 Y-8.102
X17.796 Y-14.742
X17.797 Y-30.236
Y-33.556
X17.75 Y-33.735
X17.583 Y-34.064
X17.33 Y-34.332
X16.73 Y-34.761
X16.034 Y-35.006
X15.308 Y-35.141
X14.574 Y-35.214
X13.837 Y-35.252
X13.1 Y-35.273
X12.362 Y-35.284
X11.624 Y-35.29
X10.886 Y-35.293
X9.411 Y-35.295
X2.77 Y-35.296
X-14.568 Y-35.297
X-14.753 Y-35.294
X-14.931 Y-35.245
X-15.258 Y-35.076
X-15.529 Y-34.825
X-15.965 Y-34.23
X-16.22 Y-33.537
X-16.363 Y-32.814
X-16.441 Y-32.08
X-16.484 Y-31.343
X-16.507 Y-30.606
X-16.519 Y-29.868
X-16.526 Y-29.13
X-16.529 Y-28.393
X-16.532 Y-26.917
Y-22.49
Y-21.854
X-16.534 Y-21.793
X-16.542 Y-21.732
X-16.554 Y-21.672
X-16.633 Y-21.363
X-16.65 Y-21.268
X-16.977 Y-19.258
X-17 Y-19.091
X-17.027 Y-18.756
X-17.039 Y-18.589
Y-16.411
X-17.027 Y-16.244
X-17 Y-15.909
X-16.977 Y-15.742
X-16.759 Y-14.402
X-16.677 Y-13.669
X-16.606 Y-12.934
X-16.57 Y-12.197
X-16.55 Y-11.46
X-16.54 Y-10.722
X-16.535 Y-9.984
X-16.532 Y-9.246
X-16.529 Y-7.771
X-16.528 Y-3.344
X-16.525 Y-2.975
X-16.422 Y-2.621
X-16.23 Y-2.306
X-15.722 Y-1.771
X-15.067 Y-1.431
X-14.358 Y-1.227
X-13.63 Y-1.109
X-12.895 Y-1.041
X-12.158 Y-1.004
X-11.42 Y-0.983
X-10.683 Y-0.971
X-9.945 Y-0.965
X-9.207 Y-0.962
X-7.732 Y-0.96
X-4.247
X-4.177 Y-0.957
X-4.108 Y-0.947
X-4.04 Y-0.931
X-3.91 Y-0.893
X-3.742 Y-0.847
X-3.407 Y-0.767
X-3.24 Y-0.73
X-1.064 Y-0.465
X-0.562 Y-0.429
X-0.394 Y-0.432
X1.782 Y-0.519
X1.949 Y-0.527
X2.117 Y-0.549
X2.284 Y-0.576
X2.741 Y-0.669
X3.47 Y-0.78
X4.203 Y-0.869
X4.939 Y-0.916
X5.676 Y-0.94
X6.414 Y-0.953
X7.152 Y-0.96
X7.89 Y-0.964
X9.365 Y-0.967
X14.53 Y-0.971
X14.882 Y-1.082
X15.193 Y-1.28
X15.722 Y-1.795
X16.057 Y-2.452
X16.258 Y-3.162
X16.374 Y-3.89
X16.441 Y-4.625
X16.479 Y-5.362
X16.5 Y-6.1
X16.512 Y-6.837
X16.518 Y-7.575
X16.522 Y-8.313
X16.525 Y-9.788
X16.526 Y-13.261
X16.529 Y-13.32
X16.536 Y-13.38
X16.548 Y-13.438
X16.744 Y-14.234
X16.86 Y-14.737
X16.879 Y-14.904
X16.911 Y-15.239
X16.939 Y-15.574
X17.047 Y-16.914
X17.081 Y-17.416
Y-17.584
X17.047 Y-18.086
X16.925 Y-19.593
X16.911 Y-19.761
X16.879 Y-20.096
X16.86 Y-20.263
X16.849 Y-20.313
X16.718 Y-21.039
X16.626 Y-21.772
X16.579 Y-22.508
X16.554 Y-23.245
X16.541 Y-23.983
X16.534 Y-24.721
X16.531 Y-25.458
X16.528 Y-26.934
X16.527 Y-31.73
X16.501 Y-32.098
X16.375 Y-32.445
X16.164 Y-32.748
X15.632 Y-33.258
X14.967 Y-33.579
X14.255 Y-33.771
X13.526 Y-33.882
X12.79 Y-33.946
X12.053 Y-33.981
X11.316 Y-34.001
X10.578 Y-34.012
X9.84 Y-34.018
X9.103 Y-34.022
X7.627 Y-34.025
X4.308 Y-34.026
X4.258 Y-34.028
X4.209 Y-34.033
X4.16 Y-34.041
X2.284 Y-34.424
X2.117 Y-34.451
X1.949 Y-34.473
X1.351 Y-34.498
X-0.394 Y-34.568
X-0.562 Y-34.571
X-1.064 Y-34.535
X-3.24 Y-34.27
X-3.332 Y-34.25
X-3.835 Y-34.164
X-4.569 Y-34.098
X-5.306 Y-34.064
X-6.044 Y-34.046
X-6.782 Y-34.037
X-7.52 Y-34.032
X-8.257 Y-34.029
X-9.733 Y-34.027
X-13.053
X-13.418 Y-33.972
X-13.754 Y-33.819
X-14.044 Y-33.592
X-14.531 Y-33.037
X-14.836 Y-32.365
X-15.018 Y-31.65
X-15.125 Y-30.92
X-15.185 Y-30.185
X-15.22 Y-29.448
X-15.239 Y-28.71
X-15.249 Y-27.973
X-15.255 Y-27.235
X-15.259 Y-26.497
X-15.261 Y-25.269
X-15.27 Y-25.151
X-15.299 Y-25.035
X-15.346 Y-24.926
X-15.507 Y-24.617
X-15.748 Y-24.115
X-15.795 Y-23.992
X-16.482 Y-21.938
X-16.529 Y-21.77
X-16.554 Y-21.672
X-16.633 Y-21.363
X-16.65 Y-21.268
X-16.709 Y-20.903
X-16.977 Y-19.258
X-17 Y-19.091
X-17.027 Y-18.756
X-17.039 Y-18.589
Y-16.411
X-17.027 Y-16.244
X-17 Y-15.909
X-16.977 Y-15.742
X-16.885 Y-15.177
X-16.759 Y-14.402
X-16.65 Y-13.732
X-16.633 Y-13.637
X-16.529 Y-13.23
X-16.482 Y-13.062
X-15.795 Y-11.008
X-15.748 Y-10.885
X-15.69 Y-10.733
X-15.574 Y-10.34
X-15.454 Y-9.767
X-15.361 Y-9.035
X-15.312 Y-8.299
X-15.287 Y-7.562
X-15.273 Y-6.824
X-15.266 Y-6.086
X-15.262 Y-5.348
X-15.26 Y-4.611
X-15.223 Y-4.243
X-15.098 Y-3.897
X-14.894 Y-3.589
X-14.375 Y-3.065
X-13.72 Y-2.725
X-13.012 Y-2.518
X-12.284 Y-2.394
X-11.55 Y-2.323
X-10.813 Y-2.281
X-10.076 Y-2.258
X-9.338 Y-2.245
X-8.6 Y-2.238
X-7.737 Y-2.233
X-7.629 Y-2.225
X-7.523 Y-2.201
X-7.422 Y-2.162
X-6.394 Y-1.674
X-6.253 Y-1.608
X-6.011 Y-1.507
X-5.919 Y-1.478
X-5.416 Y-1.33
X-4.04 Y-0.931
G3 X-3.845 Y-0.768 I-0.088 J0.305
G2 X-3.583 Y-0.594 I0.284 J-0.142
G1 X-3.389 Y-0.58
X1.811 Y-0.22
X1.875 Y-0.222
X1.937 Y-0.237
X1.995 Y-0.264
X2.047 Y-0.302
G3 X2.741 Y-0.669 I1.064 J1.171
G1 X4.381 Y-1.004
X4.628 Y-1.057
X4.795 Y-1.103
X4.963 Y-1.159
X6.469 Y-1.73
X6.95 Y-1.886
X7.454 Y-2.005
X8.183 Y-2.116
X8.919 Y-2.174
X9.656 Y-2.205
X10.394 Y-2.221
X11.131 Y-2.23
X11.869 Y-2.235
X12.976 Y-2.238
X13.34 Y-2.3
X13.676 Y-2.451
X13.971 Y-2.674
X14.47 Y-3.217
X14.79 Y-3.882
X14.984 Y-4.593
X15.099 Y-5.322
X15.166 Y-6.057
X15.205 Y-6.794
X15.227 Y-7.531
X15.24 Y-8.269
X15.247 Y-9.007
X15.251 Y-9.677
X15.258 Y-9.775
X15.277 Y-9.871
X15.31 Y-9.963
X15.987 Y-11.555
X16.179 Y-12.011
X16.194 Y-12.057
X16.331 Y-12.56
X16.548 Y-13.438
G3 X16.702 Y-13.64 I0.308 J0.076
G2 X16.865 Y-13.892 I-0.153 J-0.278
G1 X16.883 Y-14.102
X17.321 Y-19.383
G2 X17.234 Y-19.629 I-0.316 J-0.026
G3 X16.849 Y-20.313 I1.143 J-1.095
G1 X16.744 Y-20.766
X16.331 Y-22.44
X16.194 Y-22.943
X16.179 Y-22.989
X15.917 Y-23.613
X15.845 Y-23.78
X15.667 Y-24.265
X15.55 Y-24.683
X15.429 Y-25.303
X15.347 Y-26.036
X15.304 Y-26.773
X15.282 Y-27.51
X15.27 Y-28.248
X15.264 Y-28.986
X15.26 Y-29.724
X15.259 Y-30.462
X15.2 Y-30.826
X15.051 Y-31.163
X14.831 Y-31.46
X14.29 Y-31.961
X13.626 Y-32.284
X12.915 Y-32.48
X12.187 Y-32.597
X11.452 Y-32.665
X10.715 Y-32.704
X9.978 Y-32.727
X9.24 Y-32.739
X8.502 Y-32.747
X7.854 Y-32.75
X7.739 Y-32.76
X7.627 Y-32.787
X7.52 Y-32.832
X7.474 Y-32.856
X7.192 Y-32.991
X7.139 Y-33.016
X4.963 Y-33.841
X4.795 Y-33.897
X4.628 Y-33.943
X4.381 Y-33.996
X4.16 Y-34.041
X3.39 Y-34.198
X2.284 Y-34.424
X2.117 Y-34.451
X1.949 Y-34.473
X1.782 Y-34.481
X1.615 Y-34.488
X-0.394 Y-34.568
X-0.562 Y-34.571
X-1.064 Y-34.535
X-2.554 Y-34.354
X-3.24 Y-34.27
X-3.332 Y-34.25
X-3.407 Y-34.233
X-3.742 Y-34.153
X-3.91 Y-34.107
X-5.449 Y-33.661
X-5.919 Y-33.522
X-6.011 Y-33.493
X-6.253 Y-33.392
X-6.394 Y-33.326
X-6.641 Y-33.223
X-6.996 Y-33.109
X-7.497 Y-32.99
X-8.227 Y-32.878
X-8.962 Y-32.821
X-9.699 Y-32.79
X-10.437 Y-32.774
X-11.175 Y-32.766
X-11.913 Y-32.762
X-12.261 Y-32.641
X-12.573 Y-32.444
X-13.11 Y-31.938
X-13.462 Y-31.29
X-13.68 Y-30.585
X-13.811 Y-29.859
X-13.888 Y-29.125
X-13.933 Y-28.389
X-13.958 Y-27.651
X-13.961 Y-27.517
X-13.98 Y-27.364
X-14.03 Y-27.219
X-14.109 Y-27.087
X-14.289 Y-26.848
X-14.327 Y-26.795
X-14.627 Y-26.292
X-14.716 Y-26.125
X-15.346 Y-24.926
G3 X-15.935 Y-25.036 I-0.276 J-0.157
G1 X-15.946 Y-25.106 Z-3.988
X-15.956 Y-25.172 Z-3.965
X-15.965 Y-25.231 Z-3.927
X-15.972 Y-25.281 Z-3.876
X-15.978 Y-25.319 Z-3.816
X-15.982 Y-25.342 Z-3.749
X-15.983 Y-25.35 Z-3.678
G0 Z3.004
X-5.631 Y-34.113
Z-3.361
G1 Z-3.678 F1000
X-5.635 Y-34.106 Z-3.749
X-5.648 Y-34.086 Z-3.816
X-5.669 Y-34.055 Z-3.876
X-5.697 Y-34.013 Z-3.927
X-5.731 Y-33.963 Z-3.965
X-5.768 Y-33.908 Z-3.988
X-5.808 Y-33.849 Z-3.996
G3 X-6.394 Y-33.326 I-1.314 J-0.882
G1 X-8.158 Y-32.489
X-8.262 Y-32.437
X-8.493 Y-32.321
X-8.597 Y-32.265
X-8.648 Y-32.231
X-8.777 Y-32.155
X-9.008 Y-32.044
X-9.306 Y-31.929
X-9.713 Y-31.809
X-10.435 Y-31.657
X-10.79 Y-31.559
X-11.118 Y-31.389
X-11.697 Y-30.931
X-12.09 Y-30.307
X-12.341 Y-29.613
X-12.386 Y-29.405
X-12.431 Y-29.265
X-12.502 Y-29.137
X-12.597 Y-29.026
G0 Z3.004
X-8.003 Y-33.117
Z-3.361
G1 Z-3.678 F1000
X-8.006 Y-33.11 Z-3.749
X-8.016 Y-33.089 Z-3.816
X-8.033 Y-33.055 Z-3.876
X-8.055 Y-33.009 Z-3.927
X-8.081 Y-32.955 Z-3.965
X-8.11 Y-32.895 Z-3.988
X-8.141 Y-32.831 Z-3.996
G3 X-8.648 Y-32.231 I-1.425 J-0.689
G1 X-8.765 Y-32.154
X-10.271 Y-31.114
X-10.439 Y-30.996
X-10.908 Y-30.646
X-10.941 Y-30.617
X-12.615 Y-29.009
X-12.651 Y-28.972
X-12.806 Y-28.804
X-12.95 Y-28.63
X-14.109 Y-27.087
G3 X-14.674 Y-27.29 I-0.247 J-0.199
G1 X-14.673 Y-27.36 Z-3.988
X-14.672 Y-27.428 Z-3.965
Y-27.488 Z-3.927
X-14.671 Y-27.538 Z-3.876
Y-27.576 Z-3.816
X-14.67 Y-27.599 Z-3.749
Y-27.607 Z-3.678
G0 Z3.004
X-16.537 Y-11.645
Z-3.361
G1 Z-3.678 F1000
X-16.531 Y-11.641 Z-3.749
X-16.511 Y-11.628 Z-3.816
X-16.48 Y-11.607 Z-3.876
X-16.438 Y-11.579 Z-3.927
X-16.388 Y-11.546 Z-3.965
X-16.332 Y-11.508 Z-3.988
X-16.273 Y-11.469 Z-3.996
G3 X-15.748 Y-10.885 I-0.878 J1.317
G1 X-15.507 Y-10.383
X-14.716 Y-8.875
X-14.627 Y-8.708
X-14.557 Y-8.575
X-14.44 Y-8.279
X-14.321 Y-7.884
X-14.198 Y-7.313
X-14.1 Y-6.582
X-14.048 Y-5.846
X-13.978 Y-5.484
X-13.83 Y-5.146
X-13.614 Y-4.847
X-13.081 Y-4.337
X-12.423 Y-4.004
X-11.714 Y-3.797
X-10.987 Y-3.673
X-10.253 Y-3.599
X-10.027 Y-3.586
X-9.893 Y-3.566
X-9.766 Y-3.522
X-9.649 Y-3.456
G3 X-9.829 Y-2.884 I-0.189 J0.255
G1 X-9.9 Y-2.882 Z-3.988
X-9.967 Y-2.88 Z-3.965
X-10.027 Y-2.878 Z-3.927
X-10.077 Y-2.877 Z-3.876
X-10.115 Y-2.876 Z-3.816
X-10.138 Y-2.875 Z-3.749
X-10.146 Z-3.678
G0 Z3.004
X-15.482 Y-9.393
Z-3.361
G1 Z-3.678 F1000
X-15.475 Y-9.389 Z-3.749
X-15.454 Y-9.378 Z-3.816
X-15.421 Y-9.36 Z-3.876
X-15.377 Y-9.336 Z-3.927
X-15.324 Y-9.308 Z-3.965
X-15.265 Y-9.276 Z-3.988
X-15.203 Y-9.242 Z-3.996
G3 X-14.627 Y-8.708 I-0.754 J1.391
G1 X-14.327 Y-8.205
X-14.289 Y-8.152
X-13.619 Y-7.261
X-13.206 Y-6.65
X-12.769 Y-6.055
X-12.302 Y-5.688
X-12.265 Y-5.655
G3 X-12.28 Y-5.198 I-0.228 J0.221
X-12.735 Y-5.229 I-0.213 J-0.235
G1 X-14.109 Y-6.857
G3 X-14.068 Y-7.306 I0.243 J-0.205
X-13.619 Y-7.261 I0.202 J0.245
G1 X-12.944 Y-6.363
X-12.806 Y-6.196
X-12.651 Y-6.028
X-12.615 Y-5.991
X-10.941 Y-4.383
X-10.908 Y-4.354
X-10.439 Y-4.004
X-10.271 Y-3.886
X-8.764 Y-2.846
X-8.597 Y-2.735
X-8.493 Y-2.679
X-8.262 Y-2.563
X-8.158 Y-2.511
X-7.422 Y-2.162
G3 X-7.508 Y-1.568 I-0.146 J0.282
G1 X-7.577 Y-1.555 Z-3.988
X-7.643 Y-1.542 Z-3.965
X-7.702 Y-1.531 Z-3.927
X-7.751 Y-1.521 Z-3.876
X-7.789 Y-1.514 Z-3.816
X-7.812 Y-1.51 Z-3.749
X-7.819 Y-1.508 Z-3.678
G0 Z3.004
X5.646 Y-1.008
Z-3.361
G1 Z-3.678 F1000
X5.651 Y-1.014 Z-3.749
X5.665 Y-1.032 Z-3.816
X5.689 Y-1.062 Z-3.876
X5.72 Y-1.101 Z-3.927
X5.758 Y-1.148 Z-3.965
X5.799 Y-1.201 Z-3.988
X5.843 Y-1.256 Z-3.996
G3 X6.469 Y-1.73 I1.239 J0.985
G1 X7.139 Y-1.984
X7.306 Y-2.064
X7.474 Y-2.144
X7.537 Y-2.176
X8.646 Y-2.817
X8.836 Y-2.914
X9.113 Y-3.029
X9.479 Y-3.148
X9.996 Y-3.27
X10.726 Y-3.382
X11.461 Y-3.441
X11.828 Y-3.483
X12.179 Y-3.596
X12.496 Y-3.783
X13.049 Y-4.273
X13.416 Y-4.913
X13.646 Y-5.614
X13.786 Y-6.338
X13.869 Y-7.071
X13.892 Y-7.421
X13.911 Y-7.542
X13.949 Y-7.659
X14.006 Y-7.768
G3 X14.585 Y-7.611 I0.262 J0.179
G1 X14.589 Y-7.54 Z-3.988
X14.594 Y-7.473 Z-3.965
X14.598 Y-7.413 Z-3.927
X14.602 Y-7.363 Z-3.876
X14.604 Y-7.325 Z-3.816
X14.606 Y-7.302 Z-3.749
Y-7.294 Z-3.678
G0 Z3.004
X7.949 Y-1.971
Z-3.361
G1 Z-3.678 F1000
X7.952 Y-1.978 Z-3.749
X7.964 Y-1.999 Z-3.816
X7.982 Y-2.032 Z-3.876
X8.007 Y-2.076 Z-3.927
X8.036 Y-2.128 Z-3.965
X8.069 Y-2.187 Z-3.988
X8.104 Y-2.248 Z-3.996
G3 X8.646 Y-2.817 I1.381 J0.774
G1 X9.315 Y-3.203
X9.483 Y-3.305
X9.818 Y-3.527
X9.985 Y-3.656
X10.152 Y-3.792
X10.746 Y-4.23
X11.355 Y-4.647
X11.67 Y-5.023
X11.695 Y-5.051
X11.721 Y-5.078
X11.749 Y-5.103
G3 X12.151 Y-4.612 I0.201 J0.246
G1 X10.563 Y-3.308
G3 X10.152 Y-3.792 I-0.201 J-0.245
G1 X11.492 Y-4.886
X11.659 Y-5.025
X11.826 Y-5.171
X12.004 Y-5.358
X12.161 Y-5.532
X13.5 Y-7.044
X13.63 Y-7.201
X13.668 Y-7.249
X13.75 Y-7.368
X14.003 Y-7.763
X14.918 Y-9.21
X15.007 Y-9.363
X15.191 Y-9.713
X15.274 Y-9.88
X15.31 Y-9.963
G3 X15.906 Y-9.901 I0.288 J0.135
G1 X15.923 Y-9.832 Z-3.988
X15.938 Y-9.767 Z-3.965
X15.952 Y-9.708 Z-3.927
X15.963 Y-9.659 Z-3.876
X15.972 Y-9.623 Z-3.816
X15.977 Y-9.6 Z-3.749
X15.979 Y-9.592 Z-3.678
G0 Z3.004
X16.6 Y-22.986
Z-3.361
G1 Z-3.678 F1000
X16.594 Y-22.991 Z-3.749
X16.575 Y-23.005 Z-3.816
X16.545 Y-23.027 Z-3.876
X16.504 Y-23.057 Z-3.927
X16.455 Y-23.092 Z-3.965
X16.401 Y-23.132 Z-3.988
X16.344 Y-23.174 Z-3.996
G3 X15.845 Y-23.78 I0.934 J-1.277
G1 X15.274 Y-25.12
X15.191 Y-25.287
X15.007 Y-25.637
X14.918 Y-25.79
X14.706 Y-26.125
X14.632 Y-26.255
X14.521 Y-26.496
X14.404 Y-26.817
X14.284 Y-27.249
X14.16 Y-27.893
X14.08 Y-28.626
X14.037 Y-29.363
X13.912 Y-29.71
X13.716 Y-30.023
X13.216 Y-30.565
X12.572 Y-30.925
X11.87 Y-31.151
X11.145 Y-31.289
X10.412 Y-31.371
X10.12 Y-31.39
X9.993 Y-31.409
X9.871 Y-31.451
X9.759 Y-31.512
G3 X9.929 Y-32.087 I0.185 J-0.258
G1 X9.999 Y-32.091 Z-3.988
X10.066 Y-32.094 Z-3.965
X10.126 Y-32.097 Z-3.927
X10.177 Y-32.099 Z-3.876
X10.214 Y-32.101 Z-3.816
X10.238 Y-32.102 Z-3.749
X10.246 Z-3.678
G0 Z3.004
X15.579 Y-25.462
Z-3.361
G1 Z-3.678 F1000
X15.572 Y-25.466 Z-3.749
X15.551 Y-25.476 Z-3.816
X15.517 Y-25.494 Z-3.876
X15.472 Y-25.516 Z-3.927
X15.418 Y-25.544 Z-3.965
X15.359 Y-25.574 Z-3.988
X15.296 Y-25.606 Z-3.996
G3 X14.706 Y-26.125 I0.717 J-1.411
G1 X13.965 Y-27.297
X13.75 Y-27.632
X13.668 Y-27.751
X13.63 Y-27.799
X13.189 Y-28.391
X12.74 Y-28.977
X12.389 Y-29.235
X12.349 Y-29.267
X12.31 Y-29.302
X12.274 Y-29.34
G3 X12.758 Y-29.752 I0.245 J-0.202
G1 X14.106 Y-28.22
G3 X13.63 Y-27.799 I-0.238 J0.21
G1 X13.491 Y-27.967
X12.156 Y-29.474
X11.994 Y-29.652
X11.826 Y-29.829
X11.658 Y-29.977
X11.455 Y-30.144
X9.985 Y-31.344
X9.818 Y-31.473
X9.483 Y-31.695
X9.315 Y-31.797
X7.537 Y-32.824
X7.52 Y-32.832
G3 X7.384 Y-33.236 I0.155 J-0.277
G1 X7.417 Y-33.279 Z-3.991
X7.45 Y-33.321 Z-3.977
X7.48 Y-33.36 Z-3.954
X7.525 Y-33.379 Z-3.918
X7.563 Y-33.396 Z-3.874
X7.593 Y-33.409 Z-3.823
X7.613 Y-33.418 Z-3.767
X7.623 Y-33.422 Z-3.707
X7.625 Y-33.423 Z-3.678
G0 Z3.004
X-1.024 Y-16.394
Z2.5
G3 X1.025 Y-18.607 Z2.335 I1.025 J-1.107 F333.3
X-1.024 Y-16.394 Z2.169 I-1.025 J1.107
X1.025 Y-18.607 Z2.004 I1.025 J-1.107
X-1.024 Y-16.394 Z1.838 I-1.025 J1.107
X1.025 Y-18.607 Z1.673 I1.025 J-1.107
X-1.024 Y-16.394 Z1.507 I-1.025 J1.107
X1.025 Y-18.607 Z1.342 I1.025 J-1.107
X-1.024 Y-16.394 Z1.176 I-1.025 J1.107
X1.025 Y-18.607 Z1.011 I1.025 J-1.107
X-1.024 Y-16.394 Z0.845 I-1.025 J1.107
X1.025 Y-18.607 Z0.68 I1.025 J-1.107
X-1.024 Y-16.394 Z0.515 I-1.025 J1.107
X1.025 Y-18.607 Z0.349 I1.025 J-1.107
X-1.024 Y-16.394 Z0.184 I-1.025 J1.107
X1.025 Y-18.607 Z0.018 I1.025 J-1.107
X-1.024 Y-16.394 Z-0.147 I-1.025 J1.107
X1.025 Y-18.607 Z-0.313 I1.025 J-1.107
X-1.024 Y-16.394 Z-0.478 I-1.025 J1.107
X1.025 Y-18.607 Z-0.644 I1.025 J-1.107
X-1.024 Y-16.394 Z-0.809 I-1.025 J1.107
X1.025 Y-18.607 Z-0.974 I1.025 J-1.107
X-1.024 Y-16.394 Z-1.14 I-1.025 J1.107
X1.025 Y-18.607 Z-1.305 I1.025 J-1.107
X-1.024 Y-16.394 Z-1.471 I-1.025 J1.107
X1.025 Y-18.607 Z-1.636 I1.025 J-1.107
X-1.024 Y-16.394 Z-1.802 I-1.025 J1.107
X1.025 Y-18.607 Z-1.967 I1.025 J-1.107
X-1.024 Y-16.394 Z-2.133 I-1.025 J1.107
X1.025 Y-18.607 Z-2.298 I1.025 J-1.107
X-1.024 Y-16.394 Z-2.464 I-1.025 J1.107
X1.025 Y-18.607 Z-2.629 I1.025 J-1.107
X-1.024 Y-16.394 Z-2.794 I-1.025 J1.107
X1.025 Y-18.607 Z-2.96 I1.025 J-1.107
X-1.024 Y-16.394 Z-3.125 I-1.025 J1.107
X1.025 Y-18.607 Z-3.291 I1.025 J-1.107
X-1.024 Y-16.394 Z-3.456 I-1.025 J1.107
X1.025 Y-18.607 Z-3.622 I1.025 J-1.107
X-1.024 Y-16.394 Z-3.787 I-1.025 J1.107
X1.025 Y-18.607 Z-3.953 I1.025 J-1.107
X1.508 Y-17.5 Z-3.996 I-1.025 J1.107
X-1.508 I-1.508
X1.508 I1.508
G1 X1.528 Y-16.763 F1000
X1.549 Y-16.673
X1.565 Y-16.524
X1.552 Y-16.374
X1.517 Y-16.229
X1.462 Y-16.089
X1.39 Y-15.957
X1.305 Y-15.834
X1.206 Y-15.721
X1.098 Y-15.617
X0.98 Y-15.525
X0.854 Y-15.443
X0.722 Y-15.371
X0.584 Y-15.311
X0.437 Y-15.261
X0.283 Y-15.221
X0.123 Y-15.194
X-0.042 Y-15.179
X-0.211 Y-15.177
X-0.382 Y-15.19
X-0.554 Y-15.216
X-0.725 Y-15.256
X-0.894 Y-15.311
X-1.061 Y-15.38
X-1.222 Y-15.462
X-1.378 Y-15.559
X-1.527 Y-15.668
X-1.667 Y-15.789
X-1.798 Y-15.922
X-1.918 Y-16.066
X-2.027 Y-16.219
X-2.123 Y-16.382
X-2.207 Y-16.552
X-2.276 Y-16.729
X-2.332 Y-16.912
X-2.372 Y-17.098
X-2.398 Y-17.288
X-2.408 Y-17.479
X-2.403 Y-17.671
X-2.382 Y-17.862
X-2.346 Y-18.051
X-2.296 Y-18.237
X-2.23 Y-18.419
X-2.15 Y-18.594
X-2.056 Y-18.763
X-1.948 Y-18.923
X-1.828 Y-19.075
X-1.696 Y-19.216
X-1.554 Y-19.347
X-1.401 Y-19.466
X-1.239 Y-19.572
X-1.069 Y-19.665
X-0.892 Y-19.743
X-0.709 Y-19.808
X-0.522 Y-19.857
X-0.331 Y-19.892
X-0.138 Y-19.911
X0.055 Y-19.914
X0.249 Y-19.902
X0.441 Y-19.874
X0.63 Y-19.831
X0.815 Y-19.773
X0.995 Y-19.701
X1.168 Y-19.614
X1.334 Y-19.513
X1.491 Y-19.4
X1.639 Y-19.274
X1.776 Y-19.137
X1.901 Y-18.989
X2.015 Y-18.832
X2.119 Y-18.659
X2.23 Y-18.437
X2.377 Y-18.072
X2.485 Y-17.729
X2.548 Y-17.447
X2.585 Y-17.191
X2.6 Y-16.954
X2.596 Y-16.731
X2.575 Y-16.518
X2.537 Y-16.311
X2.483 Y-16.108
X2.414 Y-15.911
X2.329 Y-15.721
X2.229 Y-15.538
X2.114 Y-15.363
X1.984 Y-15.196
X1.84 Y-15.039
X1.682 Y-14.892
X1.51 Y-14.757
X1.326 Y-14.634
X1.129 Y-14.524
X0.922 Y-14.43
X0.704 Y-14.351
X0.477 Y-14.289
X0.243 Y-14.245
X0.003 Y-14.219
X-0.241 Y-14.213
X-0.487 Y-14.226
X-0.734 Y-14.26
X-0.98 Y-14.313
X-1.222 Y-14.387
X-1.46 Y-14.481
X-1.691 Y-14.594
X-1.914 Y-14.727
X-2.127 Y-14.878
X-2.328 Y-15.046
X-2.515 Y-15.231
X-2.689 Y-15.431
X-2.846 Y-15.646
X-2.986 Y-15.873
X-3.108 Y-16.112
X-3.21 Y-16.36
X-3.293 Y-16.617
X-3.355 Y-16.88
X-3.395 Y-17.148
X-3.414 Y-17.418
X-3.411 Y-17.69
X-3.387 Y-17.961
X-3.34 Y-18.23
X-3.273 Y-18.494
X-3.184 Y-18.753
X-3.074 Y-19.003
X-2.945 Y-19.245
X-2.796 Y-19.475
X-2.63 Y-19.693
X-2.446 Y-19.896
X-2.247 Y-20.085
X-2.033 Y-20.257
X-1.806 Y-20.411
X-1.567 Y-20.547
X-1.318 Y-20.663
X-1.06 Y-20.758
X-0.795 Y-20.833
X-0.526 Y-20.886
X-0.252 Y-20.917
X0.022 Y-20.927
X0.297 Y-20.914
X0.57 Y-20.879
X0.839 Y-20.823
X1.103 Y-20.745
X1.36 Y-20.646
X1.608 Y-20.527
X1.846 Y-20.388
X2.071 Y-20.231
X2.285 Y-20.055
X2.491 Y-19.855
X2.706 Y-19.611
X2.908 Y-19.34
X3.094 Y-19.043
X3.259 Y-18.727
X3.396 Y-18.402
X3.504 Y-18.076
X3.583 Y-17.752
X3.634 Y-17.432
X3.659 Y-17.116
X3.658 Y-16.803
X3.633 Y-16.495
X3.583 Y-16.194
X3.51 Y-15.9
X3.415 Y-15.615
X3.297 Y-15.339
X3.157 Y-15.073
X2.997 Y-14.819
X2.816 Y-14.579
X2.615 Y-14.352
X2.395 Y-14.141
X2.158 Y-13.948
X1.904 Y-13.772
X1.634 Y-13.616
X1.351 Y-13.481
X1.055 Y-13.368
X0.748 Y-13.279
X0.432 Y-13.214
X0.109 Y-13.174
X-0.218 Y-13.161
X-0.547 Y-13.173
X-0.877 Y-13.212
X-1.205 Y-13.278
X-1.529 Y-13.371
X-1.846 Y-13.49
X-2.154 Y-13.635
X-2.452 Y-13.806
X-2.736 Y-14
X-3.005 Y-14.218
X-3.257 Y-14.458
X-3.489 Y-14.718
X-3.701 Y-14.997
X-3.89 Y-15.294
X-4.056 Y-15.605
X-4.196 Y-15.93
X-4.31 Y-16.266
X-4.397 Y-16.611
X-4.457 Y-16.962
X-4.488 Y-17.318
X-4.49 Y-17.676
X-4.463 Y-18.033
X-4.408 Y-18.387
X-4.325 Y-18.737
X-4.213 Y-19.078
X-4.075 Y-19.41
X-3.91 Y-19.73
X-3.719 Y-20.036
X-3.505 Y-20.326
X-3.268 Y-20.598
X-3.01 Y-20.85
X-2.732 Y-21.081
X-2.437 Y-21.288
X-2.126 Y-21.472
X-1.801 Y-21.63
X-1.464 Y-21.761
X-1.118 Y-21.865
X-0.764 Y-21.941
X-0.406 Y-21.988
X-0.045 Y-22.006
X0.317 Y-21.995
X0.677 Y-21.956
X1.032 Y-21.887
X1.38 Y-21.79
X1.72 Y-21.666
X2.049 Y-21.514
X2.367 Y-21.335
X2.68 Y-21.125
X2.983 Y-20.884
X3.275 Y-20.61
X3.552 Y-20.306
X3.807 Y-19.974
X4.038 Y-19.621
X4.239 Y-19.249
X4.409 Y-18.865
X4.546 Y-18.472
X4.65 Y-18.072
X4.722 Y-17.669
X4.76 Y-17.265
X4.766 Y-16.863
X4.739 Y-16.465
X4.682 Y-16.072
X4.593 Y-15.688
X4.474 Y-15.313
X4.326 Y-14.95
X4.15 Y-14.6
X3.945 Y-14.266
X3.715 Y-13.948
X3.459 Y-13.649
X3.178 Y-13.371
X2.875 Y-13.115
X2.551 Y-12.883
X2.207 Y-12.676
X1.846 Y-12.497
X1.469 Y-12.347
X1.079 Y-12.226
X0.678 Y-12.137
X0.268 Y-12.079
X-0.147 Y-12.055
X-0.565 Y-12.064
X-0.983 Y-12.107
X-1.399 Y-12.183
X-1.809 Y-12.294
X-2.212 Y-12.438
X-2.603 Y-12.614
X-2.981 Y-12.822
X-3.342 Y-13.061
X-3.684 Y-13.329
X-4.005 Y-13.625
X-4.302 Y-13.946
X-4.574 Y-14.292
X-4.817 Y-14.659
X-5.031 Y-15.046
X-5.213 Y-15.45
X-5.363 Y-15.868
X-5.479 Y-16.297
X-5.56 Y-16.736
X-5.606 Y-17.18
X-5.616 Y-17.627
X-5.59 Y-18.074
X-5.529 Y-18.518
X-5.431 Y-18.957
X-5.299 Y-19.386
X-5.133 Y-19.804
X-4.933 Y-20.207
X-4.702 Y-20.594
X-4.44 Y-20.961
X-4.149 Y-21.305
X-3.832 Y-21.626
X-3.489 Y-21.92
X-3.124 Y-22.186
X-2.739 Y-22.421
X-2.336 Y-22.625
X-1.918 Y-22.796
X-1.487 Y-22.933
X-1.047 Y-23.035
X-0.6 Y-23.102
X-0.148 Y-23.132
X0.304 Y-23.126
X0.754 Y-23.084
X1.2 Y-23.005
X1.638 Y-22.891
X2.068 Y-22.742
X2.489 Y-22.556
X2.898 Y-22.335
X3.294 Y-22.078
X3.675 Y-21.785
X4.038 Y-21.456
X4.378 Y-21.093
X4.692 Y-20.7
X4.974 Y-20.281
X5.223 Y-19.84
X5.435 Y-19.38
X5.609 Y-18.907
X5.744 Y-18.423
X5.839 Y-17.932
X5.895 Y-17.438
X5.91 Y-16.944
X5.886 Y-16.453
X5.822 Y-15.968
X5.72 Y-15.491
X5.581 Y-15.025
X5.405 Y-14.572
X5.194 Y-14.136
X4.948 Y-13.718
X4.669 Y-13.32
X4.359 Y-12.946
X4.018 Y-12.597
X3.65 Y-12.275
X3.255 Y-11.983
X2.837 Y-11.722
X2.397 Y-11.495
X1.938 Y-11.302
X1.463 Y-11.147
X0.975 Y-11.03
X0.476 Y-10.951
X-0.03 Y-10.913
X-0.539 Y-10.916
X-1.049 Y-10.96
X-1.557 Y-11.045
X-2.058 Y-11.17
X-2.549 Y-11.337
X-3.027 Y-11.543
X-3.489 Y-11.788
X-3.931 Y-12.07
X-4.351 Y-12.387
X-4.745 Y-12.739
X-5.111 Y-13.122
X-5.446 Y-13.535
X-5.747 Y-13.974
X-6.013 Y-14.437
X-6.241 Y-14.92
X-6.43 Y-15.422
X-6.579 Y-15.938
X-6.686 Y-16.465
X-6.75 Y-17
X-6.771 Y-17.539
X-6.749 Y-18.079
X-6.683 Y-18.616
X-6.575 Y-19.146
X-6.424 Y-19.667
X-6.231 Y-20.174
X-5.999 Y-20.664
X-5.727 Y-21.134
X-5.419 Y-21.582
X-5.076 Y-22.003
X-4.699 Y-22.395
X-4.293 Y-22.757
X-3.858 Y-23.084
X-3.398 Y-23.376
X-2.917 Y-23.63
X-2.416 Y-23.844
X-1.9 Y-24.018
X-1.371 Y-24.149
X-0.834 Y-24.238
X-0.291 Y-24.284
X0.254 Y-24.285
X0.798 Y-24.243
X1.337 Y-24.157
X1.87 Y-24.028
X2.394 Y-23.856
X2.906 Y-23.64
X3.404 Y-23.381
X3.886 Y-23.08
X4.347 Y-22.736
X4.785 Y-22.353
X5.194 Y-21.931
X5.57 Y-21.475
X5.911 Y-20.988
X6.211 Y-20.474
X6.47 Y-19.937
X6.685 Y-19.382
X6.853 Y-18.812
X6.976 Y-18.233
X7.051 Y-17.648
X7.079 Y-17.061
X7.059 Y-16.475
X6.993 Y-15.895
X6.881 Y-15.323
X6.724 Y-14.763
X6.522 Y-14.219
X6.278 Y-13.693
X5.992 Y-13.188
X5.667 Y-12.708
X5.303 Y-12.254
X4.904 Y-11.831
X4.471 Y-11.439
X4.006 Y-11.083
X3.513 Y-10.765
X2.994 Y-10.486
X2.452 Y-10.248
X1.891 Y-10.054
X1.314 Y-9.906
X0.724 Y-9.803
X0.126 Y-9.748
X-0.477 Y-9.741
X-1.081 Y-9.783
X-1.682 Y-9.874
X-2.276 Y-10.013
X-2.86 Y-10.199
X-3.428 Y-10.433
X-3.977 Y-10.713
X-4.504 Y-11.037
X-5.005 Y-11.403
X-5.476 Y-11.809
X-5.914 Y-12.253
X-6.315 Y-12.732
X-6.678 Y-13.242
X-7 Y-13.782
X-7.278 Y-14.346
X-7.51 Y-14.932
X-7.694 Y-15.536
X-7.83 Y-16.154
X-7.916 Y-16.781
X-7.951 Y-17.414
X-7.935 Y-18.048
X-7.869 Y-18.68
X-7.751 Y-19.305
X-7.584 Y-19.919
X-7.368 Y-20.518
X-7.104 Y-21.098
X-6.795 Y-21.656
X-6.441 Y-22.187
X-6.046 Y-22.688
X-5.612 Y-23.156
X-5.141 Y-23.588
X-4.638 Y-23.981
X-4.104 Y-24.333
X-3.543 Y-24.64
X-2.959 Y-24.901
X-2.357 Y-25.115
X-1.738 Y-25.28
X-1.109 Y-25.395
X-0.472 Y-25.458
X0.168 Y-25.471
X0.808 Y-25.432
X1.444 Y-25.342
X2.074 Y-25.2
X2.694 Y-25.007
X3.3 Y-24.763
X3.889 Y-24.469
X4.458 Y-24.126
X5.002 Y-23.735
X5.516 Y-23.299
X5.997 Y-22.819
X6.441 Y-22.299
X6.843 Y-21.743
X7.201 Y-21.155
X7.51 Y-20.539
X7.769 Y-19.9
X7.975 Y-19.244
X8.128 Y-18.574
X8.227 Y-17.895
X8.271 Y-17.213
X8.259 Y-16.531
X8.193 Y-15.854
X8.074 Y-15.185
X7.901 Y-14.53
X7.676 Y-13.891
X7.402 Y-13.273
X7.078 Y-12.678
X6.708 Y-12.112
X6.292 Y-11.576
X5.835 Y-11.075
X5.338 Y-10.611
X4.804 Y-10.187
X4.236 Y-9.807
X3.638 Y-9.473
X3.014 Y-9.187
X2.366 Y-8.951
X1.699 Y-8.767
X1.018 Y-8.637
X0.325 Y-8.562
X-0.373 Y-8.543
X-1.073 Y-8.58
X-1.77 Y-8.673
X-2.459 Y-8.822
X-3.137 Y-9.027
X-3.798 Y-9.286
X-4.437 Y-9.599
X-5.052 Y-9.963
X-5.637 Y-10.376
X-6.188 Y-10.836
X-6.701 Y-11.339
X-7.174 Y-11.884
X-7.602 Y-12.466
X-7.983 Y-13.081
X-8.314 Y-13.727
X-8.592 Y-14.397
X-8.816 Y-15.089
X-8.984 Y-15.798
X-9.095 Y-16.519
X-9.147 Y-17.247
X-9.141 Y-17.978
X-9.076 Y-18.706
X-8.953 Y-19.428
X-8.772 Y-20.138
X-8.535 Y-20.831
X-8.243 Y-21.504
X-7.894 Y-22.156
X-7.827 Y-22.273
X-7.593 Y-22.678
X-7.533 Y-22.775
X-7.425 Y-22.925
X-6.684 Y-23.78
X-6.537 Y-23.948
X-6.387 Y-24.115
X-6.32 Y-24.187
X-6.086 Y-24.372
X-5.249 Y-25.03
X-5.123 Y-25.12
X-4.747 Y-25.348
X-4.579 Y-25.448
X-3.491 Y-26.009
X-3.449 Y-26.03
X-3.407 Y-26.045
X-2.905 Y-26.196
X-2.403 Y-26.343
X-2.236 Y-26.392
X-1.733 Y-26.532
X-1.692 Y-26.54
X-0.562 Y-26.649
X-0.059 Y-26.692
X0.024 Y-26.699
X0.108 Y-26.692
X1.28 Y-26.58
X1.615 Y-26.547
X1.782 Y-26.526
X2.954 Y-26.181
X3.213 Y-26.099
X3.456 Y-26.02
X3.592 Y-25.957
X4.628 Y-25.423
X4.846 Y-25.287
X5.13 Y-25.109
X5.298 Y-24.992
X5.987 Y-24.45
X6.302 Y-24.195
X6.394 Y-24.115
X7.12 Y-23.278
X7.474 Y-22.852
X7.536 Y-22.775
X7.827 Y-22.273
X8.213 Y-21.603
X8.294 Y-21.436
X8.478 Y-21.011
X8.509 Y-20.933
X8.857 Y-19.928
X8.907 Y-19.761
X9.004 Y-19.258
X9.029 Y-19.091
X9.173 Y-18.086
X9.174 Y-17.919
X9.173 Y-17.584
X9.17 Y-17.416
X9.122 Y-16.411
X9.099 Y-16.244
X9.034 Y-15.909
X9.001 Y-15.742
X8.757 Y-14.737
X8.714 Y-14.569
X8.656 Y-14.402
X8.12 Y-13.23
X7.962 Y-12.895
X7.847 Y-12.727
X6.972 Y-11.498
X6.949 Y-11.47
X6.864 Y-11.387
X6.469 Y-11.009
X5.812 Y-10.383
X5.8 Y-10.372
X5.298 Y-10.015
X5.092 Y-9.88
X4.461 Y-9.474
X4.293 Y-9.376
X4.126 Y-9.289
X3.95 Y-9.21
X2.954 Y-8.812
X2.787 Y-8.757
X2.452 Y-8.653
X2.284 Y-8.607
X1.28 Y-8.414
X1.112 Y-8.388
X0.61 Y-8.337
X0.443 Y-8.336
X-0.394
X-0.562 Y-8.337
X-1.064 Y-8.38
X-1.231 Y-8.404
X-2.236 Y-8.598
X-2.403 Y-8.642
X-2.738 Y-8.739
X-2.905 Y-8.792
X-3.95 Y-9.21
X-4.077 Y-9.268
X-4.294 Y-9.378
X-4.412 Y-9.443
X-5.249 Y-9.981
X-5.591 Y-10.215
X-5.751 Y-10.326
X-5.812 Y-10.383
X-6.866 Y-11.387
X-6.923 Y-11.449
X-7.131 Y-11.722
X-7.927 Y-12.84
X-7.962 Y-12.895
X-8.043 Y-13.062
X-8.12 Y-13.23
X-8.597 Y-14.273
X-8.651 Y-14.402
X-8.711 Y-14.569
X-8.757 Y-14.737
X-9.001 Y-15.742
X-9.067 Y-16.077
X-9.099 Y-16.247
X-9.122 Y-16.411
X-9.17 Y-17.416
X-9.173 Y-17.584
X-9.174 Y-17.919
X-9.173 Y-18.086
X-9.029 Y-19.091
X-9.004 Y-19.258
X-8.907 Y-19.761
X-8.857 Y-19.928
X-8.509 Y-20.933
X-8.43 Y-21.123
X-8.262 Y-21.509
X-8.213 Y-21.603
X-7.894 Y-22.156
G3 X-7.483 Y-22.272 I0.269 J0.168
G1 X-7.442 Y-22.237 Z-3.991
X-7.402 Y-22.202 Z-3.977
X-7.365 Y-22.17 Z-3.954
X-7.347 Y-22.124 Z-3.918
X-7.333 Y-22.085 Z-3.874
X-7.321 Y-22.055 Z-3.823
X-7.313 Y-22.034 Z-3.767
X-7.309 Y-22.024 Z-3.707
Y-22.022 Z-3.678
G0 Z3.004
X5.59 Y-13.13
Z-2.965
G1 Z-3.283 F1000
X5.598 Y-13.127 Z-3.353
X5.62 Y-13.118 Z-3.42
X5.655 Y-13.105 Z-3.48
X5.702 Y-13.087 Z-3.531
X5.758 Y-13.065 Z-3.569
X5.821 Y-13.041 Z-3.592
X5.887 Y-13.016 Z-3.6
G3 X7.44 Y-12.218 I-2.906 J7.567
G1 X7.562 Y-12.131
X7.605 Y-11.921
X7.574 Y-11.71
X7.473 Y-11.521
X7.24 Y-11.22
X7.139 Y-11.105
X6.919 Y-10.885
X6.571 Y-10.55
X6.395 Y-10.383
X6.038 Y-10.048
X5.967 Y-9.987
X5.8 Y-9.869
X5.298 Y-9.533
X5.13 Y-9.423
X4.795 Y-9.208
X4.628 Y-9.102
X4.126 Y-8.851
X3.958 Y-8.778
X3.373 Y-8.54
X2.954 Y-8.373
X2.787 Y-8.322
X2.35 Y-8.205
X2.284 Y-8.191
X1.28 Y-7.998
X1.112 Y-7.973
X0.61 Y-7.929
X0.443 Y-7.927
X-0.394 Y-7.926
X-0.562 Y-7.928
X-1.064 Y-7.969
X-1.231 Y-7.993
X-1.733 Y-8.085
X-2.236 Y-8.182
X-2.338 Y-8.205
X-2.57 Y-8.265
X-2.738 Y-8.309
X-2.905 Y-8.36
X-3.407 Y-8.555
X-3.91 Y-8.756
X-4.077 Y-8.828
X-4.412 Y-8.99
X-4.579 Y-9.071
X-4.799 Y-9.21
X-5.082 Y-9.392
X-5.315 Y-9.545
X-5.751 Y-9.835
X-5.919 Y-9.953
X-6.038 Y-10.048
X-6.253 Y-10.249
X-6.421 Y-10.407
X-6.756 Y-10.727
X-6.923 Y-10.889
X-7.09 Y-11.056
X-7.24 Y-11.22
X-7.425 Y-11.454
X-7.502 Y-11.555
X-7.978 Y-12.225
X-8.095 Y-12.399
X-8.299 Y-12.727
X-8.402 Y-12.895
X-8.635 Y-13.397
X-8.865 Y-13.899
X-8.932 Y-14.05
X-9.118 Y-14.569
X-9.167 Y-14.737
X-9.212 Y-14.904
X-9.415 Y-15.742
X-9.434 Y-15.848
X-9.497 Y-16.244
X-9.518 Y-16.411
X-9.551 Y-16.914
X-9.575 Y-17.416
X-9.578 Y-17.584
X-9.572 Y-17.919
X-9.568 Y-18.086
X-9.511 Y-18.589
X-9.489 Y-18.756
X-9.434 Y-19.139
X-9.415 Y-19.258
X-9.315 Y-19.761
X-9.267 Y-19.948
X-9.225 Y-20.096
X-9.174 Y-20.263
X-8.932 Y-20.962
X-8.738 Y-21.436
X-8.666 Y-21.603
X-8.597 Y-21.742
X-8.395 Y-22.105
X-8.095 Y-22.627
X-8.002 Y-22.775
X-7.76 Y-23.13
X-7.658 Y-23.278
X-7.425 Y-23.549
X-6.923 Y-24.129
X-6.756 Y-24.301
X-6.604 Y-24.45
X-6.418 Y-24.617
X-6.253 Y-24.759
X-5.751 Y-25.154
X-5.249 Y-25.521
X-5.092 Y-25.622
X-4.579 Y-25.904
X-4.077 Y-26.163
X-3.91 Y-26.243
X-3.575 Y-26.396
X-3.432 Y-26.46
X-3.407 Y-26.468
X-2.57 Y-26.714
X-2.289 Y-26.795
X-1.733 Y-26.933
X-1.566 Y-26.953
X-0.562 Y-27.049
X-0.059 Y-27.089
X0.108
X0.61 Y-27.045
X1.615 Y-26.949
X1.782 Y-26.928
X2.288 Y-26.795
X2.452 Y-26.748
X2.954 Y-26.601
X3.456 Y-26.451
X3.624 Y-26.377
X3.958 Y-26.22
X4.126 Y-26.138
X4.628 Y-25.879
X5.13 Y-25.6
X5.298 Y-25.486
X5.8 Y-25.115
X6.302 Y-24.721
X6.423 Y-24.617
X6.637 Y-24.42
X6.933 Y-24.115
X6.972 Y-24.073
X7.515 Y-23.445
X7.658 Y-23.278
X7.809 Y-23.058
X8 Y-22.775
X8.106 Y-22.608
X8.395 Y-22.105
X8.665 Y-21.603
X8.738 Y-21.436
X8.875 Y-21.101
X8.942 Y-20.933
X9.116 Y-20.431
X9.171 Y-20.263
X9.225 Y-20.096
X9.273 Y-19.928
X9.315 Y-19.761
X9.415 Y-19.258
X9.441 Y-19.091
X9.489 Y-18.756
X9.511 Y-18.589
X9.568 Y-18.086
X9.575 Y-17.751
X9.578 Y-17.584
X9.575 Y-17.416
X9.551 Y-16.914
X9.518 Y-16.411
X9.497 Y-16.244
X9.444 Y-15.909
X9.415 Y-15.742
X9.253 Y-15.072
X9.148 Y-14.665
X9.118 Y-14.569
X8.938 Y-14.067
X8.865 Y-13.899
X8.635 Y-13.397
X8.402 Y-12.895
X8.301 Y-12.727
X8.096 Y-12.392
X7.859 Y-12.057
X7.621 Y-11.722
X7.5 Y-11.555
X7.473 Y-11.521
G3 X7.051 Y-11.462 I-0.244 J-0.203
G1 X7.015 Y-11.502 Z-3.595
X6.98 Y-11.542 Z-3.581
X6.947 Y-11.579 Z-3.558
X6.935 Y-11.629 Z-3.52
X6.924 Y-11.672 Z-3.472
X6.917 Y-11.704 Z-3.417
X6.912 Y-11.724 Z-3.356
Y-11.73 Z-3.32
Y-11.733 Z-3.283
G0 Z3.004
X-6.324 Y-13.471
Z-2.565
G1 Z-2.882 F1000
X-6.329 Y-13.465 Z-2.953
X-6.344 Y-13.448 Z-3.02
X-6.369 Y-13.419 Z-3.08
X-6.402 Y-13.381 Z-3.131
X-6.441 Y-13.335 Z-3.169
X-6.485 Y-13.284 Z-3.192
X-6.531 Y-13.231 Z-3.2
G3 X-7.804 Y-12.036 I-6.151 J-5.278
G1 X-7.927 Y-11.949
X-8.134 Y-11.982
X-8.321 Y-12.078
X-8.468 Y-12.228
X-8.597 Y-12.413
X-8.674 Y-12.56
X-8.842 Y-12.895
X-9.154 Y-13.564
X-9.308 Y-13.899
X-9.38 Y-14.067
X-9.53 Y-14.569
X-9.576 Y-14.737
X-9.666 Y-15.072
X-9.71 Y-15.239
X-9.769 Y-15.474
X-9.834 Y-15.742
X-9.857 Y-15.909
X-9.894 Y-16.244
X-9.912 Y-16.411
X-9.956 Y-16.914
X-9.985 Y-17.416
Y-17.584
X-9.959 Y-18.086
X-9.915 Y-18.589
X-9.896 Y-18.756
X-9.855 Y-19.091
X-9.831 Y-19.258
X-9.765 Y-19.593
X-9.586 Y-20.263
X-9.538 Y-20.431
X-9.379 Y-20.933
X-9.311 Y-21.101
X-9.242 Y-21.268
X-9.171 Y-21.436
X-8.859 Y-22.105
X-8.676 Y-22.44
X-8.583 Y-22.608
X-8.477 Y-22.775
X-8.132 Y-23.278
X-8.013 Y-23.445
X-7.76 Y-23.787
X-7.626 Y-23.948
X-7.481 Y-24.115
X-7.425 Y-24.176
X-7.156 Y-24.45
X-6.653 Y-24.952
X-6.588 Y-25.012
X-6.421 Y-25.148
X-6.244 Y-25.287
X-5.919 Y-25.527
X-5.751 Y-25.647
X-5.249 Y-25.998
X-5.082 Y-26.104
X-5.043 Y-26.125
X-4.914 Y-26.192
X-4.579 Y-26.364
X-3.91 Y-26.677
X-3.742 Y-26.751
X-3.575 Y-26.823
X-3.407 Y-26.892
X-2.905 Y-27.037
X-2.738 Y-27.083
X-2.068 Y-27.262
X-1.932 Y-27.297
X-1.733 Y-27.338
X-1.566 Y-27.358
X-1.064 Y-27.405
X-0.562 Y-27.449
X-0.059 Y-27.489
X0.108
X1.112 Y-27.401
X1.615 Y-27.353
X1.782 Y-27.333
X1.949 Y-27.294
X2.787 Y-27.07
X2.954 Y-27.024
X3.456 Y-26.877
X3.649 Y-26.795
X3.791 Y-26.731
X4.126 Y-26.576
X4.628 Y-26.34
X4.963 Y-26.167
X5.041 Y-26.125
X5.13 Y-26.072
X5.308 Y-25.957
X5.8 Y-25.613
X5.967 Y-25.491
X6.302 Y-25.242
X6.469 Y-25.109
X6.637 Y-24.969
X7.156 Y-24.45
X7.318 Y-24.283
X7.479 Y-24.115
X7.641 Y-23.93
X7.765 Y-23.78
X8.011 Y-23.445
X8.143 Y-23.261
X8.478 Y-22.773
X8.583 Y-22.608
X8.646 Y-22.499
X8.679 Y-22.44
X8.859 Y-22.105
X9.171 Y-21.436
X9.247 Y-21.268
X9.315 Y-21.097
X9.379 Y-20.933
X9.538 Y-20.431
X9.586 Y-20.263
X9.72 Y-19.761
X9.805 Y-19.426
X9.818 Y-19.365
X9.833 Y-19.258
X9.875 Y-18.923
X9.896 Y-18.756
X9.915 Y-18.589
X9.959 Y-18.086
X9.985 Y-17.584
Y-17.416
X9.956 Y-16.914
X9.912 Y-16.411
X9.894 Y-16.244
X9.857 Y-15.909
X9.834 Y-15.742
X9.71 Y-15.239
X9.621 Y-14.904
X9.576 Y-14.737
X9.53 Y-14.569
X9.38 Y-14.067
X9.308 Y-13.899
X9.148 Y-13.552
X8.686 Y-12.56
X8.646 Y-12.486
X8.465 Y-12.225
X8.113 Y-11.722
X7.758 Y-11.22
X7.641 Y-11.074
X7.474 Y-10.881
X6.972 Y-10.379
X6.633 Y-10.048
X6.458 Y-9.88
X6.302 Y-9.746
X5.781 Y-9.378
X5.291 Y-9.043
X5.13 Y-8.936
X5.036 Y-8.875
X4.963 Y-8.834
X4.628 Y-8.655
X3.958 Y-8.343
X3.791 Y-8.267
X3.624 Y-8.199
X3.456 Y-8.132
X2.954 Y-7.968
X2.787 Y-7.921
X2.452 Y-7.831
X2.284 Y-7.787
X1.949 Y-7.706
X1.782 Y-7.674
X1.615 Y-7.649
X1.28 Y-7.604
X1.112 Y-7.584
X0.61 Y-7.54
X0.108 Y-7.517
X-0.059 Y-7.516
X-0.562 Y-7.536
X-1.064 Y-7.58
X-1.231 Y-7.599
X-1.566 Y-7.641
X-1.733 Y-7.664
X-1.934 Y-7.703
X-2.068 Y-7.734
X-2.236 Y-7.774
X-2.403 Y-7.818
X-2.738 Y-7.908
X-2.905 Y-7.955
X-3.407 Y-8.113
X-3.575 Y-8.179
X-3.742 Y-8.247
X-3.91 Y-8.32
X-4.579 Y-8.633
X-4.914 Y-8.809
X-5.036 Y-8.875
X-5.082 Y-8.905
X-5.249 Y-9.015
X-5.751 Y-9.357
X-6.259 Y-9.713
X-6.421 Y-9.851
X-6.588 Y-10.005
X-6.805 Y-10.215
X-6.923 Y-10.33
X-7.425 Y-10.833
X-7.475 Y-10.885
X-7.62 Y-11.052
X-7.76 Y-11.223
X-8.095 Y-11.696
X-8.468 Y-12.228
G3 X-8.399 Y-12.65 I0.266 J-0.173
G1 X-8.35 Y-12.672 Z-3.195
X-8.302 Y-12.694 Z-3.181
X-8.257 Y-12.714 Z-3.158
X-8.201 Y-12.719 Z-3.117
X-8.158 Y-12.712 Z-3.068
X-8.126 Y-12.706 Z-3.011
X-8.106 Y-12.703 Z-2.948
X-8.099 Y-12.702 Z-2.883
G0 Z3.004
X1.014 Y-25.332
Z-2.165
G1 Z-2.483 F1000
X1.013 Y-25.34 Z-2.553
X1.009 Y-25.363 Z-2.62
X1.003 Y-25.401 Z-2.68
X0.994 Y-25.45 Z-2.731
X0.985 Y-25.51 Z-2.769
X0.974 Y-25.576 Z-2.792
X0.962 Y-25.645 Z-2.8
G3 X0.865 Y-27.389 I7.998 J-1.319
G1 X0.878 Y-27.538
X1.033 Y-27.676
X1.223 Y-27.757
X1.429 Y-27.773
X1.615 Y-27.757
X1.782 Y-27.737
X2.284 Y-27.612
X2.619 Y-27.523
X3.464 Y-27.297
X3.624 Y-27.236
X3.958 Y-27.085
X4.126 Y-27.008
X5.13 Y-26.539
X5.268 Y-26.46
X6.302 Y-25.737
X6.469 Y-25.619
X6.637 Y-25.487
X6.859 Y-25.287
X6.972 Y-25.183
X7.704 Y-24.45
X7.809 Y-24.337
X8.003 Y-24.115
X8.136 Y-23.948
X8.646 Y-23.219
X8.981 Y-22.734
X9.052 Y-22.608
X9.521 Y-21.603
X9.595 Y-21.436
X9.739 Y-21.101
X9.808 Y-20.933
X10.077 Y-19.928
X10.121 Y-19.761
X10.242 Y-19.258
X10.262 Y-19.091
X10.379 Y-17.751
X10.393 Y-17.584
Y-17.416
X10.261 Y-15.909
X10.241 Y-15.742
X10.118 Y-15.239
X10.075 Y-15.072
X9.805 Y-14.067
X9.736 Y-13.899
X9.591 Y-13.564
X9.516 Y-13.397
X9.047 Y-12.392
X8.981 Y-12.272
X8.6 Y-11.722
X8.131 Y-11.052
X7.997 Y-10.885
X7.809 Y-10.668
X7.701 Y-10.55
X6.972 Y-9.821
X6.856 Y-9.713
X6.637 Y-9.515
X6.464 Y-9.378
X5.268 Y-8.54
X5.13 Y-8.461
X4.586 Y-8.205
X4.126 Y-7.991
X3.624 Y-7.76
X3.474 Y-7.703
X2.452 Y-7.429
X2.284 Y-7.385
X1.782 Y-7.259
X1.615 Y-7.239
X0.108 Y-7.107
X-0.059
X-0.562 Y-7.147
X-1.566 Y-7.235
X-1.733 Y-7.255
X-2.236 Y-7.373
X-2.403 Y-7.416
X-3.474 Y-7.703
X-3.575 Y-7.738
X-4.077 Y-7.968
X-5.082 Y-8.437
X-5.256 Y-8.54
X-5.751 Y-8.879
X-6.464 Y-9.378
X-6.588 Y-9.471
X-6.861 Y-9.713
X-6.923 Y-9.772
X-7.701 Y-10.55
X-7.76 Y-10.611
X-8.009 Y-10.885
X-8.095 Y-11.001
X-8.6 Y-11.722
X-8.947 Y-12.225
X-9.047 Y-12.392
X-9.672 Y-13.732
X-9.749 Y-13.899
X-9.805 Y-14.067
X-10.104 Y-15.18
X-10.241 Y-15.742
X-10.261 Y-15.909
X-10.393 Y-17.416
Y-17.584
X-10.321 Y-18.421
X-10.262 Y-19.091
X-10.242 Y-19.258
X-10.104 Y-19.829
X-9.808 Y-20.933
X-9.753 Y-21.101
X-9.677 Y-21.268
X-9.052 Y-22.608
X-8.952 Y-22.775
X-8.597 Y-23.289
X-8.095 Y-24.006
X-8.015 Y-24.115
X-7.76 Y-24.393
X-7.704 Y-24.45
X-6.923 Y-25.232
X-6.865 Y-25.287
X-6.588 Y-25.531
X-6.465 Y-25.622
X-5.748 Y-26.125
X-5.249 Y-26.464
X-5.082 Y-26.562
X-4.077 Y-27.031
X-3.86 Y-27.13
X-3.575 Y-27.258
X-3.464 Y-27.297
X-2.403 Y-27.581
X-2.236 Y-27.625
X-1.733 Y-27.741
X-1.566 Y-27.761
X-0.562 Y-27.849
X-0.059 Y-27.889
X0.108
X1.429 Y-27.773
G3 X1.708 Y-27.45 I-0.039 J0.315
G1 X1.693 Y-27.398 Z-2.795
X1.679 Y-27.347 Z-2.781
X1.665 Y-27.299 Z-2.758
X1.631 Y-27.264 Z-2.722
X1.602 Y-27.234 Z-2.678
X1.579 Y-27.211 Z-2.627
X1.564 Y-27.195 Z-2.571
X1.556 Y-27.187 Z-2.511
X1.555 Y-27.186 Z-2.483
G0 Z3.004
X13.243 Y-3.609
Z-2.165
G1 Z-2.483 F1000
X13.237 Y-3.614 Z-2.553
X13.22 Y-3.631 Z-2.62
X13.193 Y-3.657 Z-2.68
X13.157 Y-3.692 Z-2.731
X13.114 Y-3.733 Z-2.769
X13.065 Y-3.78 Z-2.792
X13.014 Y-3.829 Z-2.8
G3 X11.893 Y-5.168 I5.618 J-5.843
G1 X11.868 Y-5.208
X11.867 Y-5.255
X11.889 Y-5.297
X11.994 Y-5.408
X12.1 Y-5.526
X13.5 Y-7.107
X13.703 Y-7.368
X14.868 Y-9.21
X14.966 Y-9.378
X15.174 Y-9.768
X15.229 Y-9.88
X15.942 Y-11.555
X16.083 Y-11.89
X16.15 Y-12.057
X16.288 Y-12.56
X16.701 Y-14.234
X16.818 Y-14.737
X16.837 Y-14.904
X16.869 Y-15.239
X16.897 Y-15.574
X17.005 Y-16.914
X17.039 Y-17.416
Y-17.584
X17.005 Y-18.086
X16.883 Y-19.593
X16.869 Y-19.761
X16.837 Y-20.096
X16.818 Y-20.263
X16.701 Y-20.766
X16.288 Y-22.44
X16.15 Y-22.943
X16.083 Y-23.11
X15.844 Y-23.676
X15.229 Y-25.12
X15.174 Y-25.232
X14.966 Y-25.622
X14.868 Y-25.79
X13.703 Y-27.632
X13.5 Y-27.893
X12.1 Y-29.474
X11.994 Y-29.592
X11.789 Y-29.809
X11.659 Y-29.921
X11.492 Y-30.06
X9.953 Y-31.316
X9.818 Y-31.419
X9.466 Y-31.651
X9.315 Y-31.748
X7.453 Y-32.824
X7.306 Y-32.894
X7.139 Y-32.971
X4.963 Y-33.796
X4.858 Y-33.828
X4.628 Y-33.894
X4.461 Y-33.937
X2.284 Y-34.381
X2.117 Y-34.405
X1.782 Y-34.434
X1.615 Y-34.446
X-0.394 Y-34.527
X-0.562 Y-34.53
X-1.064 Y-34.493
X-3.24 Y-34.228
X-3.407 Y-34.191
X-3.742 Y-34.109
X-3.91 Y-34.063
X-5.416 Y-33.627
X-5.919 Y-33.478
X-6.086 Y-33.419
X-6.253 Y-33.346
X-8.095 Y-32.473
X-8.262 Y-32.392
X-8.43 Y-32.31
X-8.597 Y-32.212
X-8.689 Y-32.154
X-8.764 Y-32.103
X-10.39 Y-30.981
X-10.846 Y-30.646
X-10.941 Y-30.559
X-12.447 Y-29.112
X-12.592 Y-28.972
X-12.782 Y-28.77
X-12.891 Y-28.637
X-13.144 Y-28.302
X-14.151 Y-26.962
X-14.275 Y-26.795
X-14.579 Y-26.292
X-14.624 Y-26.212
X-15.461 Y-24.617
X-15.704 Y-24.115
X-15.766 Y-23.948
X-16.326 Y-22.273
X-16.438 Y-21.938
X-16.465 Y-21.851
X-16.571 Y-21.436
X-16.608 Y-21.268
X-16.934 Y-19.258
X-16.958 Y-19.091
X-16.985 Y-18.756
X-16.997 Y-18.589
Y-16.411
X-16.985 Y-16.244
X-16.958 Y-15.909
X-16.934 Y-15.742
X-16.608 Y-13.732
X-16.571 Y-13.564
X-16.465 Y-13.149
X-16.438 Y-13.062
X-15.795 Y-11.14
X-15.766 Y-11.052
X-15.704 Y-10.885
X-15.46 Y-10.383
X-14.624 Y-8.788
X-14.579 Y-8.708
X-14.275 Y-8.205
X-14.121 Y-7.999
X-12.95 Y-6.44
X-12.891 Y-6.363
X-12.782 Y-6.23
X-12.592 Y-6.028
X-12.419 Y-5.861
X-10.941 Y-4.441
X-10.846 Y-4.354
X-10.39 Y-4.019
X-8.764 Y-2.897
X-8.689 Y-2.846
X-8.597 Y-2.788
X-8.43 Y-2.69
X-8.262 Y-2.608
X-7.927 Y-2.448
X-6.253 Y-1.654
X-6.086 Y-1.581
X-5.919 Y-1.522
X-5.416 Y-1.373
X-3.91 Y-0.937
X-3.742 Y-0.891
X-3.407 Y-0.809
X-3.24 Y-0.772
X-1.064 Y-0.507
X-0.562 Y-0.47
X-0.394 Y-0.473
X1.615 Y-0.554
X1.782 Y-0.566
X2.117 Y-0.595
X2.284 Y-0.619
X4.461 Y-1.063
X4.628 Y-1.106
X4.858 Y-1.172
X4.963 Y-1.204
X7.139 Y-2.029
X7.306 Y-2.106
X7.453 Y-2.176
X9.315 Y-3.252
X9.483 Y-3.36
X9.818 Y-3.581
X9.953 Y-3.684
X11.492 Y-4.94
X11.659 Y-5.079
X11.789 Y-5.191
X11.889 Y-5.297
G3 X12.315 Y-5.316 I0.224 J0.225
G1 X12.347 Y-5.272 Z-2.795
X12.378 Y-5.23 Z-2.781
X12.408 Y-5.19 Z-2.758
X12.416 Y-5.143 Z-2.724
X12.424 Y-5.103 Z-2.683
X12.43 Y-5.072 Z-2.634
X12.429 Y-5.051 Z-2.586
X12.428 Y-5.038 Z-2.535
Y-5.033 Z-2.483
G0 Z3.004
X13.264 Y-31.241
Z-1.765
G1 Z-2.082 F1000
X13.26 Y-31.234 Z-2.153
X13.248 Y-31.214 Z-2.22
X13.228 Y-31.181 Z-2.28
X13.202 Y-31.138 Z-2.331
X13.172 Y-31.086 Z-2.369
X13.137 Y-31.029 Z-2.392
X13.101 Y-30.968 Z-2.4
G3 X12.052 Y-29.572 I-6.967 J-4.143
G1 X11.946 Y-29.466
X11.8 Y-29.434
X11.65 Y-29.424
X11.5 Y-29.429
X11.324 Y-29.449
X11.111 Y-29.492
X10.85 Y-29.567
X10.521 Y-29.69
X9.853 Y-30.004
X9.207 Y-30.361
X8.565 Y-30.724
X7.924 Y-31.09
X7.275 Y-31.441
X6.606 Y-31.751
X5.926 Y-32.039
X5.241 Y-32.312
X4.538 Y-32.535
X3.824 Y-32.723
X3.106 Y-32.892
X2.38 Y-33.026
X1.647 Y-33.111
X0.912 Y-33.17
X0.175 Y-33.207
X-0.562 Y-33.191
X-1.299 Y-33.141
X-2.033 Y-33.073
X-2.763 Y-32.961
X-3.484 Y-32.805
X-4.199 Y-32.626
X-4.909 Y-32.424
X-5.601 Y-32.168
X-6.282 Y-31.884
X-6.956 Y-31.584
X-7.608 Y-31.239
X-8.241 Y-30.859
X-8.861 Y-30.46
X-9.466 Y-30.036
X-10.038 Y-29.571
X-10.592 Y-29.083
X-11.134 Y-28.583
X-11.638 Y-28.044
X-12.114 Y-27.48
X-12.575 Y-26.904
X-13.006 Y-26.306
X-13.398 Y-25.68
X-13.766 Y-25.041
X-14.117 Y-24.392
X-14.418 Y-23.719
X-14.688 Y-23.032
X-14.941 Y-22.339
X-15.152 Y-21.632
X-15.321 Y-20.913
X-15.466 Y-20.19
X-15.585 Y-19.462
X-15.652 Y-18.727
X-15.687 Y-17.99
X-15.705 Y-17.253
X-15.673 Y-16.515
X-15.601 Y-15.781
X-15.507 Y-15.049
X-15.383 Y-14.322
X-15.208 Y-13.605
X-15.005 Y-12.896
X-14.786 Y-12.191
X-14.515 Y-11.505
X-14.21 Y-10.833
X-13.887 Y-10.17
X-13.531 Y-9.524
X-13.133 Y-8.902
X-12.714 Y-8.295
X-12.279 Y-7.699
X-11.799 Y-7.139
X-11.294 Y-6.601
X-10.776 Y-6.075
X-10.228 Y-5.581
X-9.651 Y-5.121
X-9.06 Y-4.68
X-8.454 Y-4.259
X-7.819 Y-3.884
X-7.168 Y-3.537
X-6.509 Y-3.204
X-5.83 Y-2.917
X-5.135 Y-2.668
X-4.434 Y-2.439
X-3.723 Y-2.239
X-3.001 Y-2.09
X-2.273 Y-1.97
X-1.542 Y-1.869
X-0.806 Y-1.818
X-0.068 Y-1.805
X0.67 Y-1.812
X1.406 Y-1.857
X2.138 Y-1.949
X2.866 Y-2.067
X3.591 Y-2.207
X4.303 Y-2.399
X5.006 Y-2.624
X5.703 Y-2.867
X6.384 Y-3.15
X7.047 Y-3.474
X7.699 Y-3.82
X8.338 Y-4.187
X8.95 Y-4.601
X9.543 Y-5.039
X10.126 Y-5.492
X10.676 Y-5.983
X11.199 Y-6.503
X11.707 Y-7.039
X12.192 Y-7.595
X12.636 Y-8.184
X13.057 Y-8.79
X13.46 Y-9.408
X13.822 Y-10.051
X14.15 Y-10.711
X14.46 Y-11.381
X14.736 Y-12.065
X14.966 Y-12.766
X15.172 Y-13.475
X15.358 Y-14.189
X15.488 Y-14.915
X15.586 Y-15.646
X15.664 Y-16.38
X15.7 Y-17.117
X15.692 Y-17.855
X15.66 Y-18.592
X15.602 Y-19.327
X15.491 Y-20.057
X15.349 Y-20.781
X15.188 Y-21.501
X14.981 Y-22.209
X14.735 Y-22.905
X14.469 Y-23.593
X14.173 Y-24.269
X13.832 Y-24.923
X13.466 Y-25.563
X13.085 Y-26.196
X12.657 Y-26.797
X12.2 Y-27.376
X11.58 Y-27.776
X10.917 Y-28.1
X10.25 Y-28.414
X9.588 Y-28.741
X8.935 Y-29.084
X8.288 Y-29.438
X7.641 Y-29.793
X6.986 Y-30.134
X6.321 Y-30.452
X5.646 Y-30.75
X4.958 Y-31.016
X4.256 Y-31.245
X3.546 Y-31.443
X2.826 Y-31.606
X2.098 Y-31.728
X1.366 Y-31.817
X0.63 Y-31.87
X-0.108 Y-31.88
X-0.845 Y-31.857
X-1.581 Y-31.797
X-2.311 Y-31.696
X-3.036 Y-31.558
X-3.754 Y-31.388
X-4.461 Y-31.175
X-5.155 Y-30.927
X-5.838 Y-30.647
X-6.504 Y-30.329
X-7.152 Y-29.976
X-7.784 Y-29.595
X-8.394 Y-29.18
X-8.98 Y-28.733
X-9.547 Y-28.261
X-10.087 Y-27.758
X-10.597 Y-27.225
X-11.083 Y-26.669
X-11.539 Y-26.089
X-11.961 Y-25.484
X-12.356 Y-24.861
X-12.719 Y-24.218
X-13.044 Y-23.556
X-13.339 Y-22.88
X-13.599 Y-22.189
X-13.82 Y-21.485
X-14.006 Y-20.771
X-14.158 Y-20.049
X-14.268 Y-19.32
X-14.341 Y-18.586
X-14.38 Y-17.849
X-14.377 Y-17.111
X-14.336 Y-16.374
X-14.262 Y-15.64
X-14.148 Y-14.911
X-13.995 Y-14.19
X-13.812 Y-13.475
X-13.587 Y-12.772
X-13.324 Y-12.083
X-13.029 Y-11.406
X-12.7 Y-10.746
X-12.334 Y-10.105
X-11.94 Y-9.482
X-11.514 Y-8.879
X-11.055 Y-8.301
X-10.57 Y-7.746
X-10.057 Y-7.215
X-9.515 Y-6.714
X-8.95 Y-6.241
X-8.363 Y-5.794
X-7.75 Y-5.382
X-7.118 Y-5.002
X-6.469 Y-4.652
X-5.8 Y-4.339
X-5.117 Y-4.06
X-4.422 Y-3.813
X-3.701 Y-3.657
X-2.977 Y-3.515
X-2.25 Y-3.391
X-1.517 Y-3.302
X-0.781 Y-3.25
X-0.044 Y-3.23
X0.694 Y-3.248
X1.43 Y-3.306
X2.162 Y-3.398
X2.888 Y-3.527
X3.606 Y-3.698
X4.315 Y-3.9
X5.013 Y-4.139
X5.696 Y-4.419
X6.364 Y-4.732
X7.017 Y-5.076
X7.648 Y-5.458
X8.261 Y-5.869
X8.852 Y-6.31
X9.418 Y-6.784
X9.959 Y-7.286
X10.476 Y-7.812
X10.962 Y-8.367
X11.418 Y-8.947
X11.847 Y-9.548
X12.24 Y-10.172
X12.601 Y-10.815
X12.931 Y-11.475
X13.225 Y-12.152
X13.482 Y-12.843
X13.709 Y-13.545
X13.897 Y-14.259
X14.043 Y-14.982
X14.156 Y-15.711
X14.23 Y-16.445
X14.262 Y-17.182
X14.26 Y-17.92
X14.22 Y-18.657
X14.139 Y-19.39
X14.024 Y-20.119
X13.871 Y-20.841
X13.678 Y-21.553
X13.451 Y-22.255
X13.19 Y-22.945
X12.888 Y-23.618
X12.554 Y-24.276
X12.19 Y-24.918
X11.788 Y-25.537
X11.271 Y-26.063
X10.677 Y-26.5
X10.047 Y-26.885
X9.404 Y-27.247
X8.03 Y-28.001
X7.381 Y-28.352
X6.726 Y-28.693
X6.063 Y-29.017
X5.39 Y-29.318
X4.704 Y-29.589
X4.005 Y-29.828
X3.296 Y-30.029
X2.576 Y-30.191
X1.848 Y-30.314
X1.115 Y-30.396
X0.378 Y-30.437
X-0.36 Y-30.438
X-1.096 Y-30.397
X-1.829 Y-30.314
X-2.557 Y-30.192
X-3.276 Y-30.025
X-3.984 Y-29.817
X-4.679 Y-29.569
X-5.358 Y-29.282
X-6.02 Y-28.957
X-6.664 Y-28.595
X-7.285 Y-28.198
X-7.884 Y-27.767
X-8.458 Y-27.303
X-9.002 Y-26.804
X-9.517 Y-26.276
X-10 Y-25.719
X-10.451 Y-25.135
X-10.869 Y-24.527
X-11.252 Y-23.896
X-11.598 Y-23.244
X-11.908 Y-22.575
X-12.179 Y-21.888
X-12.409 Y-21.187
X-12.599 Y-20.475
X-12.747 Y-19.752
X-12.853 Y-19.022
X-12.919 Y-18.287
X-12.942 Y-17.549
X-12.924 Y-16.812
X-12.865 Y-16.076
X-12.763 Y-15.345
X-12.622 Y-14.621
X-12.437 Y-13.907
X-12.211 Y-13.205
X-11.946 Y-12.516
X-11.642 Y-11.844
X-11.3 Y-11.19
X-10.923 Y-10.556
X-10.51 Y-9.945
X-10.063 Y-9.357
X-9.583 Y-8.797
X-9.071 Y-8.266
X-8.53 Y-7.764
X-7.962 Y-7.294
X-7.367 Y-6.857
X-6.748 Y-6.455
X-6.108 Y-6.088
X-5.448 Y-5.759
X-4.769 Y-5.47
X-4.067 Y-5.242
X-3.353 Y-5.057
X-2.631 Y-4.905
X-1.902 Y-4.79
X-1.169 Y-4.712
X-0.432 Y-4.672
X0.306
X1.043 Y-4.713
X1.776 Y-4.793
X2.503 Y-4.918
X3.222 Y-5.083
X3.931 Y-5.289
X4.626 Y-5.536
X5.306 Y-5.822
X5.969 Y-6.147
X6.611 Y-6.509
X7.233 Y-6.906
X7.831 Y-7.339
X8.401 Y-7.806
X8.945 Y-8.305
X9.459 Y-8.835
X9.941 Y-9.394
X10.39 Y-9.979
X10.804 Y-10.589
X11.184 Y-11.222
X11.528 Y-11.875
X11.832 Y-12.547
X12.098 Y-13.235
X12.324 Y-13.938
X12.507 Y-14.652
X12.651 Y-15.376
X12.751 Y-16.107
X12.809 Y-16.842
X12.827 Y-17.58
X12.801 Y-18.317
X12.733 Y-19.052
X12.623 Y-19.782
X12.47 Y-20.503
X12.277 Y-21.215
X12.043 Y-21.915
X11.768 Y-22.6
X11.457 Y-23.269
X11.104 Y-23.917
X10.654 Y-24.502
X10.119 Y-25.009
X9.972 Y-25.121
X9.823 Y-25.229
G3 X9.749 Y-25.649 I0.195 J-0.251
G1 X9.788 Y-25.687 Z-2.395
X9.826 Y-25.723 Z-2.381
X9.862 Y-25.757 Z-2.358
X9.91 Y-25.77 Z-2.322
X9.95 Y-25.781 Z-2.278
X9.981 Y-25.789 Z-2.227
X10.003 Y-25.795 Z-2.171
X10.013 Y-25.797 Z-2.111
X10.015 Z-2.082
G0 Z3.004
X-17.814 Y-38.607
Z-6.965
G1 Z-7.282 F1000
X-17.812 Y-38.599 Z-7.353
X-17.807 Y-38.576 Z-7.42
X-17.797 Y-38.54 Z-7.48
X-17.785 Y-38.491 Z-7.531
X-17.77 Y-38.433 Z-7.569
X-17.753 Y-38.368 Z-7.592
X-17.736 Y-38.299 Z-7.6
G3 X-17.487 Y-36.571 I-7.852 J2.011
G1 Y-36.421
X-17.635 Y-35.698
X-17.714 Y-34.964
X-17.757 Y-34.228
X-17.779 Y-33.49
X-17.791 Y-32.753
X-17.797 Y-32.015
X-17.8 Y-31.277
X-17.802 Y-29.801
Y-23.899
X-17.797 Y-1.396
X-17.743 Y-1.219
X-17.568 Y-0.894
X-17.311 Y-0.63
X-16.706 Y-0.208
X-16.008 Y0.032
X-15.283 Y0.164
X-14.548 Y0.235
X-13.811 Y0.273
X-13.074 Y0.293
X-12.336 Y0.303
X-11.598 Y0.308
X-10.86 Y0.31
X-9.385 Y0.312
X-3.482 Y0.309
X16.07 Y0.298
X16.247 Y0.247
X16.574 Y0.076
X16.841 Y-0.179
X17.266 Y-0.782
X17.509 Y-1.478
X17.643 Y-2.204
X17.715 Y-2.938
X17.753 Y-3.675
X17.773 Y-4.413
X17.784 Y-5.15
X17.79 Y-5.888
X17.793 Y-6.626
X17.795 Y-8.102
X17.796 Y-14.742
X17.797 Y-30.236
Y-33.556
X17.75 Y-33.735
X17.583 Y-34.064
X17.33 Y-34.332
X16.73 Y-34.761
X16.034 Y-35.006
X15.308 Y-35.141
X14.574 Y-35.214
X13.837 Y-35.252
X13.1 Y-35.273
X12.362 Y-35.284
X11.624 Y-35.29
X10.886 Y-35.293
X9.411 Y-35.295
X2.77 Y-35.296
X-14.568 Y-35.297
X-14.753 Y-35.294
X-14.931 Y-35.245
X-15.258 Y-35.076
X-15.529 Y-34.825
X-15.965 Y-34.23
X-16.22 Y-33.537
X-16.363 Y-32.814
X-16.441 Y-32.08
X-16.484 Y-31.343
X-16.507 Y-30.606
X-16.519 Y-29.868
X-16.526 Y-29.13
X-16.529 Y-28.393
X-16.532 Y-26.917
Y-22.49
Y-21.854
X-16.534 Y-21.793
X-16.542 Y-21.732
X-16.554 Y-21.672
X-16.633 Y-21.363
X-16.65 Y-21.268
X-16.977 Y-19.258
X-17 Y-19.091
X-17.027 Y-18.756
X-17.039 Y-18.589
Y-16.411
X-17.027 Y-16.244
X-17 Y-15.909
X-16.977 Y-15.742
X-16.759 Y-14.402
X-16.677 Y-13.669
X-16.606 Y-12.934
X-16.57 Y-12.197
X-16.55 Y-11.46
X-16.54 Y-10.722
X-16.535 Y-9.984
X-16.532 Y-9.246
X-16.529 Y-7.771
X-16.528 Y-3.344
X-16.525 Y-2.975
X-16.422 Y-2.621
X-16.23 Y-2.306
X-15.722 Y-1.771
X-15.067 Y-1.431
X-14.358 Y-1.227
X-13.63 Y-1.109
X-12.895 Y-1.041
X-12.158 Y-1.004
X-11.42 Y-0.983
X-10.683 Y-0.971
X-9.945 Y-0.965
X-9.207 Y-0.962
X-7.732 Y-0.96
X-4.247
X-4.177 Y-0.957
X-4.108 Y-0.947
X-4.04 Y-0.931
X-3.91 Y-0.893
X-3.742 Y-0.847
X-3.407 Y-0.767
X-3.24 Y-0.73
X-1.064 Y-0.465
X-0.562 Y-0.429
X-0.394 Y-0.432
X1.782 Y-0.519
X1.949 Y-0.527
X2.117 Y-0.549
X2.284 Y-0.576
X2.741 Y-0.669
X3.47 Y-0.78
X4.203 Y-0.869
X4.939 Y-0.916
X5.676 Y-0.94
X6.414 Y-0.953
X7.152 Y-0.96
X7.89 Y-0.964
X9.365 Y-0.967
X14.53 Y-0.971
X14.882 Y-1.082
X15.193 Y-1.28
X15.722 Y-1.795
X16.057 Y-2.452
X16.258 Y-3.162
X16.374 Y-3.89
X16.441 Y-4.625
X16.479 Y-5.362
X16.5 Y-6.1
X16.512 Y-6.837
X16.518 Y-7.575
X16.522 Y-8.313
X16.525 Y-9.788
X16.526 Y-13.261
X16.529 Y-13.32
X16.536 Y-13.38
X16.548 Y-13.438
X16.744 Y-14.234
X16.86 Y-14.737
X16.879 Y-14.904
X16.911 Y-15.239
X16.939 Y-15.574
X17.047 Y-16.914
X17.081 Y-17.416
Y-17.584
X17.047 Y-18.086
X16.925 Y-19.593
X16.911 Y-19.761
X16.879 Y-20.096
X16.86 Y-20.263
X16.849 Y-20.313
X16.718 Y-21.039
X16.626 Y-21.772
X16.579 Y-22.508
X16.554 Y-23.245
X16.541 Y-23.983
X16.534 Y-24.721
X16.531 Y-25.458
X16.528 Y-26.934
X16.527 Y-31.73
X16.501 Y-32.098
X16.375 Y-32.445
X16.164 Y-32.748
X15.632 Y-33.258
X14.967 Y-33.579
X14.255 Y-33.771
X13.526 Y-33.882
X12.79 Y-33.946
X12.053 Y-33.981
X11.316 Y-34.001
X10.578 Y-34.012
X9.84 Y-34.018
X9.103 Y-34.022
X7.627 Y-34.025
X4.308 Y-34.026
X4.258 Y-34.028
X4.209 Y-34.033
X4.16 Y-34.041
X2.284 Y-34.424
X2.117 Y-34.451
X1.949 Y-34.473
X1.351 Y-34.498
X-0.394 Y-34.568
X-0.562 Y-34.571
X-1.064 Y-34.535
X-3.24 Y-34.27
X-3.332 Y-34.25
X-3.835 Y-34.164
X-4.569 Y-34.098
X-5.306 Y-34.064
X-6.044 Y-34.046
X-6.782 Y-34.037
X-7.52 Y-34.032
X-8.257 Y-34.029
X-9.733 Y-34.027
X-13.053
X-13.418 Y-33.972
X-13.754 Y-33.819
X-14.044 Y-33.592
X-14.531 Y-33.037
X-14.836 Y-32.365
X-15.018 Y-31.65
X-15.125 Y-30.92
X-15.185 Y-30.185
X-15.22 Y-29.448
X-15.239 Y-28.71
X-15.249 Y-27.973
X-15.255 Y-27.235
X-15.259 Y-26.497
X-15.261 Y-25.269
X-15.27 Y-25.151
X-15.299 Y-25.035
X-15.346 Y-24.926
X-15.507 Y-24.617
X-15.748 Y-24.115
X-15.795 Y-23.992
X-16.482 Y-21.938
X-16.529 Y-21.77
X-16.554 Y-21.672
X-16.633 Y-21.363
X-16.65 Y-21.268
X-16.709 Y-20.903
X-16.977 Y-19.258
X-17 Y-19.091
X-17.027 Y-18.756
X-17.039 Y-18.589
Y-16.411
X-17.027 Y-16.244
X-17 Y-15.909
X-16.977 Y-15.742
X-16.885 Y-15.177
X-16.759 Y-14.402
X-16.65 Y-13.732
X-16.633 Y-13.637
X-16.529 Y-13.23
X-16.482 Y-13.062
X-15.795 Y-11.008
X-15.748 Y-10.885
X-15.69 Y-10.733
X-15.574 Y-10.34
X-15.454 Y-9.767
X-15.361 Y-9.035
X-15.312 Y-8.299
X-15.287 Y-7.562
X-15.273 Y-6.824
X-15.266 Y-6.086
X-15.262 Y-5.348
X-15.26 Y-4.611
X-15.223 Y-4.243
X-15.098 Y-3.897
X-14.894 Y-3.589
X-14.375 Y-3.065
X-13.72 Y-2.725
X-13.012 Y-2.518
X-12.284 Y-2.394
X-11.55 Y-2.323
X-10.813 Y-2.281
X-10.076 Y-2.258
X-9.338 Y-2.245
X-8.6 Y-2.238
X-7.737 Y-2.233
X-7.629 Y-2.225
X-7.523 Y-2.201
X-7.422 Y-2.162
X-6.394 Y-1.674
X-6.253 Y-1.608
X-6.011 Y-1.507
X-5.919 Y-1.478
X-5.416 Y-1.33
X-4.04 Y-0.931
G3 X-3.845 Y-0.768 I-0.088 J0.305
G2 X-3.583 Y-0.594 I0.284 J-0.142
G1 X-3.389 Y-0.58
X1.811 Y-0.22
X1.875 Y-0.222
X1.937 Y-0.237
X1.995 Y-0.264
X2.047 Y-0.302
G3 X2.741 Y-0.669 I1.064 J1.171
G1 X4.381 Y-1.004
X4.628 Y-1.057
X4.795 Y-1.103
X4.963 Y-1.159
X6.469 Y-1.73
X6.95 Y-1.886
X7.454 Y-2.005
X8.183 Y-2.116
X8.919 Y-2.174
X9.656 Y-2.205
X10.394 Y-2.221
X11.131 Y-2.23
X11.869 Y-2.235
X12.976 Y-2.238
X13.34 Y-2.3
X13.676 Y-2.451
X13.971 Y-2.674
X14.47 Y-3.217
X14.79 Y-3.882
X14.984 Y-4.593
X15.099 Y-5.322
X15.166 Y-6.057
X15.205 Y-6.794
X15.227 Y-7.531
X15.24 Y-8.269
X15.247 Y-9.007
X15.251 Y-9.677
X15.258 Y-9.775
X15.277 Y-9.871
X15.31 Y-9.963
X15.987 Y-11.555
X16.179 Y-12.011
X16.194 Y-12.057
X16.331 Y-12.56
X16.548 Y-13.438
G3 X16.702 Y-13.64 I0.308 J0.076
G2 X16.865 Y-13.892 I-0.153 J-0.278
G1 X16.883 Y-14.102
X17.321 Y-19.383
G2 X17.234 Y-19.629 I-0.316 J-0.026
G3 X16.849 Y-20.313 I1.143 J-1.095
G1 X16.744 Y-20.766
X16.331 Y-22.44
X16.194 Y-22.943
X16.179 Y-22.989
X15.917 Y-23.613
X15.845 Y-23.78
X15.667 Y-24.265
X15.55 Y-24.683
X15.429 Y-25.303
X15.347 Y-26.036
X15.304 Y-26.773
X15.282 Y-27.51
X15.27 Y-28.248
X15.264 Y-28.986
X15.26 Y-29.724
X15.259 Y-30.462
X15.2 Y-30.826
X15.051 Y-31.163
X14.831 Y-31.46
X14.29 Y-31.961
X13.626 Y-32.284
X12.915 Y-32.48
X12.187 Y-32.597
X11.452 Y-32.665
X10.715 Y-32.704
X9.978 Y-32.727
X9.24 Y-32.739
X8.502 Y-32.747
X7.854 Y-32.75
X7.739 Y-32.76
X7.627 Y-32.787
X7.52 Y-32.832
X7.474 Y-32.856
X7.192 Y-32.991
X7.139 Y-33.016
X4.963 Y-33.841
X4.795 Y-33.897
X4.628 Y-33.943
X4.381 Y-33.996
X4.16 Y-34.041
X3.39 Y-34.198
X2.284 Y-34.424
X2.117 Y-34.451
X1.949 Y-34.473
X1.782 Y-34.481
X1.615 Y-34.488
X-0.394 Y-34.568
X-0.562 Y-34.571
X-1.064 Y-34.535
X-2.554 Y-34.354
X-3.24 Y-34.27
X-3.332 Y-34.25
X-3.407 Y-34.233
X-3.742 Y-34.153
X-3.91 Y-34.107
X-5.449 Y-33.661
X-5.919 Y-33.522
X-6.011 Y-33.493
X-6.253 Y-33.392
X-6.394 Y-33.326
X-6.641 Y-33.223
X-6.996 Y-33.109
X-7.497 Y-32.99
X-8.227 Y-32.878
X-8.962 Y-32.821
X-9.699 Y-32.79
X-10.437 Y-32.774
X-11.175 Y-32.766
X-11.913 Y-32.762
X-12.261 Y-32.641
X-12.573 Y-32.444
X-13.11 Y-31.938
X-13.462 Y-31.29
X-13.68 Y-30.585
X-13.811 Y-29.859
X-13.888 Y-29.125
X-13.933 Y-28.389
X-13.958 Y-27.651
X-13.961 Y-27.517
X-13.98 Y-27.364
X-14.03 Y-27.219
X-14.109 Y-27.087
X-14.289 Y-26.848
X-14.327 Y-26.795
X-14.627 Y-26.292
X-14.716 Y-26.125
X-15.346 Y-24.926
G3 X-15.935 Y-25.036 I-0.276 J-0.157
G1 X-15.946 Y-25.106 Z-7.592
X-15.956 Y-25.172 Z-7.569
X-15.965 Y-25.231 Z-7.531
X-15.972 Y-25.281 Z-7.48
X-15.978 Y-25.319 Z-7.42
X-15.982 Y-25.342 Z-7.353
X-15.983 Y-25.35 Z-7.282
G0 Z3.004
X-5.631 Y-34.113
Z-6.965
G1 Z-7.282 F1000
X-5.635 Y-34.106 Z-7.353
X-5.648 Y-34.086 Z-7.42
X-5.669 Y-34.055 Z-7.48
X-5.697 Y-34.013 Z-7.531
X-5.731 Y-33.963 Z-7.569
X-5.768 Y-33.908 Z-7.592
X-5.808 Y-33.849 Z-7.6
G3 X-6.394 Y-33.326 I-1.314 J-0.882
G1 X-8.158 Y-32.489
X-8.262 Y-32.437
X-8.493 Y-32.321
X-8.597 Y-32.265
X-8.648 Y-32.231
X-8.777 Y-32.155
X-9.008 Y-32.044
X-9.306 Y-31.929
X-9.713 Y-31.809
X-10.435 Y-31.657
X-10.79 Y-31.559
X-11.118 Y-31.389
X-11.697 Y-30.931
X-12.09 Y-30.307
X-12.341 Y-29.613
X-12.386 Y-29.405
X-12.431 Y-29.265
X-12.502 Y-29.137
X-12.597 Y-29.026
G0 Z3.004
X-8.003 Y-33.117
Z-6.965
G1 Z-7.282 F1000
X-8.006 Y-33.11 Z-7.353
X-8.016 Y-33.089 Z-7.42
X-8.033 Y-33.055 Z-7.48
X-8.055 Y-33.009 Z-7.531
X-8.081 Y-32.955 Z-7.569
X-8.11 Y-32.895 Z-7.592
X-8.141 Y-32.831 Z-7.6
G3 X-8.648 Y-32.231 I-1.425 J-0.689
G1 X-8.765 Y-32.154
X-10.271 Y-31.114
X-10.439 Y-30.996
X-10.908 Y-30.646
X-10.941 Y-30.617
X-12.615 Y-29.009
X-12.651 Y-28.972
X-12.806 Y-28.804
X-12.95 Y-28.63
X-14.109 Y-27.087
G3 X-14.674 Y-27.29 I-0.247 J-0.199
G1 X-14.673 Y-27.36 Z-7.592
X-14.672 Y-27.428 Z-7.569
Y-27.488 Z-7.531
X-14.671 Y-27.538 Z-7.48
Y-27.576 Z-7.42
X-14.67 Y-27.599 Z-7.353
Y-27.607 Z-7.282
G0 Z3.004
X-16.537 Y-11.645
Z-6.965
G1 Z-7.282 F1000
X-16.531 Y-11.641 Z-7.353
X-16.511 Y-11.628 Z-7.42
X-16.48 Y-11.607 Z-7.48
X-16.438 Y-11.579 Z-7.531
X-16.388 Y-11.546 Z-7.569
X-16.332 Y-11.508 Z-7.592
X-16.273 Y-11.469 Z-7.6
G3 X-15.748 Y-10.885 I-0.878 J1.317
G1 X-15.507 Y-10.383
X-14.716 Y-8.875
X-14.627 Y-8.708
X-14.557 Y-8.575
X-14.44 Y-8.279
X-14.321 Y-7.884
X-14.198 Y-7.313
X-14.1 Y-6.582
X-14.048 Y-5.846
X-13.978 Y-5.484
X-13.83 Y-5.146
X-13.614 Y-4.847
X-13.081 Y-4.337
X-12.423 Y-4.004
X-11.714 Y-3.797
X-10.987 Y-3.673
X-10.253 Y-3.599
X-10.027 Y-3.586
X-9.893 Y-3.566
X-9.766 Y-3.522
X-9.649 Y-3.456
G3 X-9.829 Y-2.884 I-0.189 J0.255
G1 X-9.9 Y-2.882 Z-7.592
X-9.967 Y-2.88 Z-7.569
X-10.027 Y-2.878 Z-7.531
X-10.077 Y-2.877 Z-7.48
X-10.115 Y-2.876 Z-7.42
X-10.138 Y-2.875 Z-7.353
X-10.146 Z-7.282
G0 Z3.004
X-15.482 Y-9.393
Z-6.965
G1 Z-7.282 F1000
X-15.475 Y-9.389 Z-7.353
X-15.454 Y-9.378 Z-7.42
X-15.421 Y-9.36 Z-7.48
X-15.377 Y-9.336 Z-7.531
X-15.324 Y-9.308 Z-7.569
X-15.265 Y-9.276 Z-7.592
X-15.203 Y-9.242 Z-7.6
G3 X-14.627 Y-8.708 I-0.754 J1.391
G1 X-14.327 Y-8.205
X-14.289 Y-8.152
X-13.619 Y-7.261
X-13.206 Y-6.65
X-12.769 Y-6.055
X-12.302 Y-5.688
X-12.265 Y-5.655
G3 X-12.28 Y-5.198 I-0.228 J0.221
X-12.735 Y-5.229 I-0.213 J-0.235
G1 X-14.109 Y-6.857
G3 X-14.068 Y-7.306 I0.243 J-0.205
X-13.619 Y-7.261 I0.202 J0.245
G1 X-12.944 Y-6.363
X-12.806 Y-6.196
X-12.651 Y-6.028
X-12.615 Y-5.991
X-10.941 Y-4.383
X-10.908 Y-4.354
X-10.439 Y-4.004
X-10.271 Y-3.886
X-8.764 Y-2.846
X-8.597 Y-2.735
X-8.493 Y-2.679
X-8.262 Y-2.563
X-8.158 Y-2.511
X-7.422 Y-2.162
G3 X-7.508 Y-1.568 I-0.146 J0.282
G1 X-7.577 Y-1.555 Z-7.592
X-7.643 Y-1.542 Z-7.569
X-7.702 Y-1.531 Z-7.531
X-7.751 Y-1.521 Z-7.48
X-7.789 Y-1.514 Z-7.42
X-7.812 Y-1.51 Z-7.353
X-7.819 Y-1.508 Z-7.282
G0 Z3.004
X5.646 Y-1.008
Z-6.965
G1 Z-7.282 F1000
X5.651 Y-1.014 Z-7.353
X5.665 Y-1.032 Z-7.42
X5.689 Y-1.062 Z-7.48
X5.72 Y-1.101 Z-7.531
X5.758 Y-1.148 Z-7.569
X5.799 Y-1.201 Z-7.592
X5.843 Y-1.256 Z-7.6
G3 X6.469 Y-1.73 I1.239 J0.985
G1 X7.139 Y-1.984
X7.306 Y-2.064
X7.474 Y-2.144
X7.537 Y-2.176
X8.646 Y-2.817
X8.836 Y-2.914
X9.113 Y-3.029
X9.479 Y-3.148
X9.996 Y-3.27
X10.726 Y-3.382
X11.461 Y-3.441
X11.828 Y-3.483
X12.179 Y-3.596
X12.496 Y-3.783
X13.049 Y-4.273
X13.416 Y-4.913
X13.646 Y-5.614
X13.786 Y-6.338
X13.869 Y-7.071
X13.892 Y-7.421
X13.911 Y-7.542
X13.949 Y-7.659
X14.006 Y-7.768
G3 X14.585 Y-7.611 I0.262 J0.179
G1 X14.589 Y-7.54 Z-7.592
X14.594 Y-7.473 Z-7.569
X14.598 Y-7.413 Z-7.531
X14.602 Y-7.363 Z-7.48
X14.604 Y-7.325 Z-7.42
X14.606 Y-7.302 Z-7.353
Y-7.294 Z-7.282
G0 Z3.004
X7.949 Y-1.971
Z-6.965
G1 Z-7.282 F1000
X7.952 Y-1.978 Z-7.353
X7.964 Y-1.999 Z-7.42
X7.982 Y-2.032 Z-7.48
X8.007 Y-2.076 Z-7.531
X8.036 Y-2.128 Z-7.569
X8.069 Y-2.187 Z-7.592
X8.104 Y-2.248 Z-7.6
G3 X8.646 Y-2.817 I1.381 J0.774
G1 X9.315 Y-3.203
X9.483 Y-3.305
X9.818 Y-3.527
X9.985 Y-3.656
X10.152 Y-3.792
X10.746 Y-4.23
X11.355 Y-4.647
X11.67 Y-5.023
X11.695 Y-5.051
X11.721 Y-5.078
X11.749 Y-5.103
G3 X12.151 Y-4.612 I0.201 J0.246
G1 X10.563 Y-3.308
G3 X10.152 Y-3.792 I-0.201 J-0.245
G1 X11.492 Y-4.886
X11.659 Y-5.025
X11.826 Y-5.171
X12.004 Y-5.358
X12.161 Y-5.532
X13.5 Y-7.044
X13.63 Y-7.201
X13.668 Y-7.249
X13.75 Y-7.368
X14.003 Y-7.763
X14.918 Y-9.21
X15.007 Y-9.363
X15.191 Y-9.713
X15.274 Y-9.88
X15.31 Y-9.963
G3 X15.906 Y-9.901 I0.288 J0.135
G1 X15.923 Y-9.832 Z-7.592
X15.938 Y-9.767 Z-7.569
X15.952 Y-9.708 Z-7.531
X15.963 Y-9.659 Z-7.48
X15.972 Y-9.623 Z-7.42
X15.977 Y-9.6 Z-7.353
X15.979 Y-9.592 Z-7.282
G0 Z3.004
X16.6 Y-22.986
Z-6.965
G1 Z-7.282 F1000
X16.594 Y-22.991 Z-7.353
X16.575 Y-23.005 Z-7.42
X16.545 Y-23.027 Z-7.48
X16.504 Y-23.057 Z-7.531
X16.455 Y-23.092 Z-7.569
X16.401 Y-23.132 Z-7.592
X16.344 Y-23.174 Z-7.6
G3 X15.845 Y-23.78 I0.934 J-1.277
G1 X15.274 Y-25.12
X15.191 Y-25.287
X15.007 Y-25.637
X14.918 Y-25.79
X14.706 Y-26.125
X14.632 Y-26.255
X14.521 Y-26.496
X14.404 Y-26.817
X14.284 Y-27.249
X14.16 Y-27.893
X14.08 Y-28.626
X14.037 Y-29.363
X13.912 Y-29.71
X13.716 Y-30.023
X13.216 Y-30.565
X12.572 Y-30.925
X11.87 Y-31.151
X11.145 Y-31.289
X10.412 Y-31.371
X10.12 Y-31.39
X9.993 Y-31.409
X9.871 Y-31.451
X9.759 Y-31.512
G3 X9.929 Y-32.087 I0.185 J-0.258
G1 X9.999 Y-32.091 Z-7.592
X10.066 Y-32.094 Z-7.569
X10.126 Y-32.097 Z-7.531
X10.177 Y-32.099 Z-7.48
X10.214 Y-32.101 Z-7.42
X10.238 Y-32.102 Z-7.353
X10.246 Z-7.282
G0 Z3.004
X15.579 Y-25.462
Z-6.965
G1 Z-7.282 F1000
X15.572 Y-25.466 Z-7.353
X15.551 Y-25.476 Z-7.42
X15.517 Y-25.494 Z-7.48
X15.472 Y-25.516 Z-7.531
X15.418 Y-25.544 Z-7.569
X15.359 Y-25.574 Z-7.592
X15.296 Y-25.606 Z-7.6
G3 X14.706 Y-26.125 I0.717 J-1.411
G1 X13.965 Y-27.297
X13.75 Y-27.632
X13.668 Y-27.751
X13.63 Y-27.799
X13.189 Y-28.391
X12.74 Y-28.977
X12.389 Y-29.235
X12.349 Y-29.267
X12.31 Y-29.302
X12.274 Y-29.34
G3 X12.758 Y-29.752 I0.245 J-0.202
G1 X14.106 Y-28.22
G3 X13.63 Y-27.799 I-0.238 J0.21
G1 X13.491 Y-27.967
X12.156 Y-29.474
X11.994 Y-29.652
X11.826 Y-29.829
X11.658 Y-29.977
X11.455 Y-30.144
X9.985 Y-31.344
X9.818 Y-31.473
X9.483 Y-31.695
X9.315 Y-31.797
X7.537 Y-32.824
X7.52 Y-32.832
G3 X7.384 Y-33.236 I0.155 J-0.277
G1 X7.417 Y-33.279 Z-7.595
X7.45 Y-33.321 Z-7.581
X7.48 Y-33.36 Z-7.558
X7.525 Y-33.379 Z-7.522
X7.563 Y-33.396 Z-7.478
X7.593 Y-33.409 Z-7.427
X7.613 Y-33.418 Z-7.371
X7.623 Y-33.422 Z-7.311
X7.625 Y-33.423 Z-7.282
G0 Z3.004
X1.483 Y-17.773
Z-1.496
G3 X-1.484 Y-17.229 Z-1.661 I-1.483 J0.272 F333.3
X1.483 Y-17.773 Z-1.827 I1.483 J-0.272
X-1.484 Y-17.229 Z-1.992 I-1.483 J0.272
X1.483 Y-17.773 Z-2.158 I1.483 J-0.272
X-1.484 Y-17.229 Z-2.323 I-1.483 J0.272
X1.483 Y-17.773 Z-2.489 I1.483 J-0.272
X-1.484 Y-17.229 Z-2.654 I-1.483 J0.272
X1.483 Y-17.773 Z-2.82 I1.483 J-0.272
X-1.484 Y-17.229 Z-2.985 I-1.483 J0.272
X1.483 Y-17.773 Z-3.151 I1.483 J-0.272
X-1.484 Y-17.229 Z-3.316 I-1.483 J0.272
X1.483 Y-17.773 Z-3.481 I1.483 J-0.272
X-1.484 Y-17.229 Z-3.647 I-1.483 J0.272
X1.483 Y-17.773 Z-3.812 I1.483 J-0.272
X-1.484 Y-17.229 Z-3.978 I-1.483 J0.272
X1.483 Y-17.773 Z-4.143 I1.483 J-0.272
X-1.484 Y-17.229 Z-4.309 I-1.483 J0.272
X1.483 Y-17.773 Z-4.474 I1.483 J-0.272
X-1.484 Y-17.229 Z-4.64 I-1.483 J0.272
X1.483 Y-17.773 Z-4.805 I1.483 J-0.272
X-1.484 Y-17.229 Z-4.97 I-1.483 J0.272
X1.483 Y-17.773 Z-5.136 I1.483 J-0.272
X-1.484 Y-17.229 Z-5.301 I-1.483 J0.272
X1.483 Y-17.773 Z-5.467 I1.483 J-0.272
X-1.484 Y-17.229 Z-5.632 I-1.483 J0.272
X1.483 Y-17.773 Z-5.798 I1.483 J-0.272
X-1.484 Y-17.229 Z-5.963 I-1.483 J0.272
X1.483 Y-17.773 Z-6.129 I1.483 J-0.272
X-1.484 Y-17.229 Z-6.294 I-1.483 J0.272
X1.483 Y-17.773 Z-6.46 I1.483 J-0.272
X-1.484 Y-17.229 Z-6.625 I-1.483 J0.272
X-0.137 Y-19.003 Z-6.713 I1.483 J-0.272
X1.508 Y-17.501 Z-6.8 I0.137 J1.502
X-1.509 I-1.508
X1.508 I1.508
G1 X1.527 Y-16.763 F1000
X1.549 Y-16.674
X1.564 Y-16.524
X1.552 Y-16.375
X1.516 Y-16.229
X1.461 Y-16.09
X1.39 Y-15.958
X1.304 Y-15.835
X1.206 Y-15.721
X1.097 Y-15.618
X0.979 Y-15.525
X0.854 Y-15.443
X0.722 Y-15.372
X0.583 Y-15.312
X0.436 Y-15.261
X0.282 Y-15.222
X0.122 Y-15.194
X-0.043 Y-15.179
X-0.211 Y-15.178
X-0.382 Y-15.19
X-0.554 Y-15.216
X-0.725 Y-15.257
X-0.895 Y-15.311
X-1.061 Y-15.38
X-1.223 Y-15.463
X-1.379 Y-15.559
X-1.527 Y-15.668
X-1.667 Y-15.79
X-1.798 Y-15.923
X-1.918 Y-16.066
X-2.027 Y-16.22
X-2.124 Y-16.382
X-2.207 Y-16.553
X-2.277 Y-16.73
X-2.332 Y-16.912
X-2.373 Y-17.099
X-2.398 Y-17.288
X-2.409 Y-17.48
X-2.403 Y-17.672
X-2.383 Y-17.863
X-2.347 Y-18.052
X-2.296 Y-18.238
X-2.23 Y-18.419
X-2.15 Y-18.595
X-2.056 Y-18.763
X-1.949 Y-18.924
X-1.829 Y-19.075
X-1.697 Y-19.217
X-1.554 Y-19.348
X-1.401 Y-19.466
X-1.239 Y-19.572
X-1.069 Y-19.665
X-0.893 Y-19.744
X-0.71 Y-19.808
X-0.523 Y-19.858
X-0.332 Y-19.892
X-0.139 Y-19.911
X0.055 Y-19.915
X0.248 Y-19.902
X0.44 Y-19.875
X0.629 Y-19.832
X0.814 Y-19.774
X0.994 Y-19.701
X1.167 Y-19.614
X1.333 Y-19.514
X1.49 Y-19.4
X1.638 Y-19.275
X1.775 Y-19.137
X1.901 Y-18.99
X2.014 Y-18.832
X2.119 Y-18.66
X2.23 Y-18.437
X2.377 Y-18.073
X2.484 Y-17.73
X2.548 Y-17.447
X2.585 Y-17.192
X2.599 Y-16.954
X2.595 Y-16.731
X2.574 Y-16.518
X2.536 Y-16.311
X2.483 Y-16.109
X2.413 Y-15.912
X2.328 Y-15.721
X2.228 Y-15.538
X2.113 Y-15.363
X1.984 Y-15.197
X1.839 Y-15.04
X1.681 Y-14.893
X1.51 Y-14.757
X1.326 Y-14.634
X1.129 Y-14.525
X0.921 Y-14.43
X0.703 Y-14.351
X0.476 Y-14.289
X0.242 Y-14.245
X0.003 Y-14.219
X-0.241 Y-14.213
X-0.488 Y-14.227
X-0.735 Y-14.26
X-0.98 Y-14.314
X-1.223 Y-14.388
X-1.461 Y-14.482
X-1.692 Y-14.595
X-1.915 Y-14.727
X-2.127 Y-14.878
X-2.328 Y-15.047
X-2.516 Y-15.232
X-2.689 Y-15.432
X-2.846 Y-15.646
X-2.986 Y-15.874
X-3.108 Y-16.112
X-3.211 Y-16.361
X-3.293 Y-16.617
X-3.355 Y-16.88
X-3.396 Y-17.148
X-3.415 Y-17.419
X-3.412 Y-17.691
X-3.387 Y-17.962
X-3.341 Y-18.231
X-3.273 Y-18.495
X-3.184 Y-18.753
X-3.075 Y-19.004
X-2.945 Y-19.245
X-2.797 Y-19.475
X-2.63 Y-19.693
X-2.447 Y-19.897
X-2.247 Y-20.085
X-2.033 Y-20.257
X-1.806 Y-20.411
X-1.567 Y-20.547
X-1.318 Y-20.663
X-1.06 Y-20.759
X-0.796 Y-20.833
X-0.526 Y-20.887
X-0.253 Y-20.918
X0.022 Y-20.927
X0.297 Y-20.915
X0.57 Y-20.88
X0.839 Y-20.823
X1.103 Y-20.745
X1.359 Y-20.646
X1.607 Y-20.527
X1.845 Y-20.388
X2.071 Y-20.231
X2.285 Y-20.055
X2.491 Y-19.855
X2.705 Y-19.612
X2.907 Y-19.341
X3.093 Y-19.044
X3.258 Y-18.728
X3.395 Y-18.402
X3.503 Y-18.076
X3.582 Y-17.752
X3.633 Y-17.432
X3.658 Y-17.116
Y-16.804
X3.632 Y-16.496
X3.583 Y-16.195
X3.51 Y-15.901
X3.414 Y-15.615
X3.296 Y-15.339
X3.157 Y-15.074
X2.996 Y-14.82
X2.815 Y-14.579
X2.614 Y-14.353
X2.395 Y-14.142
X2.158 Y-13.948
X1.903 Y-13.772
X1.634 Y-13.617
X1.35 Y-13.482
X1.054 Y-13.369
X0.747 Y-13.28
X0.431 Y-13.215
X0.109 Y-13.175
X-0.218 Y-13.161
X-0.548 Y-13.174
X-0.878 Y-13.213
X-1.206 Y-13.279
X-1.529 Y-13.372
X-1.847 Y-13.491
X-2.155 Y-13.636
X-2.452 Y-13.806
X-2.736 Y-14.001
X-3.005 Y-14.219
X-3.257 Y-14.458
X-3.49 Y-14.719
X-3.702 Y-14.998
X-3.891 Y-15.294
X-4.056 Y-15.606
X-4.197 Y-15.931
X-4.311 Y-16.267
X-4.398 Y-16.612
X-4.457 Y-16.963
X-4.488 Y-17.319
X-4.49 Y-17.676
X-4.464 Y-18.033
X-4.409 Y-18.388
X-4.325 Y-18.737
X-4.214 Y-19.079
X-4.075 Y-19.411
X-3.91 Y-19.731
X-3.72 Y-20.037
X-3.506 Y-20.327
X-3.269 Y-20.598
X-3.011 Y-20.851
X-2.733 Y-21.081
X-2.438 Y-21.289
X-2.126 Y-21.472
X-1.801 Y-21.63
X-1.465 Y-21.762
X-1.118 Y-21.865
X-0.765 Y-21.941
X-0.406 Y-21.988
X-0.045 Y-22.007
X0.316 Y-21.996
X0.676 Y-21.956
X1.031 Y-21.888
X1.38 Y-21.791
X1.72 Y-21.666
X2.049 Y-21.515
X2.367 Y-21.336
X2.679 Y-21.126
X2.983 Y-20.884
X3.275 Y-20.61
X3.551 Y-20.306
X3.807 Y-19.975
X4.037 Y-19.621
X4.238 Y-19.25
X4.408 Y-18.866
X4.545 Y-18.472
X4.65 Y-18.072
X4.721 Y-17.669
X4.759 Y-17.266
X4.765 Y-16.863
X4.739 Y-16.465
X4.681 Y-16.073
X4.592 Y-15.688
X4.474 Y-15.314
X4.326 Y-14.95
X4.149 Y-14.601
X3.945 Y-14.266
X3.714 Y-13.949
X3.458 Y-13.65
X3.178 Y-13.372
X2.875 Y-13.115
X2.55 Y-12.883
X2.207 Y-12.677
X1.845 Y-12.498
X1.468 Y-12.347
X1.078 Y-12.227
X0.677 Y-12.137
X0.268 Y-12.08
X-0.147 Y-12.055
X-0.565 Y-12.065
X-0.984 Y-12.107
X-1.399 Y-12.184
X-1.81 Y-12.294
X-2.212 Y-12.438
X-2.604 Y-12.614
X-2.981 Y-12.822
X-3.342 Y-13.061
X-3.685 Y-13.329
X-4.006 Y-13.625
X-4.303 Y-13.947
X-4.574 Y-14.292
X-4.817 Y-14.66
X-5.031 Y-15.047
X-5.214 Y-15.45
X-5.363 Y-15.868
X-5.479 Y-16.298
X-5.561 Y-16.736
X-5.607 Y-17.18
X-5.617 Y-17.628
X-5.591 Y-18.075
X-5.529 Y-18.519
X-5.432 Y-18.957
X-5.3 Y-19.387
X-5.133 Y-19.804
X-4.934 Y-20.208
X-4.702 Y-20.594
X-4.44 Y-20.961
X-4.15 Y-21.306
X-3.832 Y-21.626
X-3.49 Y-21.92
X-3.125 Y-22.186
X-2.74 Y-22.422
X-2.337 Y-22.626
X-1.918 Y-22.797
X-1.488 Y-22.934
X-1.047 Y-23.036
X-0.6 Y-23.102
X-0.149 Y-23.132
X0.303 Y-23.126
X0.753 Y-23.084
X1.199 Y-23.006
X1.637 Y-22.892
X2.067 Y-22.742
X2.488 Y-22.557
X2.897 Y-22.336
X3.293 Y-22.079
X3.674 Y-21.785
X4.037 Y-21.456
X4.378 Y-21.094
X4.691 Y-20.701
X4.974 Y-20.282
X5.222 Y-19.84
X5.435 Y-19.381
X5.609 Y-18.907
X5.744 Y-18.423
X5.839 Y-17.933
X5.894 Y-17.439
X5.909 Y-16.945
X5.897 Y-16.71
X5.894 Y-16.682
X5.89 Y-16.654
X5.85 Y-16.411
X5.816 Y-16.244
X5.688 Y-15.742
X5.623 Y-15.574
X5.465 Y-15.176
X5.419 Y-15.072
X5.343 Y-14.904
X5.185 Y-14.569
X5.13 Y-14.486
X4.795 Y-14.016
X4.708 Y-13.899
X4.282 Y-13.397
X4.126 Y-13.245
X3.746 Y-12.895
X3.624 Y-12.784
X3.456 Y-12.675
X3.015 Y-12.392
X2.954 Y-12.353
X2.746 Y-12.225
X2.619 Y-12.164
X1.934 Y-11.89
X1.782 Y-11.831
X1.28 Y-11.713
X1.112 Y-11.678
X0.778 Y-11.614
X0.61 Y-11.583
X0.275 Y-11.577
X0.108 Y-11.574
X-0.059 Y-11.573
X-0.394
X-0.562 Y-11.574
X-0.729 Y-11.604
X-1.064 Y-11.669
X-1.231 Y-11.703
X-1.733 Y-11.811
X-1.934 Y-11.89
X-2.57 Y-12.144
X-2.738 Y-12.22
X-2.905 Y-12.322
X-3.276 Y-12.56
X-3.575 Y-12.752
X-3.746 Y-12.895
X-4.11 Y-13.23
X-4.245 Y-13.357
X-4.282 Y-13.397
X-4.579 Y-13.739
X-4.713 Y-13.899
X-5.082 Y-14.418
X-5.185 Y-14.569
X-5.266 Y-14.737
X-5.42 Y-15.072
X-5.49 Y-15.239
X-5.623 Y-15.574
X-5.688 Y-15.742
X-5.815 Y-16.244
X-5.853 Y-16.411
X-5.879 Y-16.579
X-5.923 Y-16.914
X-5.948 Y-17.416
Y-17.584
X-5.927 Y-18.086
X-5.902 Y-18.254
X-5.877 Y-18.421
X-5.849 Y-18.589
X-5.814 Y-18.756
X-5.682 Y-19.258
X-5.505 Y-19.761
X-5.432 Y-19.928
X-5.244 Y-20.263
X-5.147 Y-20.431
X-4.842 Y-20.933
X-4.747 Y-21.073
X-4.245 Y-21.652
X-4.14 Y-21.77
X-4.077 Y-21.834
X-3.519 Y-22.273
X-3.407 Y-22.347
X-3.006 Y-22.608
X-2.905 Y-22.671
X-2.378 Y-22.943
X-2.236 Y-22.999
X-1.733 Y-23.169
X-1.231 Y-23.316
X-1.148 Y-23.339
X-1.064 Y-23.348
X-0.729 Y-23.384
X-0.562 Y-23.401
X-0.05 Y-23.445
X0.022 Y-23.45
X0.108 Y-23.444
X0.61 Y-23.396
X0.945 Y-23.356
X1.112 Y-23.335
X1.28 Y-23.302
X1.782 Y-23.154
X2.117 Y-23.035
X2.375 Y-22.943
X2.452 Y-22.905
X2.954 Y-22.646
X3.015 Y-22.608
X3.513 Y-22.273
X3.624 Y-22.19
X4.139 Y-21.77
X4.293 Y-21.597
X4.723 Y-21.101
X4.795 Y-21.01
X5.13 Y-20.461
X5.298 Y-20.171
X5.34 Y-20.096
X5.465 Y-19.868
X5.505 Y-19.761
X5.632 Y-19.4
X5.681 Y-19.258
X5.814 Y-18.756
X5.848 Y-18.589
X5.9 Y-18.254
X5.925 Y-18.086
X5.952 Y-17.584
X5.951 Y-17.416
X5.922 Y-16.914
X5.905 Y-16.746
X5.89 Y-16.654
G3 X5.547 Y-16.401 I-0.311 J-0.062
G1 X5.496 Y-16.419 Z-6.795
X5.447 Y-16.437 Z-6.781
X5.4 Y-16.454 Z-6.758
X5.367 Y-16.491 Z-6.722
X5.34 Y-16.522 Z-6.678
X5.318 Y-16.546 Z-6.627
X5.304 Y-16.563 Z-6.571
X5.296 Y-16.571 Z-6.511
Y-16.572 Z-6.483
G0 Z3.004
X3.767 Y-18.457
Z-5.765
G1 Z-6.082 F1000
X3.773 Y-18.462 Z-6.153
X3.793 Y-18.475 Z-6.22
X3.824 Y-18.495 Z-6.28
X3.866 Y-18.523 Z-6.331
X3.917 Y-18.556 Z-6.369
X3.973 Y-18.593 Z-6.392
X4.032 Y-18.632 Z-6.4
G3 X5.584 Y-19.433 I4.469 J6.762
G1 X5.725 Y-19.482
X5.869 Y-19.437
X6.001 Y-19.366
X6.121 Y-19.277
X6.231 Y-19.175
X6.331 Y-19.063
X6.431 Y-18.93
X6.535 Y-18.766
X6.631 Y-18.582
X6.722 Y-18.368
X6.811 Y-18.102
X6.882 Y-17.817
X6.936 Y-17.488
X6.965 Y-17.133
Y-16.72
X6.934 Y-16.329
X6.858 Y-15.854
X6.727 Y-15.317
X6.596 Y-14.924
X6.393 Y-14.443
X6.143 Y-13.964
X5.836 Y-13.475
X5.453 Y-12.962
X5.134 Y-12.599
X4.706 Y-12.185
X4.266 Y-11.824
X3.837 Y-11.525
X3.319 Y-11.223
X2.836 Y-10.991
X2.215 Y-10.753
X1.761 Y-10.619
X1.172 Y-10.496
X0.58 Y-10.421
X0.08 Y-10.398
X-0.585 Y-10.421
X-1.064 Y-10.476
X-1.684 Y-10.599
X-2.2 Y-10.745
X-2.723 Y-10.94
X-3.266 Y-11.193
X-3.726 Y-11.454
X-4.196 Y-11.774
X-4.666 Y-12.152
X-5.115 Y-12.577
X-5.499 Y-13.004
X-5.815 Y-13.417
X-6.15 Y-13.938
X-6.406 Y-14.415
X-6.64 Y-14.952
X-6.818 Y-15.472
X-6.959 Y-16.021
X-7.059 Y-16.602
X-7.108 Y-17.144
X-7.113 Y-17.697
X-7.072 Y-18.279
X-6.982 Y-18.867
X-6.87 Y-19.345
X-6.701 Y-19.868
X-6.44 Y-20.498
X-6.21 Y-20.949
X-5.855 Y-21.524
X-5.578 Y-21.902
X-5.208 Y-22.329
X-4.785 Y-22.745
X-4.335 Y-23.122
X-3.865 Y-23.454
X-3.39 Y-23.736
X-2.791 Y-24.03
X-2.36 Y-24.199
X-1.792 Y-24.372
X-1.211 Y-24.499
X-0.702 Y-24.567
X-0.069 Y-24.602
X0.443 Y-24.588
X1.01 Y-24.527
X1.608 Y-24.414
X2.158 Y-24.263
X2.645 Y-24.087
X3.192 Y-23.837
X3.77 Y-23.515
X4.162 Y-23.253
X4.65 Y-22.867
X5.014 Y-22.528
X5.414 Y-22.09
X5.867 Y-21.508
X6.341 Y-20.942
X6.819 Y-20.408
X7.119 Y-20.015
X7.355 Y-19.647
X7.554 Y-19.274
X7.723 Y-18.885
X7.861 Y-18.48
X7.972 Y-18.046
X8.048 Y-17.597
X8.09 Y-17.123
X8.094 Y-16.634
X8.055 Y-16.097
X7.975 Y-15.575
X7.846 Y-15.033
X7.667 Y-14.48
X7.432 Y-13.916
X7.135 Y-13.336
X6.805 Y-12.803
X6.42 Y-12.281
X5.992 Y-11.788
X5.534 Y-11.339
X5.028 Y-10.917
X4.497 Y-10.542
X3.906 Y-10.193
X3.324 Y-9.909
X2.706 Y-9.666
X2.062 Y-9.472
X1.429 Y-9.335
X0.75 Y-9.244
X0.101 Y-9.211
X-0.573 Y-9.229
X-1.23 Y-9.301
X-1.877 Y-9.425
X-2.523 Y-9.603
X-3.139 Y-9.827
X-3.737 Y-10.101
X-4.323 Y-10.429
X-4.892 Y-10.811
X-5.425 Y-11.233
X-5.907 Y-11.683
X-6.363 Y-12.184
X-6.769 Y-12.709
X-7.135 Y-13.269
X-7.452 Y-13.85
X-7.72 Y-14.455
X-7.942 Y-15.087
X-8.11 Y-15.725
X-8.225 Y-16.37
X-8.289 Y-17.031
X-8.3 Y-17.703
X-8.259 Y-18.346
X-8.166 Y-18.983
X-8.012 Y-19.654
X-7.814 Y-20.283
X-7.553 Y-20.927
X-7.259 Y-21.511
X-6.919 Y-22.071
X-6.528 Y-22.611
X-6.092 Y-23.121
X-5.616 Y-23.595
X-5.11 Y-24.024
X-4.545 Y-24.43
X-3.987 Y-24.766
X-3.393 Y-25.062
X-2.769 Y-25.313
X-2.147 Y-25.506
X-1.487 Y-25.655
X-0.839 Y-25.747
X-0.182 Y-25.786
X0.491 Y-25.773
X1.158 Y-25.706
X1.799 Y-25.589
X2.443 Y-25.417
X3.099 Y-25.184
X3.696 Y-24.916
X4.287 Y-24.592
X4.828 Y-24.235
X5.35 Y-23.829
X5.893 Y-23.33
X6.395 Y-22.789
X6.887 Y-22.239
X7.373 Y-21.684
X7.832 Y-21.106
X8.187 Y-20.583
X8.476 Y-20.072
X8.518 Y-19.98
X8.536 Y-19.933
X8.646 Y-19.615
X8.651 Y-19.593
X8.677 Y-19.426
X8.87 Y-18.086
X8.891 Y-17.919
X8.885 Y-17.751
X8.813 Y-16.253
X8.812 Y-16.244
X8.774 Y-16.077
X8.449 Y-14.737
X8.404 Y-14.569
X7.793 Y-13.23
X7.716 Y-13.062
X7.641 Y-12.952
X6.766 Y-11.722
X6.71 Y-11.652
X5.554 Y-10.55
X5.51 Y-10.509
X5.465 Y-10.477
X4.126 Y-9.616
X4.051 Y-9.575
X2.535 Y-8.969
X2.452 Y-8.947
X0.945 Y-8.656
X0.861 Y-8.641
X0.778 Y-8.637
X-0.813
X-0.855 Y-8.64
X-0.896 Y-8.647
X-2.487 Y-8.954
X-2.57 Y-8.983
X-3.976 Y-9.545
X-4.077 Y-9.587
X-4.276 Y-9.713
X-5.485 Y-10.49
X-5.554 Y-10.55
X-6.688 Y-11.631
X-6.726 Y-11.67
X-6.756 Y-11.708
X-7.601 Y-12.895
X-7.716 Y-13.062
X-7.869 Y-13.397
X-8.404 Y-14.569
X-8.43 Y-14.655
X-8.774 Y-16.077
X-8.812 Y-16.244
X-8.837 Y-16.746
X-8.885 Y-17.751
X-8.891 Y-17.919
X-8.87 Y-18.086
X-8.677 Y-19.426
X-8.652 Y-19.593
X-8.596 Y-19.761
X-8.132 Y-21.101
X-8.095 Y-21.202
X-8.058 Y-21.268
X-7.285 Y-22.608
X-7.258 Y-22.653
X-7.156 Y-22.775
X-6.253 Y-23.817
X-6.136 Y-23.948
X-6.086 Y-23.989
X-4.861 Y-24.952
X-4.804 Y-24.993
X-4.747 Y-25.024
X-3.407 Y-25.714
X-3.324 Y-25.757
X-3.24 Y-25.785
X-1.733 Y-26.228
X-1.65 Y-26.245
X-0.059 Y-26.397
X0.024 Y-26.4
X1.615 Y-26.249
X1.698 Y-26.238
X2.452 Y-26.017
X3.225 Y-25.79
X3.289 Y-25.77
X3.456 Y-25.689
X4.795 Y-24.999
X4.861 Y-24.952
X5.967 Y-24.082
X6.137 Y-23.948
X6.302 Y-23.761
X7.228 Y-22.692
X7.259 Y-22.65
X7.306 Y-22.57
X8.058 Y-21.268
X8.103 Y-21.184
X8.364 Y-20.431
X8.536 Y-19.933
G3 X8.355 Y-19.547 I-0.303 J0.093
G1 X8.293 Y-19.534 Z-6.393
X8.233 Y-19.522 Z-6.374
X8.186 Y-19.534 Z-6.348
X8.145 Y-19.545 Z-6.313
X8.109 Y-19.554 Z-6.272
X8.081 Y-19.561 Z-6.225
X8.065 Y-19.57 Z-6.18
X8.056 Y-19.576 Z-6.132
X8.052 Y-19.578 Z-6.083
G0 Z3.004
X4.937 Y-22.057
Z-3.765
G1 Z-4.082 F1000
X4.944 Y-22.062 Z-4.153
X4.961 Y-22.077 Z-4.22
X4.99 Y-22.102 Z-4.28
X5.029 Y-22.134 Z-4.331
X5.075 Y-22.173 Z-4.369
X5.126 Y-22.217 Z-4.392
X5.18 Y-22.262 Z-4.4
G3 X6.626 Y-23.241 I5.24 J6.184
G1 X6.675 Y-23.265
X6.73 Y-23.261
X6.775 Y-23.231
X7.242 Y-22.692
X7.296 Y-22.608
X8.07 Y-21.268
X8.114 Y-21.184
X8.646 Y-19.648
X8.662 Y-19.593
X8.687 Y-19.426
X8.88 Y-18.086
X8.901 Y-17.919
X8.895 Y-17.751
X8.831 Y-16.411
X8.822 Y-16.244
X8.813 Y-16.193
X8.46 Y-14.737
X8.415 Y-14.569
X8.263 Y-14.234
X7.804 Y-13.23
X7.727 Y-13.062
X7.641 Y-12.934
X6.778 Y-11.722
X6.717 Y-11.645
X5.569 Y-10.55
X5.517 Y-10.502
X5.465 Y-10.465
X4.126 Y-9.604
X4.064 Y-9.57
X3.958 Y-9.527
X2.535 Y-8.958
X2.452 Y-8.936
X0.945 Y-8.646
X0.861 Y-8.631
X0.778 Y-8.627
X-0.813
X-0.855 Y-8.63
X-0.896 Y-8.637
X-2.487 Y-8.943
X-2.57 Y-8.972
X-4.003 Y-9.545
X-4.077 Y-9.576
X-4.245 Y-9.681
X-5.493 Y-10.483
X-5.569 Y-10.55
X-6.623 Y-11.555
X-6.756 Y-11.691
X-7.613 Y-12.895
X-7.727 Y-13.062
X-7.804 Y-13.23
X-8.339 Y-14.402
X-8.415 Y-14.569
X-8.43 Y-14.613
X-8.785 Y-16.077
X-8.822 Y-16.244
X-8.847 Y-16.746
X-8.895 Y-17.751
X-8.901 Y-17.919
X-8.88 Y-18.086
X-8.687 Y-19.426
X-8.662 Y-19.593
X-8.597 Y-19.789
X-8.143 Y-21.101
X-8.095 Y-21.224
X-7.296 Y-22.608
X-7.258 Y-22.67
X-7.169 Y-22.775
X-6.253 Y-23.832
X-6.15 Y-23.948
X-6.086 Y-24.002
X-4.877 Y-24.952
X-4.812 Y-25
X-4.747 Y-25.035
X-3.334 Y-25.763
X-3.261 Y-25.79
X-1.733 Y-26.238
X-1.65 Y-26.256
X-0.059 Y-26.407
X0.024 Y-26.411
X1.615 Y-26.259
X1.698 Y-26.248
X2.452 Y-26.027
X3.289 Y-25.781
X3.331 Y-25.765
X4.795 Y-25.01
X4.836 Y-24.984
X6.135 Y-23.963
X6.152 Y-23.948
X6.302 Y-23.776
X6.775 Y-23.231
G3 X6.75 Y-22.805 I-0.247 J0.199
G1 X6.703 Y-22.777 Z-4.395
X6.658 Y-22.751 Z-4.381
X6.615 Y-22.726 Z-4.358
X6.568 Y-22.719 Z-4.324
X6.528 Y-22.714 Z-4.283
X6.498 Y-22.717 Z-4.238
X6.475 Y-22.72 Z-4.189
X6.462 Y-22.721 Z-4.136
X6.457 Y-22.722 Z-4.083
G0 Z3.004
X-17.814 Y-38.607
Z-10.861
G1 Z-11.179 F1000
X-17.812 Y-38.599 Z-11.249
X-17.807 Y-38.576 Z-11.316
X-17.797 Y-38.54 Z-11.376
X-17.785 Y-38.491 Z-11.427
X-17.77 Y-38.433 Z-11.465
X-17.753 Y-38.368 Z-11.488
X-17.736 Y-38.299 Z-11.496
G3 X-17.487 Y-36.571 I-7.852 J2.011
G1 Y-36.421
X-17.635 Y-35.698
X-17.714 Y-34.964
X-17.757 Y-34.228
X-17.779 Y-33.49
X-17.791 Y-32.753
X-17.797 Y-32.015
X-17.8 Y-31.277
X-17.802 Y-29.801
Y-23.899
X-17.797 Y-1.396
X-17.743 Y-1.219
X-17.568 Y-0.894
X-17.311 Y-0.63
X-16.706 Y-0.208
X-16.008 Y0.032
X-15.283 Y0.164
X-14.548 Y0.235
X-13.811 Y0.273
X-13.074 Y0.293
X-12.336 Y0.303
X-11.598 Y0.308
X-10.86 Y0.31
X-9.385 Y0.312
X-3.482 Y0.309
X16.07 Y0.298
X16.247 Y0.247
X16.574 Y0.076
X16.841 Y-0.179
X17.266 Y-0.782
X17.509 Y-1.478
X17.643 Y-2.204
X17.715 Y-2.938
X17.753 Y-3.675
X17.773 Y-4.413
X17.784 Y-5.15
X17.79 Y-5.888
X17.793 Y-6.626
X17.795 Y-8.102
X17.796 Y-14.742
X17.797 Y-30.236
Y-33.556
X17.75 Y-33.735
X17.583 Y-34.064
X17.33 Y-34.332
X16.73 Y-34.761
X16.034 Y-35.006
X15.308 Y-35.141
X14.574 Y-35.214
X13.837 Y-35.252
X13.1 Y-35.273
X12.362 Y-35.284
X11.624 Y-35.29
X10.886 Y-35.293
X9.411 Y-35.295
X2.77 Y-35.296
X-14.568 Y-35.297
X-14.753 Y-35.294
X-14.931 Y-35.245
X-15.258 Y-35.076
X-15.529 Y-34.825
X-15.965 Y-34.23
X-16.22 Y-33.537
X-16.363 Y-32.814
X-16.441 Y-32.08
X-16.484 Y-31.343
X-16.507 Y-30.606
X-16.519 Y-29.868
X-16.526 Y-29.13
X-16.529 Y-28.393
X-16.532 Y-26.917
Y-22.49
Y-21.854
X-16.534 Y-21.793
X-16.542 Y-21.732
X-16.554 Y-21.672
X-16.633 Y-21.363
X-16.65 Y-21.268
X-16.977 Y-19.258
X-17 Y-19.091
X-17.027 Y-18.756
X-17.039 Y-18.589
Y-16.411
X-17.027 Y-16.244
X-17 Y-15.909
X-16.977 Y-15.742
X-16.759 Y-14.402
X-16.677 Y-13.669
X-16.606 Y-12.934
X-16.57 Y-12.197
X-16.55 Y-11.46
X-16.54 Y-10.722
X-16.535 Y-9.984
X-16.532 Y-9.246
X-16.529 Y-7.771
X-16.528 Y-3.344
X-16.525 Y-2.975
X-16.422 Y-2.621
X-16.23 Y-2.306
X-15.722 Y-1.771
X-15.067 Y-1.431
X-14.358 Y-1.227
X-13.63 Y-1.109
X-12.895 Y-1.041
X-12.158 Y-1.004
X-11.42 Y-0.983
X-10.683 Y-0.971
X-9.945 Y-0.965
X-9.207 Y-0.962
X-7.732 Y-0.96
X-4.247
X-4.177 Y-0.957
X-4.108 Y-0.947
X-4.04 Y-0.931
X-3.91 Y-0.893
X-3.742 Y-0.847
X-3.407 Y-0.767
X-3.24 Y-0.73
X-1.064 Y-0.465
X-0.562 Y-0.429
X-0.394 Y-0.432
X1.782 Y-0.519
X1.949 Y-0.527
X2.117 Y-0.549
X2.284 Y-0.576
X2.741 Y-0.669
X3.47 Y-0.78
X4.203 Y-0.869
X4.939 Y-0.916
X5.676 Y-0.94
X6.414 Y-0.953
X7.152 Y-0.96
X7.89 Y-0.964
X9.365 Y-0.967
X14.53 Y-0.971
X14.882 Y-1.082
X15.193 Y-1.28
X15.722 Y-1.795
X16.057 Y-2.452
X16.258 Y-3.162
X16.374 Y-3.89
X16.441 Y-4.625
X16.479 Y-5.362
X16.5 Y-6.1
X16.512 Y-6.837
X16.518 Y-7.575
X16.522 Y-8.313
X16.525 Y-9.788
X16.526 Y-13.261
X16.529 Y-13.32
X16.536 Y-13.38
X16.548 Y-13.438
X16.744 Y-14.234
X16.86 Y-14.737
X16.879 Y-14.904
X16.911 Y-15.239
X16.939 Y-15.574
X17.047 Y-16.914
X17.081 Y-17.416
Y-17.584
X17.047 Y-18.086
X16.925 Y-19.593
X16.911 Y-19.761
X16.879 Y-20.096
X16.86 Y-20.263
X16.849 Y-20.313
X16.718 Y-21.039
X16.626 Y-21.772
X16.579 Y-22.508
X16.554 Y-23.245
X16.541 Y-23.983
X16.534 Y-24.721
X16.531 Y-25.458
X16.528 Y-26.934
X16.527 Y-31.73
X16.501 Y-32.098
X16.375 Y-32.445
X16.164 Y-32.748
X15.632 Y-33.258
X14.967 Y-33.579
X14.255 Y-33.771
X13.526 Y-33.882
X12.79 Y-33.946
X12.053 Y-33.981
X11.316 Y-34.001
X10.578 Y-34.012
X9.84 Y-34.018
X9.103 Y-34.022
X7.627 Y-34.025
X4.308 Y-34.026
X4.258 Y-34.028
X4.209 Y-34.033
X4.16 Y-34.041
X2.284 Y-34.424
X2.117 Y-34.451
X1.949 Y-34.473
X1.351 Y-34.498
X-0.394 Y-34.568
X-0.562 Y-34.571
X-1.064 Y-34.535
X-3.24 Y-34.27
X-3.332 Y-34.25
X-3.835 Y-34.164
X-4.569 Y-34.098
X-5.306 Y-34.064
X-6.044 Y-34.046
X-6.782 Y-34.037
X-7.52 Y-34.032
X-8.257 Y-34.029
X-9.733 Y-34.027
X-13.053
X-13.418 Y-33.972
X-13.754 Y-33.819
X-14.044 Y-33.592
X-14.531 Y-33.037
X-14.836 Y-32.365
X-15.018 Y-31.65
X-15.125 Y-30.92
X-15.185 Y-30.185
X-15.22 Y-29.448
X-15.239 Y-28.71
X-15.249 Y-27.973
X-15.255 Y-27.235
X-15.259 Y-26.497
X-15.261 Y-25.269
X-15.27 Y-25.151
X-15.299 Y-25.035
X-15.346 Y-24.926
X-15.507 Y-24.617
X-15.748 Y-24.115
X-15.795 Y-23.992
X-16.482 Y-21.938
X-16.529 Y-21.77
X-16.554 Y-21.672
X-16.633 Y-21.363
X-16.65 Y-21.268
X-16.709 Y-20.903
X-16.977 Y-19.258
X-17 Y-19.091
X-17.027 Y-18.756
X-17.039 Y-18.589
Y-16.411
X-17.027 Y-16.244
X-17 Y-15.909
X-16.977 Y-15.742
X-16.885 Y-15.177
X-16.759 Y-14.402
X-16.65 Y-13.732
X-16.633 Y-13.637
X-16.529 Y-13.23
X-16.482 Y-13.062
X-15.795 Y-11.008
X-15.748 Y-10.885
X-15.69 Y-10.733
X-15.574 Y-10.34
X-15.454 Y-9.767
X-15.361 Y-9.035
X-15.312 Y-8.299
X-15.287 Y-7.562
X-15.273 Y-6.824
X-15.266 Y-6.086
X-15.262 Y-5.348
X-15.26 Y-4.611
X-15.223 Y-4.243
X-15.098 Y-3.897
X-14.894 Y-3.589
X-14.375 Y-3.065
X-13.72 Y-2.725
X-13.012 Y-2.518
X-12.284 Y-2.394
X-11.55 Y-2.323
X-10.813 Y-2.281
X-10.076 Y-2.258
X-9.338 Y-2.245
X-8.6 Y-2.238
X-7.737 Y-2.233
X-7.629 Y-2.225
X-7.523 Y-2.201
X-7.422 Y-2.162
X-6.394 Y-1.674
X-6.253 Y-1.608
X-6.011 Y-1.507
X-5.919 Y-1.478
X-5.416 Y-1.33
X-4.04 Y-0.931
G3 X-3.845 Y-0.768 I-0.088 J0.305
G2 X-3.583 Y-0.594 I0.284 J-0.142
G1 X-3.389 Y-0.58
X1.811 Y-0.22
X1.875 Y-0.222
X1.937 Y-0.237
X1.995 Y-0.264
X2.047 Y-0.302
G3 X2.741 Y-0.669 I1.064 J1.171
G1 X4.381 Y-1.004
X4.628 Y-1.057
X4.795 Y-1.103
X4.963 Y-1.159
X6.469 Y-1.73
X6.95 Y-1.886
X7.454 Y-2.005
X8.183 Y-2.116
X8.919 Y-2.174
X9.656 Y-2.205
X10.394 Y-2.221
X11.131 Y-2.23
X11.869 Y-2.235
X12.976 Y-2.238
X13.34 Y-2.3
X13.676 Y-2.451
X13.971 Y-2.674
X14.47 Y-3.217
X14.79 Y-3.882
X14.984 Y-4.593
X15.099 Y-5.322
X15.166 Y-6.057
X15.205 Y-6.794
X15.227 Y-7.531
X15.24 Y-8.269
X15.247 Y-9.007
X15.251 Y-9.677
X15.258 Y-9.775
X15.277 Y-9.871
X15.31 Y-9.963
X15.987 Y-11.555
X16.179 Y-12.011
X16.194 Y-12.057
X16.331 Y-12.56
X16.548 Y-13.438
G3 X16.702 Y-13.64 I0.308 J0.076
G2 X16.865 Y-13.892 I-0.153 J-0.278
G1 X16.883 Y-14.102
X17.321 Y-19.383
G2 X17.234 Y-19.629 I-0.316 J-0.026
G3 X16.849 Y-20.313 I1.143 J-1.095
G1 X16.744 Y-20.766
X16.331 Y-22.44
X16.194 Y-22.943
X16.179 Y-22.989
X15.917 Y-23.613
X15.845 Y-23.78
X15.667 Y-24.265
X15.55 Y-24.683
X15.429 Y-25.303
X15.347 Y-26.036
X15.304 Y-26.773
X15.282 Y-27.51
X15.27 Y-28.248
X15.264 Y-28.986
X15.26 Y-29.724
X15.259 Y-30.462
X15.2 Y-30.826
X15.051 Y-31.163
X14.831 Y-31.46
X14.29 Y-31.961
X13.626 Y-32.284
X12.915 Y-32.48
X12.187 Y-32.597
X11.452 Y-32.665
X10.715 Y-32.704
X9.978 Y-32.727
X9.24 Y-32.739
X8.502 Y-32.747
X7.854 Y-32.75
X7.739 Y-32.76
X7.627 Y-32.787
X7.52 Y-32.832
X7.474 Y-32.856
X7.192 Y-32.991
X7.139 Y-33.016
X4.963 Y-33.841
X4.795 Y-33.897
X4.628 Y-33.943
X4.381 Y-33.996
X4.16 Y-34.041
X3.39 Y-34.198
X2.284 Y-34.424
X2.117 Y-34.451
X1.949 Y-34.473
X1.782 Y-34.481
X1.615 Y-34.488
X-0.394 Y-34.568
X-0.562 Y-34.571
X-1.064 Y-34.535
X-2.554 Y-34.354
X-3.24 Y-34.27
X-3.332 Y-34.25
X-3.407 Y-34.233
X-3.742 Y-34.153
X-3.91 Y-34.107
X-5.449 Y-33.661
X-5.919 Y-33.522
X-6.011 Y-33.493
X-6.253 Y-33.392
X-6.394 Y-33.326
X-6.641 Y-33.223
X-6.996 Y-33.109
X-7.497 Y-32.99
X-8.227 Y-32.878
X-8.962 Y-32.821
X-9.699 Y-32.79
X-10.437 Y-32.774
X-11.175 Y-32.766
X-11.913 Y-32.762
X-12.261 Y-32.641
X-12.573 Y-32.444
X-13.11 Y-31.938
X-13.462 Y-31.29
X-13.68 Y-30.585
X-13.811 Y-29.859
X-13.888 Y-29.125
X-13.933 Y-28.389
X-13.958 Y-27.651
X-13.961 Y-27.517
X-13.98 Y-27.364
X-14.03 Y-27.219
X-14.109 Y-27.087
X-14.289 Y-26.848
X-14.327 Y-26.795
X-14.627 Y-26.292
X-14.716 Y-26.125
X-15.346 Y-24.926
G3 X-15.935 Y-25.036 I-0.276 J-0.157
G1 X-15.946 Y-25.106 Z-11.488
X-15.956 Y-25.172 Z-11.465
X-15.965 Y-25.231 Z-11.427
X-15.972 Y-25.281 Z-11.376
X-15.978 Y-25.319 Z-11.316
X-15.982 Y-25.342 Z-11.249
X-15.983 Y-25.35 Z-11.179
G0 Z3.004
X-5.631 Y-34.113
Z-10.861
G1 Z-11.179 F1000
X-5.635 Y-34.106 Z-11.249
X-5.648 Y-34.086 Z-11.316
X-5.669 Y-34.055 Z-11.376
X-5.697 Y-34.013 Z-11.427
X-5.731 Y-33.963 Z-11.465
X-5.768 Y-33.908 Z-11.488
X-5.808 Y-33.849 Z-11.496
G3 X-6.394 Y-33.326 I-1.314 J-0.882
G1 X-8.158 Y-32.489
X-8.262 Y-32.437
X-8.493 Y-32.321
X-8.597 Y-32.265
X-8.648 Y-32.231
X-8.777 Y-32.155
X-9.008 Y-32.044
X-9.306 Y-31.929
X-9.713 Y-31.809
X-10.435 Y-31.657
X-10.79 Y-31.559
X-11.118 Y-31.389
X-11.697 Y-30.931
X-12.09 Y-30.307
X-12.341 Y-29.613
X-12.386 Y-29.405
X-12.431 Y-29.265
X-12.502 Y-29.137
X-12.597 Y-29.026
G0 Z3.004
X-8.003 Y-33.117
Z-10.861
G1 Z-11.179 F1000
X-8.006 Y-33.11 Z-11.249
X-8.016 Y-33.089 Z-11.316
X-8.033 Y-33.055 Z-11.376
X-8.055 Y-33.009 Z-11.427
X-8.081 Y-32.955 Z-11.465
X-8.11 Y-32.895 Z-11.488
X-8.141 Y-32.831 Z-11.496
G3 X-8.648 Y-32.231 I-1.425 J-0.689
G1 X-8.765 Y-32.154
X-10.271 Y-31.114
X-10.439 Y-30.996
X-10.908 Y-30.646
X-10.941 Y-30.617
X-12.615 Y-29.009
X-12.651 Y-28.972
X-12.806 Y-28.804
X-12.95 Y-28.63
X-14.109 Y-27.087
G3 X-14.674 Y-27.29 I-0.247 J-0.199
G1 X-14.673 Y-27.36 Z-11.488
X-14.672 Y-27.428 Z-11.465
Y-27.488 Z-11.427
X-14.671 Y-27.538 Z-11.376
Y-27.576 Z-11.316
X-14.67 Y-27.599 Z-11.249
Y-27.607 Z-11.179
G0 Z3.004
X-16.537 Y-11.645
Z-10.861
G1 Z-11.179 F1000
X-16.531 Y-11.641 Z-11.249
X-16.511 Y-11.628 Z-11.316
X-16.48 Y-11.607 Z-11.376
X-16.438 Y-11.579 Z-11.427
X-16.388 Y-11.546 Z-11.465
X-16.332 Y-11.508 Z-11.488
X-16.273 Y-11.469 Z-11.496
G3 X-15.748 Y-10.885 I-0.878 J1.317
G1 X-15.507 Y-10.383
X-14.716 Y-8.875
X-14.627 Y-8.708
X-14.557 Y-8.575
X-14.44 Y-8.279
X-14.321 Y-7.884
X-14.198 Y-7.313
X-14.1 Y-6.582
X-14.048 Y-5.846
X-13.978 Y-5.484
X-13.83 Y-5.146
X-13.614 Y-4.847
X-13.081 Y-4.337
X-12.423 Y-4.004
X-11.714 Y-3.797
X-10.987 Y-3.673
X-10.253 Y-3.599
X-10.027 Y-3.586
X-9.893 Y-3.566
X-9.766 Y-3.522
X-9.649 Y-3.456
G3 X-9.829 Y-2.884 I-0.189 J0.255
G1 X-9.9 Y-2.882 Z-11.488
X-9.967 Y-2.88 Z-11.465
X-10.027 Y-2.878 Z-11.427
X-10.077 Y-2.877 Z-11.376
X-10.115 Y-2.876 Z-11.316
X-10.138 Y-2.875 Z-11.249
X-10.146 Z-11.179
G0 Z3.004
X-15.482 Y-9.393
Z-10.861
G1 Z-11.179 F1000
X-15.475 Y-9.389 Z-11.249
X-15.454 Y-9.378 Z-11.316
X-15.421 Y-9.36 Z-11.376
X-15.377 Y-9.336 Z-11.427
X-15.324 Y-9.308 Z-11.465
X-15.265 Y-9.276 Z-11.488
X-15.203 Y-9.242 Z-11.496
G3 X-14.627 Y-8.708 I-0.754 J1.391
G1 X-14.327 Y-8.205
X-14.289 Y-8.152
X-13.619 Y-7.261
X-13.206 Y-6.65
X-12.769 Y-6.055
X-12.302 Y-5.688
X-12.265 Y-5.655
G3 X-12.28 Y-5.198 I-0.228 J0.221
X-12.735 Y-5.229 I-0.213 J-0.235
G1 X-14.109 Y-6.857
G3 X-14.068 Y-7.306 I0.243 J-0.205
X-13.619 Y-7.261 I0.202 J0.245
G1 X-12.944 Y-6.363
X-12.806 Y-6.196
X-12.651 Y-6.028
X-12.615 Y-5.991
X-10.941 Y-4.383
X-10.908 Y-4.354
X-10.439 Y-4.004
X-10.271 Y-3.886
X-8.764 Y-2.846
X-8.597 Y-2.735
X-8.493 Y-2.679
X-8.262 Y-2.563
X-8.158 Y-2.511
X-7.422 Y-2.162
G3 X-7.508 Y-1.568 I-0.146 J0.282
G1 X-7.577 Y-1.555 Z-11.488
X-7.643 Y-1.542 Z-11.465
X-7.702 Y-1.531 Z-11.427
X-7.751 Y-1.521 Z-11.376
X-7.789 Y-1.514 Z-11.316
X-7.812 Y-1.51 Z-11.249
X-7.819 Y-1.508 Z-11.179
G0 Z3.004
X5.646 Y-1.008
Z-10.861
G1 Z-11.179 F1000
X5.651 Y-1.014 Z-11.249
X5.665 Y-1.032 Z-11.316
X5.689 Y-1.062 Z-11.376
X5.72 Y-1.101 Z-11.427
X5.758 Y-1.148 Z-11.465
X5.799 Y-1.201 Z-11.488
X5.843 Y-1.256 Z-11.496
G3 X6.469 Y-1.73 I1.239 J0.985
G1 X7.139 Y-1.984
X7.306 Y-2.064
X7.474 Y-2.144
X7.537 Y-2.176
X8.646 Y-2.817
X8.836 Y-2.914
X9.113 Y-3.029
X9.479 Y-3.148
X9.996 Y-3.27
X10.726 Y-3.382
X11.461 Y-3.441
X11.828 Y-3.483
X12.179 Y-3.596
X12.496 Y-3.783
X13.049 Y-4.273
X13.416 Y-4.913
X13.646 Y-5.614
X13.786 Y-6.338
X13.869 Y-7.071
X13.892 Y-7.421
X13.911 Y-7.542
X13.949 Y-7.659
X14.006 Y-7.768
G3 X14.585 Y-7.611 I0.262 J0.179
G1 X14.589 Y-7.54 Z-11.488
X14.594 Y-7.473 Z-11.465
X14.598 Y-7.413 Z-11.427
X14.602 Y-7.363 Z-11.376
X14.604 Y-7.325 Z-11.316
X14.606 Y-7.302 Z-11.249
Y-7.294 Z-11.179
G0 Z3.004
X7.949 Y-1.971
Z-10.861
G1 Z-11.179 F1000
X7.952 Y-1.978 Z-11.249
X7.964 Y-1.999 Z-11.316
X7.982 Y-2.032 Z-11.376
X8.007 Y-2.076 Z-11.427
X8.036 Y-2.128 Z-11.465
X8.069 Y-2.187 Z-11.488
X8.104 Y-2.248 Z-11.496
G3 X8.646 Y-2.817 I1.381 J0.774
G1 X9.315 Y-3.203
X9.483 Y-3.305
X9.818 Y-3.527
X9.985 Y-3.656
X10.152 Y-3.792
X10.746 Y-4.23
X11.355 Y-4.647
X11.67 Y-5.023
X11.695 Y-5.051
X11.721 Y-5.078
X11.749 Y-5.103
G3 X12.151 Y-4.612 I0.201 J0.246
G1 X10.563 Y-3.308
G3 X10.152 Y-3.792 I-0.201 J-0.245
G1 X11.492 Y-4.886
X11.659 Y-5.025
X11.826 Y-5.171
X12.004 Y-5.358
X12.161 Y-5.532
X13.5 Y-7.044
X13.63 Y-7.201
X13.668 Y-7.249
X13.75 Y-7.368
X14.003 Y-7.763
X14.918 Y-9.21
X15.007 Y-9.363
X15.191 Y-9.713
X15.274 Y-9.88
X15.31 Y-9.963
G3 X15.906 Y-9.901 I0.288 J0.135
G1 X15.923 Y-9.832 Z-11.488
X15.938 Y-9.767 Z-11.465
X15.952 Y-9.708 Z-11.427
X15.963 Y-9.659 Z-11.376
X15.972 Y-9.623 Z-11.316
X15.977 Y-9.6 Z-11.249
X15.979 Y-9.592 Z-11.179
G0 Z3.004
X16.6 Y-22.986
Z-10.861
G1 Z-11.179 F1000
X16.594 Y-22.991 Z-11.249
X16.575 Y-23.005 Z-11.316
X16.545 Y-23.027 Z-11.376
X16.504 Y-23.057 Z-11.427
X16.455 Y-23.092 Z-11.465
X16.401 Y-23.132 Z-11.488
X16.344 Y-23.174 Z-11.496
G3 X15.845 Y-23.78 I0.934 J-1.277
G1 X15.274 Y-25.12
X15.191 Y-25.287
X15.007 Y-25.637
X14.918 Y-25.79
X14.706 Y-26.125
X14.632 Y-26.255
X14.521 Y-26.496
X14.404 Y-26.817
X14.284 Y-27.249
X14.16 Y-27.893
X14.08 Y-28.626
X14.037 Y-29.363
X13.912 Y-29.71
X13.716 Y-30.023
X13.216 Y-30.565
X12.572 Y-30.925
X11.87 Y-31.151
X11.145 Y-31.289
X10.412 Y-31.371
X10.12 Y-31.39
X9.993 Y-31.409
X9.871 Y-31.451
X9.759 Y-31.512
G3 X9.929 Y-32.087 I0.185 J-0.258
G1 X9.999 Y-32.091 Z-11.488
X10.066 Y-32.094 Z-11.465
X10.126 Y-32.097 Z-11.427
X10.177 Y-32.099 Z-11.376
X10.214 Y-32.101 Z-11.316
X10.238 Y-32.102 Z-11.249
X10.246 Z-11.179
G0 Z3.004
X15.579 Y-25.462
Z-10.861
G1 Z-11.179 F1000
X15.572 Y-25.466 Z-11.249
X15.551 Y-25.476 Z-11.316
X15.517 Y-25.494 Z-11.376
X15.472 Y-25.516 Z-11.427
X15.418 Y-25.544 Z-11.465
X15.359 Y-25.574 Z-11.488
X15.296 Y-25.606 Z-11.496
G3 X14.706 Y-26.125 I0.717 J-1.411
G1 X13.965 Y-27.297
X13.75 Y-27.632
X13.668 Y-27.751
X13.63 Y-27.799
X13.189 Y-28.391
X12.74 Y-28.977
X12.389 Y-29.235
X12.349 Y-29.267
X12.31 Y-29.302
X12.274 Y-29.34
G3 X12.758 Y-29.752 I0.245 J-0.202
G1 X14.106 Y-28.22
G3 X13.63 Y-27.799 I-0.238 J0.21
G1 X13.491 Y-27.967
X12.156 Y-29.474
X11.994 Y-29.652
X11.826 Y-29.829
X11.658 Y-29.977
X11.455 Y-30.144
X9.985 Y-31.344
X9.818 Y-31.473
X9.483 Y-31.695
X9.315 Y-31.797
X7.537 Y-32.824
X7.52 Y-32.832
G3 X7.625 Y-33.423 I0.155 J-0.277
G1 X7.694 Y-33.434 Z-11.488
X7.761 Y-33.444 Z-11.465
X7.82 Y-33.454 Z-11.427
X7.87 Y-33.462 Z-11.376
X7.907 Y-33.468 Z-11.316
X7.93 Y-33.472 Z-11.249
X7.938 Y-33.473 Z-11.179
G0 Z3

(Radial1)
Z15
X15.197 Y-17.5
Z-1
G1 Z-2.8 F1000
G18 G3 X14.997 Z-3 I-0.2
G1 X11.5
X9.996 Z-4.5
Z-7
X6.001 Z-7.35
X5.998 Z-12
X5.96 Z-11.992
X5.927 Z-11.971
X5.906 Z-11.938
X5.898 Z-11.9
X5.891 Z-11.862
X5.869 Z-11.829
X5.836 Z-11.808
X5.798 Z-11.8
X4.205
X4.167 Z-11.808
X4.135 Z-11.829
X4.113 Z-11.862
X4.105 Z-11.9
X4.098 Z-11.938
X4.076 Z-11.971
X4.044 Z-11.992
X4.005 Z-12
X4.004 Z-7.699
X3.922 Z-7.688
X3.597 Z-7.667
X2.978 Z-7.665
X2.042 Z-7.697
X0 Z-7.875
X2.099 Y-17.39 Z-7.693
X3.056 Y-17.34 Z-7.653
X3.692 Y-17.306 Z-7.651
X3.959 Y-17.293 Z-7.671
X4.027 Y-17.289 Z-7.689
X4.031 Z-7.692
X4.033 Z-12
X4.072 Y-17.287 Z-11.992
X4.104 Y-17.285 Z-11.971
X4.126 Y-17.284 Z-11.938
X4.133 Y-17.283 Z-11.9
X4.141 Z-11.862
X4.162 Y-17.282 Z-11.829
X4.195 Y-17.28 Z-11.808
X4.233 Y-17.278 Z-11.8
X5.742 Y-17.199
X5.781 Y-17.197 Z-11.808
X5.813 Y-17.195 Z-11.829
X5.835 Y-17.194 Z-11.862
X5.842 Z-11.9
X5.85 Y-17.193 Z-11.938
X5.871 Y-17.192 Z-11.971
X5.904 Y-17.191 Z-11.992
X5.942 Y-17.189 Z-12
X5.947 Y-17.188 Z-7.355
X9.984 Y-16.977 Z-7
Z-4.5
X11.485 Y-16.898 Z-3
X14.978 Y-16.715
X15.001 Y-16.714 Z-2.997
X15.022 Y-16.713 Z-2.99
X15.044 Y-16.712 Z-2.982
X15.066 Y-16.71 Z-2.98
G17 G3 X15.35 Y-16.395 I-0.016 J0.3
G1 X15.34 Y-16.208
G3 X15.025 Y-15.924 I-0.3 J-0.016
G1 X15.011 Y-15.925
X14.988 Y-15.926 Z-2.982
X14.967 Y-15.927 Z-2.99
X14.945 Y-15.929 Z-2.997
X14.923 Y-15.932 Z-3
X11.436 Y-16.298
X9.947 Y-16.455 Z-4.498
X9.945 Z-7
X5.864 Y-16.884 Z-7.359
X5.782 Y-16.892 Z-7.375
X5.776 Y-16.893 Z-12
X5.738 Y-16.897 Z-11.992
X5.706 Y-16.9 Z-11.971
X5.684 Y-16.903 Z-11.938
X5.677 Z-11.9
X5.669 Y-16.904 Z-11.862
X5.648 Y-16.906 Z-11.829
X5.615 Y-16.91 Z-11.808
X5.577 Y-16.914 Z-11.8
X4.311 Y-17.047
X4.273 Y-17.051 Z-11.808
X4.241 Y-17.054 Z-11.829
X4.22 Y-17.057 Z-11.862
X4.212 Z-11.9
X4.204 Y-17.058 Z-11.938
X4.183 Y-17.06 Z-11.971
X4.151 Y-17.064 Z-11.992
X4.113 Y-17.068 Z-12
X4.11 Z-7.667
X4.103 Y-17.069 Z-7.661
X4.023 Y-17.077 Z-7.641
X3.759 Y-17.105 Z-7.628
X3.164 Y-17.167 Z-7.638
X2.151 Y-17.274 Z-7.687
X0 Y-17.5 Z-7.875
X2.257 Y-17.142 Z-7.677
X3.431 Y-16.957 Z-7.612
X3.926 Y-16.878 Z-7.597
X4.22 Y-16.832 Z-7.603
X4.286 Y-16.821 Z-7.621
X4.292 Y-16.82 Z-12
X4.329 Y-16.814 Z-11.992
X4.361 Y-16.809 Z-11.971
X4.383 Y-16.806 Z-11.938
X4.39 Y-16.805 Z-11.9
X4.398 Y-16.803 Z-11.862
X4.419 Y-16.8 Z-11.829
X4.451 Y-16.795 Z-11.808
X4.489 Y-16.789 Z-11.8
X5.264 Y-16.666
X5.301 Y-16.66 Z-11.808
X5.333 Y-16.655 Z-11.829
X5.355 Y-16.652 Z-11.862
X5.362 Y-16.651 Z-11.9
X5.37 Y-16.649 Z-11.938
X5.391 Y-16.646 Z-11.971
X5.423 Y-16.641 Z-11.992
X5.461 Y-16.635 Z-12
X5.469 Y-16.634 Z-7.415
X5.542 Y-16.622 Z-7.391
X5.738 Y-16.591 Z-7.367
X9.874 Y-15.936 Z-7
X9.878 Z-4.497
X11.356 Y-15.701 Z-3
X14.824 Y-15.152
X14.846 Y-15.149 Z-2.997
X14.867 Y-15.145 Z-2.99
X14.889 Y-15.142 Z-2.982
X14.911 Y-15.138 Z-2.98
G3 X15.16 Y-14.795 I-0.047 J0.296
G1 X15.131 Y-14.61
G3 X14.788 Y-14.361 I-0.296 J-0.047
G1 X14.76 Y-14.365
X14.738 Y-14.369 Z-2.982
X14.717 Y-14.372 Z-2.99
X14.696 Y-14.376 Z-2.997
X14.674 Y-14.381 Z-3
X11.247 Y-15.109
X9.78 Y-15.421 Z-4.498
X9.778 Y-15.422 Z-7
X5.95 Y-16.235 Z-7.343
X5.297 Y-16.374 Z-7.404
X4.847 Y-16.47 Z-7.477
X4.485 Y-16.547 Z-7.524
X2.365 Y-16.997 Z-7.665
X0 Y-17.5 Z-7.875
X2.548 Y-16.817 Z-7.646
X4.107 Y-16.399 Z-7.522
X5.272 Y-16.087 Z-7.397
X9.655 Y-14.913 Z-7
Z-4.499
X11.105 Y-14.524 Z-3
X14.489 Y-13.618
X14.51 Y-13.612 Z-2.997
X14.531 Y-13.606 Z-2.99
X14.552 Y-13.601 Z-2.982
X14.574 Y-13.595 Z-2.98
G3 X14.786 Y-13.228 I-0.078 J0.29
G1 X14.737 Y-13.047
G3 X14.37 Y-12.835 I-0.29 J-0.078
G1 X14.348 Y-12.841
X14.326 Y-12.846 Z-2.982
X14.305 Y-12.852 Z-2.99
X14.285 Y-12.859 Z-2.997
X14.263 Y-12.866 Z-3
X10.935 Y-13.947
X9.506 Y-14.411 Z-4.5
Z-7
X5.331 Y-15.768 Z-7.384
X4.234 Y-16.124 Z-7.489
X2.846 Y-16.575 Z-7.616
X0 Y-17.5 Z-7.875
X9.331 Y-13.918 Z-7
X9.334 Y-13.917 Z-4.497
X10.733 Y-13.38 Z-3
X14.008 Y-12.123
X14.029 Y-12.115 Z-2.997
X14.049 Y-12.107 Z-2.99
X14.069 Y-12.099 Z-2.982
X14.09 Y-12.091 Z-2.98
G3 X14.263 Y-11.704 I-0.108 J0.28
G1 X14.195 Y-11.528
G3 X13.808 Y-11.356 I-0.28 J-0.108
G1 X13.791 Y-11.362
X13.77 Y-11.37 Z-2.982
X13.75 Y-11.378 Z-2.99
X13.731 Y-11.387 Z-2.997
X13.71 Y-11.396 Z-3
X10.502 Y-12.824
X9.134 Y-13.433 Z-4.498
X9.132 Y-13.434 Z-7
X0 Y-17.5 Z-7.875
X8.908 Y-12.961 Z-7
Z-4.5
X10.244 Y-12.28 Z-3
X13.364 Y-10.691
X13.384 Y-10.681 Z-2.997
X13.403 Y-10.671 Z-2.99
X13.422 Y-10.661 Z-2.982
X13.442 Y-10.651 Z-2.98
G3 X13.573 Y-10.247 I-0.136 J0.267
G1 X13.488 Y-10.081
G3 X13.085 Y-9.95 I-0.267 J-0.136
G1 X13.064 Y-9.96
X13.044 Y-9.97 Z-2.982
X13.025 Y-9.98 Z-2.99
X13.006 Y-9.991 Z-2.997
X12.987 Y-10.002 Z-3
X9.956 Y-11.752
X8.662 Y-12.499 Z-4.498
X8.66 Y-12.5 Z-7
X0 Y-17.5 Z-7.875
X8.385 Y-12.055 Z-7
Z-4.5
X9.642 Y-11.239 Z-3
X12.585 Y-9.328
X12.603 Y-9.315 Z-2.997
X12.621 Y-9.304 Z-2.99
X12.639 Y-9.292 Z-2.982
X12.658 Y-9.28 Z-2.98
G3 X12.747 Y-8.865 I-0.163 J0.252
G1 X12.644 Y-8.707
G3 X12.229 Y-8.619 I-0.252 J-0.163
G1 X12.21 Y-8.631
X12.191 Y-8.644 Z-2.982
X12.173 Y-8.655 Z-2.99
X12.156 Y-8.668 Z-2.997
X12.138 Y-8.681 Z-3
X9.303 Y-10.741
X8.089 Y-11.623 Z-4.498
X8.087 Y-11.624 Z-7
X0 Y-17.5 Z-7.875
X7.768 Y-11.21 Z-7
X7.77 Y-11.208 Z-4.497
X8.937 Y-10.263 Z-3
X11.662 Y-8.056
X11.68 Y-8.042 Z-2.997
X11.696 Y-8.028 Z-2.99
X11.713 Y-8.015 Z-2.982
X11.731 Y-8.001 Z-2.98
G3 X11.775 Y-7.579 I-0.189 J0.233
G1 X11.657 Y-7.433
G3 X11.235 Y-7.389 I-0.233 J-0.189
G1 X11.218 Y-7.402
