%
(button_#4)
(T1  D=1.9 CR=0 - ZMIN=-12 - flat end mill)
G90 G94
G17
G21
G28 G91 Z0
G90

(Adaptive3)
M9
T1 M6
S5000 M3
G54
M8
G0 X-17.754 Y-37.728
Z3.004
Z-3.616
G1 Z-3.806 F1000
X-17.752 Y-37.721 Z-3.855
X-17.747 Y-37.703 Z-3.901
X-17.74 Y-37.674 Z-3.94
X-17.73 Y-37.636 Z-3.971
X-17.719 Y-37.591 Z-3.99
X-17.706 Y-37.544 Z-3.996
G3 X-17.483 Y-35.989 I-7.063 J1.809
G1 Y-35.839
X-17.605 Y-35.238
X-17.649 Y-34.626
X-17.664 Y-34.013
X-17.67 Y-33.4
X-17.672 Y-32.786
Y-29.72
X-17.673 Y-0.896
X-17.644 Y-0.745
X-17.571 Y-0.611
X-17.374 Y-0.375
X-17.119 Y-0.205
X-16.554 Y0.034
X-15.948 Y0.124
X-15.335 Y0.156
X-14.722 Y0.167
X-14.109 Y0.17
X-12.882 Y0.172
X-3.07 Y0.173
X16.555
X16.708 Y0.17
X16.852 Y0.115
X17.097 Y-0.069
X17.275 Y-0.319
X17.525 Y-0.879
X17.62 Y-1.485
X17.653 Y-2.097
X17.664 Y-2.71
X17.667 Y-3.324
X17.668 Y-4.55
X17.648 Y-30.308
X17.645 Y-34.141
X17.607 Y-34.29
X17.53 Y-34.422
X17.328 Y-34.653
X17.07 Y-34.819
X16.503 Y-35.052
X15.896 Y-35.14
X15.284 Y-35.171
X14.671 Y-35.181
X14.057 Y-35.185
X12.831 Y-35.186
X-15.84 Y-35.174
X-15.988 Y-35.133
X-16.254 Y-34.981
X-16.452 Y-34.747
X-16.737 Y-34.204
X-16.849 Y-33.601
X-16.89 Y-32.989
X-16.905 Y-32.376
X-16.91 Y-31.763
X-16.912 Y-31.149
X-16.913 Y-28.083
Y-23.177
Y-1.865
X-16.882 Y-1.715
X-16.77 Y-1.43
X-16.57 Y-1.197
X-16.32 Y-1.02
X-15.764 Y-0.761
X-15.16 Y-0.654
X-14.548 Y-0.612
X-13.935 Y-0.597
X-13.322 Y-0.591
X-12.709 Y-0.589
X-10.256 Y-0.588
X11.823 Y-0.587
X15.656
X15.805 Y-0.62
X15.948 Y-0.676
X16.207 Y-0.839
X16.409 Y-1.07
X16.707 Y-1.606
X16.832 Y-2.207
X16.881 Y-2.818
X16.899 Y-3.431
X16.905 Y-4.044
X16.907 Y-4.658
Y-6.498
X16.885 Y-33.175
X16.813 Y-33.473
X16.644 Y-33.729
X16.411 Y-33.929
X15.873 Y-34.223
X15.273 Y-34.348
X14.661 Y-34.397
X14.048 Y-34.415
X13.435 Y-34.422
X12.822 Y-34.424
X10.982 Y-34.425
X4.236 Y-34.422
X-14.776 Y-34.414
X-14.929 Y-34.403
X-15.077 Y-34.364
X-15.356 Y-34.236
X-15.58 Y-34.027
X-15.914 Y-33.513
X-16.059 Y-32.917
X-16.117 Y-32.306
X-16.139 Y-31.693
X-16.148 Y-31.08
X-16.151 Y-30.467
X-16.152 Y-29.24
X-16.153 Y-20.391
Y-20.367
X-16.155 Y-20.343
X-16.158 Y-20.319
X-16.345 Y-19.169
X-16.364 Y-19.03
X-16.391 Y-18.752
X-16.401 Y-18.613
Y-16.387
X-16.391 Y-16.248
X-16.364 Y-15.97
X-16.345 Y-15.831
X-16.278 Y-15.414
X-16.21 Y-14.805
X-16.172 Y-14.192
X-16.159 Y-13.579
X-16.155 Y-12.966
X-16.153 Y-11.739
Y-2.847
X-16.149 Y-2.694
X-16.089 Y-2.393
X-15.94 Y-2.125
X-15.719 Y-1.912
X-15.198 Y-1.589
X-14.602 Y-1.445
X-13.991 Y-1.386
X-13.379 Y-1.362
X-12.765 Y-1.353
X-12.152 Y-1.35
X-10.926 Y-1.348
X-3.051 Y-1.347
X-3.029
X-3.007 Y-1.345
X-2.986 Y-1.343
X-2.92 Y-1.333
X-1.113 Y-1.113
X-0.695 Y-1.066
X-0.556 Y-1.068
X-0.278 Y-1.075
X0.278 Y-1.097
X1.53 Y-1.147
X1.669 Y-1.154
X1.947 Y-1.174
X2.086 Y-1.187
X2.225 Y-1.215
X2.692 Y-1.285
X3.304 Y-1.326
X3.917 Y-1.34
X4.53 Y-1.345
X5.144 Y-1.346
X9.437 Y-1.347
X14.649
X14.956 Y-1.356
X15.243 Y-1.463
X15.484 Y-1.653
X15.672 Y-1.895
X15.951 Y-2.441
X16.071 Y-3.043
X16.119 Y-3.654
X16.137 Y-4.267
X16.144 Y-4.88
X16.146 Y-5.494
X16.147 Y-6.72
X16.141 Y-14.4
X16.142 Y-14.434
X16.146 Y-14.467
X16.152 Y-14.5
X16.17 Y-14.58
X16.227 Y-14.858
X16.253 Y-14.997
X16.432 Y-17.222
X16.437 Y-17.361
Y-17.639
X16.432 Y-17.778
X16.253 Y-20.003
X16.238 Y-20.08
X16.184 Y-20.481
X16.152 Y-21.093
X16.14 Y-21.706
X16.136 Y-22.32
X16.133 Y-23.546
X16.126 Y-32.439
X16.029 Y-32.73
X15.847 Y-32.977
X15.609 Y-33.17
X15.068 Y-33.459
X14.468 Y-33.584
X13.857 Y-33.634
X13.244 Y-33.654
X12.63 Y-33.661
X12.017 Y-33.664
X10.791 Y-33.665
X2.876 Y-33.662
X2.847 Y-33.663
X2.817 Y-33.666
X2.788 Y-33.671
X2.086 Y-33.813
X1.947 Y-33.826
X1.669 Y-33.846
X1.53 Y-33.853
X-0.139 Y-33.92
X-0.278 Y-33.925
X-0.556 Y-33.932
X-0.695 Y-33.934
X-1.113 Y-33.887
X-2.086 Y-33.769
X-3.309 Y-33.681
X-3.923 Y-33.666
X-4.536 Y-33.661
X-5.149 Y-33.659
X-8.829 Y-33.657
X-14.042 Y-33.654
X-14.343 Y-33.598
X-14.611 Y-33.45
X-14.827 Y-33.231
X-15.152 Y-32.711
X-15.296 Y-32.115
X-15.355 Y-31.505
X-15.378 Y-30.892
X-15.387 Y-30.279
X-15.39 Y-29.666
X-15.392 Y-28.439
X-15.393 Y-23.259
X-15.395 Y-23.212
X-15.403 Y-23.165
X-15.415 Y-23.119
X-15.806 Y-21.95
X-15.853 Y-21.804
X-15.981 Y-21.394
X-16.074 Y-20.838
X-16.158 Y-20.319
X-16.159 Y-20.317
G2 X-16.507 Y-19.04 I7.124 J2.625
G1 X-16.51 Y-19.011
X-16.565 Y-16.737
X-16.563 Y-16.708
G2 X-16.278 Y-15.415 I7.528 J-0.984
G1 Y-15.414
X-16.051 Y-14.023
X-15.981 Y-13.606
X-15.851 Y-13.189
X-15.713 Y-12.772
X-15.666 Y-12.633
X-15.567 Y-12.276
X-15.495 Y-11.907
X-15.427 Y-11.298
X-15.404 Y-10.685
X-15.397 Y-10.072
X-15.394 Y-9.459
X-15.393 Y-7.619
Y-3.632
X-15.384 Y-3.326
X-15.28 Y-3.037
X-15.093 Y-2.794
X-14.853 Y-2.603
X-14.311 Y-2.316
X-13.711 Y-2.191
X-13.1 Y-2.14
X-12.487 Y-2.12
X-11.873 Y-2.112
X-11.26 Y-2.109
X-10.034 Y-2.108
X-5.867 Y-2.107
X-5.817 Y-2.105
X-5.768 Y-2.096
X-5.721 Y-2.083
X-5.702 Y-2.076
X-3.477 Y-1.431
X-3.338 Y-1.402
X-3.059 Y-1.354
X-2.986 Y-1.343
X-2.983 Y-1.342
G2 X-1.571 Y-0.976 I2.798 J-7.891
G1 X-1.544 Y-0.973
X0.768 Y-0.917
X0.795 Y-0.918
G2 X2.224 Y-1.215 I-0.98 J-8.315
G1 X2.225
X4.341 Y-1.647
X4.45 Y-1.67
X4.589 Y-1.706
X4.817 Y-1.786
X4.867 Y-1.805
X5.156 Y-1.898
X5.455 Y-1.969
X5.93 Y-2.041
X6.542 Y-2.085
X7.155 Y-2.1
X7.768 Y-2.105
X8.381 Y-2.106
X12.061 Y-2.107
X13.901
X14.207 Y-2.124
X14.49 Y-2.241
X14.727 Y-2.436
X14.913 Y-2.68
X15.189 Y-3.228
X15.308 Y-3.829
X15.357 Y-4.44
X15.376 Y-5.053
X15.383 Y-5.667
X15.385 Y-6.28
X15.386 Y-7.507
X15.383 Y-11.671
X15.387 Y-11.73
X15.398 Y-11.788
X15.418 Y-11.844
X15.575 Y-12.216
X15.615 Y-12.355
X15.691 Y-12.633
X15.727 Y-12.772
X16.146 Y-14.473
X16.152 Y-14.5
X16.153 Y-14.502
G2 X16.556 Y-15.674 I-6.493 J-2.889
G1 X16.561 Y-15.717
X16.61 Y-18.851
X16.606 Y-18.894
G2 X16.239 Y-20.077 I-6.946 J1.503
G1 X16.238 Y-20.08
X16.227 Y-20.142
X16.17 Y-20.42
X16.132 Y-20.586
X15.714 Y-22.279
X15.691 Y-22.367
X15.615 Y-22.645
X15.575 Y-22.784
X15.534 Y-22.928
X15.461 Y-23.334
X15.402 Y-23.944
X15.382 Y-24.557
X15.375 Y-25.171
X15.372 Y-25.784
X15.369 Y-28.237
X15.367 Y-31.61
X15.284 Y-31.905
X15.117 Y-32.162
X14.889 Y-32.368
X14.358 Y-32.675
X13.761 Y-32.812
X13.15 Y-32.869
X12.537 Y-32.891
X11.924 Y-32.9
X11.311 Y-32.903
X10.084 Y-32.904
X5.72 Y-32.903
X5.666 Y-32.906
X5.614 Y-32.916
X5.563 Y-32.932
X4.817 Y-33.214
X4.589 Y-33.294
X4.45 Y-33.33
X4.311 Y-33.36
X2.788 Y-33.671
X2.785
G2 X2.238 Y-33.871 I-2.559 J6.167
G1 X2.185 Y-33.88
X2.039 Y-33.883
X-1.329 Y-33.95
X-1.475 Y-33.953
X-1.528 Y-33.947
G2 X-2.083 Y-33.769 I1.754 J6.443
G1 X-2.086
X-2.92 Y-33.667
X-3.059 Y-33.646
X-3.338 Y-33.598
X-3.477 Y-33.569
X-5.006 Y-33.125
X-5.384 Y-33.036
X-5.861 Y-32.963
X-6.473 Y-32.92
X-7.086 Y-32.905
X-7.7 Y-32.9
X-8.313 Y-32.898
X-11.993 Y-32.895
X-13.219
X-13.523 Y-32.852
X-13.799 Y-32.72
X-14.025 Y-32.513
X-14.368 Y-32.004
X-14.524 Y-31.411
X-14.589 Y-30.801
X-14.616 Y-30.188
X-14.626 Y-29.575
X-14.63 Y-28.962
X-14.632 Y-27.735
X-14.633 Y-25.022
X-14.638 Y-24.951
X-14.655 Y-24.882
X-14.683 Y-24.816
X-15.02 Y-24.175
X-15.081 Y-24.036
X-15.197 Y-23.758
X-15.248 Y-23.619
X-15.415 Y-23.119
G0 Z3.004
X-16.259 Y-13.402
Z-3.616
G1 Z-3.806 F1000
X-16.254 Y-13.397 Z-3.855
X-16.239 Y-13.385 Z-3.901
X-16.217 Y-13.365 Z-3.94
X-16.187 Y-13.339 Z-3.971
X-16.152 Y-13.31 Z-3.99
X-16.115 Y-13.277 Z-3.996
G3 X-15.666 Y-12.633 I-1.034 J1.198
G1 X-15.248 Y-11.381
X-15.197 Y-11.242
X-15.081 Y-10.964
X-15.019 Y-10.824
X-14.946 Y-10.665
X-14.878 Y-10.482
X-14.808 Y-10.231
X-14.736 Y-9.861
X-14.668 Y-9.251
X-14.645 Y-8.639
X-14.637 Y-8.025
X-14.634 Y-7.412
X-14.633 Y-5.572
Y-4.346
X-14.609 Y-4.04
X-14.487 Y-3.758
X-14.29 Y-3.524
X-14.044 Y-3.341
X-13.495 Y-3.067
X-12.893 Y-2.948
X-12.282 Y-2.899
X-11.669 Y-2.88
X-11.056 Y-2.872
X-10.442 Y-2.869
X-9.216 Y-2.868
X-7.522
X-7.456 Y-2.863
X-7.393 Y-2.848
X-7.332 Y-2.825
X-5.98 Y-2.184
X-5.841 Y-2.125
X-5.721 Y-2.083
G3 X-5.858 Y-1.729 I-0.069 J0.177
X-5.975 Y-1.866 I0.069 J-0.177
G1 X-5.986 Y-1.915 Z-3.99
X-5.995 Y-1.959 Z-3.971
X-6.003 Y-1.998 Z-3.94
X-6.009 Y-2.027 Z-3.901
X-6.013 Y-2.046 Z-3.855
X-6.015 Y-2.052 Z-3.806
G0 Z3.004
X4.123 Y-1.182
Z-3.616
G1 Z-3.806 F1000
X4.127 Y-1.187 Z-3.855
X4.139 Y-1.202 Z-3.901
X4.158 Y-1.225 Z-3.94
X4.182 Y-1.256 Z-3.971
X4.211 Y-1.292 Z-3.99
X4.241 Y-1.331 Z-3.996
G3 X4.867 Y-1.805 I1.239 J0.985
G1 X6.814 Y-2.543
X6.953 Y-2.597
X7.094 Y-2.647
X7.381 Y-2.718
X7.827 Y-2.791
X8.438 Y-2.841
X9.051 Y-2.858
X9.665 Y-2.864
X10.278 Y-2.866
X12.731 Y-2.867
X13.344
X13.637 Y-2.959
X13.891 Y-3.131
X14.094 Y-3.361
X14.398 Y-3.894
X14.534 Y-4.492
X14.59 Y-5.102
X14.613 Y-5.715
X14.621 Y-6.328
X14.624 Y-6.942
X14.625 Y-8.168
X14.624 Y-9.89
X14.628 Y-9.95
X14.64 Y-10.009
X14.66 Y-10.065
X15.418 Y-11.844
G3 X15.762 Y-11.683 I0.172 J0.08
X15.617 Y-11.575 I-0.172 J-0.08
G1 X15.569 Y-11.568 Z-3.99
X15.523 Y-11.562 Z-3.971
X15.484 Y-11.556 Z-3.94
X15.454 Y-11.552 Z-3.901
X15.436 Y-11.549 Z-3.855
X15.429 Y-11.548 Z-3.806
G0 Z3.004
X16.226 Y-22.063
Z-3.616
G1 Z-3.806 F1000
X16.22 Y-22.067 Z-3.855
X16.205 Y-22.078 Z-3.901
X16.181 Y-22.096 Z-3.94
X16.149 Y-22.12 Z-3.971
X16.112 Y-22.147 Z-3.99
X16.073 Y-22.176 Z-3.996
G3 X15.575 Y-22.784 I0.938 J-1.275
G1 X15.28 Y-23.48
X14.925 Y-24.314
X14.858 Y-24.496
X14.787 Y-24.748
X14.715 Y-25.123
X14.646 Y-25.732
X14.623 Y-26.345
X14.614 Y-26.958
X14.611 Y-27.571
X14.608 Y-29.411
X14.607 Y-30.638
X14.591 Y-30.944
X14.48 Y-31.229
X14.289 Y-31.47
X14.046 Y-31.657
X13.502 Y-31.939
X12.901 Y-32.062
X12.29 Y-32.113
X11.677 Y-32.132
X11.063 Y-32.14
X10.45 Y-32.143
X9.224 Y-32.144
X7.557
X7.48 Y-32.15
X7.406 Y-32.17
X7.336 Y-32.202
X7.092 Y-32.341
X7.01 Y-32.38
X6.953 Y-32.403
X6.119 Y-32.721
X5.563 Y-32.932
G3 X5.71 Y-33.282 I0.074 J-0.175
X5.823 Y-33.141 I-0.074 J0.175
G1 X5.832 Y-33.093 Z-3.99
X5.84 Y-33.048 Z-3.971
X5.847 Y-33.009 Z-3.94
X5.853 Y-32.979 Z-3.901
X5.856 Y-32.961 Z-3.855
X5.857 Y-32.954 Z-3.806
G0 Z3.004
X-4.214 Y-33.686
Z-3.616
G1 Z-3.806 F1000
X-4.219 Y-33.682 Z-3.855
X-4.232 Y-33.668 Z-3.901
X-4.252 Y-33.646 Z-3.94
X-4.279 Y-33.617 Z-3.971
X-4.311 Y-33.584 Z-3.99
X-4.344 Y-33.548 Z-3.996
G3 X-5.006 Y-33.125 I-1.155 J-1.082
G1 X-5.702 Y-32.924
X-5.841 Y-32.875
X-5.98 Y-32.816
X-6.607 Y-32.519
X-6.854 Y-32.417
X-7.066 Y-32.348
X-7.368 Y-32.277
X-7.848 Y-32.203
X-8.459 Y-32.159
X-9.072 Y-32.144
X-9.686 Y-32.139
X-10.299 Y-32.137
X-12.445 Y-32.135
X-12.749 Y-32.095
X-13.027 Y-31.965
X-13.255 Y-31.759
X-13.602 Y-31.254
X-13.761 Y-30.662
X-13.828 Y-30.052
X-13.855 Y-29.439
X-13.866 Y-28.826
X-13.87 Y-28.213
X-13.871 Y-27.6
X-13.872 Y-26.453
X-13.88 Y-26.373
X-13.901 Y-26.296
X-13.936 Y-26.224
X-13.998 Y-26.122
X-14.683 Y-24.816
G3 X-15.013 Y-25.004 I-0.165 J-0.094
X-14.86 Y-25.1 I0.165 J0.094
G1 X-14.811 Y-25.103 Z-3.99
X-14.765 Y-25.106 Z-3.971
X-14.726 Y-25.108 Z-3.94
X-14.696 Y-25.11 Z-3.901
X-14.677 Y-25.111 Z-3.855
X-14.67 Z-3.806
G0 Z3.004
X-5.915 Y-33.2
Z-3.616
G1 Z-3.806 F1000
X-5.919 Y-33.194 Z-3.855
X-5.929 Y-33.179 Z-3.901
X-5.946 Y-33.154 Z-3.94
X-5.968 Y-33.121 Z-3.971
X-5.994 Y-33.083 Z-3.99
X-6.021 Y-33.042 Z-3.996
G3 X-6.607 Y-32.519 I-1.314 J-0.882
G1 X-7.927 Y-31.893
X-8.066 Y-31.822
X-8.228 Y-31.736
X-8.384 Y-31.669
X-8.592 Y-31.6
X-8.883 Y-31.527
X-9.331 Y-31.454
X-9.943 Y-31.403
X-10.556 Y-31.385
X-11.169 Y-31.379
X-11.782 Y-31.376
X-12.08 Y-31.304
X-12.342 Y-31.146
X-12.552 Y-30.922
X-12.872 Y-30.398
X-13.014 Y-29.802
X-13.073 Y-29.191
X-13.097 Y-28.579
X-13.106 Y-27.965
X-13.109 Y-27.502
X-13.12 Y-27.408
X-13.15 Y-27.319
X-13.198 Y-27.238
G3 X-13.494 Y-27.477 I-0.148 J-0.119
X-13.327 Y-27.547 I0.148 J0.119
G1 X-13.278 Y-27.542 Z-3.99
X-13.232 Y-27.537 Z-3.971
X-13.193 Y-27.533 Z-3.94
X-13.163 Y-27.53 Z-3.901
X-13.144 Y-27.528 Z-3.855
X-13.138 Z-3.806
G0 Z3.004
X-7.439 Y-32.563
Z-3.616
G1 Z-3.806 F1000
X-7.442 Y-32.557 Z-3.855
X-7.451 Y-32.541 Z-3.901
X-7.466 Y-32.514 Z-3.94
X-7.485 Y-32.48 Z-3.971
X-7.507 Y-32.439 Z-3.99
X-7.53 Y-32.396 Z-3.996
G3 X-8.066 Y-31.822 I-1.389 J-0.758
G1 X-8.344 Y-31.657
X-8.483 Y-31.574
X-9.128 Y-31.128
X-9.264 Y-31.044
X-9.398 Y-30.976
X-9.57 Y-30.905
X-9.798 Y-30.832
X-10.114 Y-30.757
X-10.614 Y-30.682
X-10.92 Y-30.66
X-11.222 Y-30.61
X-11.499 Y-30.477
X-11.726 Y-30.271
X-12.075 Y-29.767
X-12.236 Y-29.175
X-12.305 Y-28.566
X-12.306 Y-28.546
X-12.321 Y-28.452
X-12.354 Y-28.364
X-12.406 Y-28.285
G3 X-12.692 Y-28.536 I-0.143 J-0.125
X-12.522 Y-28.599 I0.143 J0.125
G1 X-12.473 Y-28.592 Z-3.99
X-12.428 Y-28.585 Z-3.971
X-12.389 Y-28.58 Z-3.94
X-12.359 Y-28.575 Z-3.901
X-12.34 Y-28.573 Z-3.855
X-12.334 Y-28.572 Z-3.806
G0 Z3.004
X-8.554 Y-31.911
Z-3.616
G1 Z-3.806 F1000
X-8.557 Y-31.905 Z-3.855
X-8.565 Y-31.888 Z-3.901
X-8.578 Y-31.861 Z-3.94
X-8.594 Y-31.825 Z-3.971
X-8.613 Y-31.783 Z-3.99
X-8.634 Y-31.739 Z-3.996
G3 X-9.128 Y-31.128 I-1.438 J-0.66
G1 X-10.291 Y-30.326
X-10.796 Y-29.978
X-11.196 Y-29.513
X-11.219 Y-29.477
X-11.245 Y-29.444
X-11.274 Y-29.413
G3 X-11.53 Y-29.693 I-0.127 J-0.142
G1 X-11.39 Y-29.824
X-10.67 Y-30.492
X-10.541 Y-30.612
G3 X-10.268 Y-30.598 I0.129 J0.139
X-10.291 Y-30.326 I-0.143 J0.125
G1 X-10.332 Y-30.294
X-10.495 Y-30.155
X-10.569 Y-30.09
X-12.099 Y-28.621
X-12.238 Y-28.474
X-12.377 Y-28.321
X-12.469 Y-28.208
X-13.767 Y-26.481
X-13.825 Y-26.4
X-13.914 Y-26.261
X-13.936 Y-26.224
G3 X-14.254 Y-26.432 I-0.159 J-0.104
X-14.095 Y-26.518 I0.159 J0.104
G1 X-14.046 Z-3.99
X-14 Z-3.971
X-13.961 Z-3.94
X-13.931 Z-3.901
X-13.912 Z-3.855
X-13.905 Z-3.806
G0 Z3.004
X-15.727 Y-11.488
Z-3.616
G1 Z-3.806 F1000
X-15.722 Y-11.484 Z-3.855
X-15.705 Y-11.474 Z-3.901
X-15.68 Y-11.458 Z-3.94
X-15.646 Y-11.438 Z-3.971
X-15.607 Y-11.414 Z-3.99
X-15.565 Y-11.388 Z-3.996
G3 X-15.019 Y-10.824 I-0.829 J1.348
G1 X-14.29 Y-9.434
X-14.192 Y-9.222
X-14.122 Y-9.034
X-14.051 Y-8.777
X-13.977 Y-8.4
X-13.909 Y-7.791
X-13.885 Y-7.178
X-13.877 Y-6.565
X-13.874 Y-5.952
X-13.873 Y-5.032
X-13.822 Y-4.729
X-13.68 Y-4.458
X-13.467 Y-4.236
X-12.958 Y-3.895
X-12.365 Y-3.739
X-11.755 Y-3.672
X-11.142 Y-3.645
X-10.529 Y-3.635
X-9.916 Y-3.63
X-8.913 Y-3.628
X-8.825 Y-3.619
X-8.74 Y-3.593
X-8.662 Y-3.55
X-8.483 Y-3.426
X-8.205 Y-3.261
X-8.063 Y-3.176
X-7.927 Y-3.107
X-7.332 Y-2.825
G3 X-7.506 Y-2.487 I-0.087 J0.169
X-7.608 Y-2.637 I0.087 J-0.169
G1 X-7.613 Y-2.686 Z-3.99
X-7.618 Y-2.731 Z-3.971
X-7.622 Y-2.771 Z-3.94
X-7.625 Y-2.801 Z-3.901
X-7.626 Y-2.82 Z-3.855
X-7.627 Y-2.826 Z-3.806
G0 Z3.004
X-14.998 Y-10.098
Z-3.616
G1 Z-3.806 F1000
X-14.992 Y-10.095 Z-3.855
X-14.976 Y-10.085 Z-3.901
X-14.95 Y-10.069 Z-3.94
X-14.917 Y-10.048 Z-3.971
X-14.878 Y-10.024 Z-3.99
X-14.836 Y-9.999 Z-3.996
G3 X-14.29 Y-9.434 I-0.829 J1.348
G1 X-13.998 Y-8.878
X-13.907 Y-8.727
X-13.825 Y-8.6
X-13.767 Y-8.519
X-13.628 Y-8.334
X-13.544 Y-8.21
X-13.475 Y-8.077
X-13.405 Y-7.911
X-13.334 Y-7.695
X-13.26 Y-7.389
X-13.185 Y-6.917
X-13.138 Y-6.306
X-13.122 Y-5.693
X-13.036 Y-5.399
X-12.869 Y-5.142
X-12.641 Y-4.936
X-12.113 Y-4.625
X-11.516 Y-4.485
X-10.905 Y-4.426
X-10.292 Y-4.403
X-10.024 Y-4.399
X-9.937 Y-4.389
X-9.855 Y-4.363
X-9.779 Y-4.32
G3 X-10.005 Y-4.015 I-0.113 J0.153
X-10.081 Y-4.179 I0.113 J-0.153
G1 X-10.079 Y-4.229 Z-3.99
X-10.076 Y-4.274 Z-3.971
X-10.073 Y-4.314 Z-3.94
X-10.072 Y-4.344 Z-3.901
X-10.07 Y-4.363 Z-3.855
Y-4.369 Z-3.806
G0 Z3.004
X-14.434 Y-8.876
Z-3.616
G1 Z-3.806 F1000
X-14.428 Y-8.874 Z-3.855
X-14.41 Y-8.866 Z-3.901
X-14.382 Y-8.855 Z-3.94
X-14.346 Y-8.84 Z-3.971
X-14.304 Y-8.822 Z-3.99
X-14.258 Y-8.804 Z-3.996
G3 X-13.628 Y-8.334 I-0.602 J1.464
G1 X-12.887 Y-7.348
X-12.803 Y-7.224
X-12.731 Y-7.087
X-12.661 Y-6.925
X-12.587 Y-6.706
X-12.512 Y-6.408
X-12.387 Y-6.129
X-12.203 Y-5.883
X-11.969 Y-5.685
X-11.434 Y-5.385
X-11.066 Y-5.3
X-10.99 Y-5.276
X-10.921 Y-5.238
X-10.859 Y-5.188
G0 Z3.004
X-13.693 Y-7.89
Z-3.616
G1 Z-3.806 F1000
X-13.687 Y-7.887 Z-3.855
X-13.669 Y-7.88 Z-3.901
X-13.641 Y-7.869 Z-3.94
X-13.605 Y-7.854 Z-3.971
X-13.563 Y-7.836 Z-3.99
X-13.517 Y-7.818 Z-3.996
G3 X-12.887 Y-7.348 I-0.602 J1.464
G1 X-12.469 Y-6.792
X-12.377 Y-6.679
X-12.227 Y-6.514
X-12.094 Y-6.375
X-10.569 Y-4.91
X-10.495 Y-4.845
X-10.332 Y-4.706
X-10.291 Y-4.674
X-8.662 Y-3.55
G3 X-8.889 Y-3.245 I-0.113 J0.153
X-8.965 Y-3.409 I0.113 J-0.153
G1 X-8.962 Y-3.458 Z-3.99
X-8.959 Y-3.504 Z-3.971
X-8.957 Y-3.543 Z-3.94
X-8.955 Y-3.573 Z-3.901
X-8.954 Y-3.592 Z-3.855
X-8.953 Y-3.598 Z-3.806
G0 Z3.004
X6.229 Y-1.951
Z-3.616
G1 Z-3.806 F1000
X6.233 Y-1.956 Z-3.855
X6.244 Y-1.971 Z-3.901
X6.262 Y-1.995 Z-3.94
X6.285 Y-2.027 Z-3.971
X6.313 Y-2.064 Z-3.99
X6.342 Y-2.103 Z-3.996
G3 X6.953 Y-2.597 I1.269 J0.946
G1 X7.01 Y-2.62
X7.092 Y-2.659
X7.649 Y-2.977
X7.993 Y-3.176
X8.185 Y-3.274
X8.348 Y-3.342
X8.566 Y-3.413
X8.874 Y-3.486
X9.358 Y-3.56
X9.97 Y-3.604
X10.583 Y-3.619
X11.196 Y-3.624
X11.809 Y-3.626
X12.423 Y-3.627
X12.727 Y-3.664
X13.006 Y-3.792
X13.234 Y-3.996
X13.587 Y-4.498
X13.751 Y-5.089
X13.82 Y-5.698
X13.848 Y-6.311
X13.859 Y-6.924
X13.863 Y-7.537
X13.865 Y-8.609
X13.872 Y-8.692
X13.896 Y-8.772
X13.933 Y-8.846
X14.393 Y-9.573
X14.463 Y-9.688
X14.602 Y-9.931
X14.66 Y-10.065
G0 Z3.004
X7.358 Y-2.442
Z-3.616
G1 Z-3.806 F1000
X7.362 Y-2.448 Z-3.855
X7.371 Y-2.464 Z-3.901
X7.386 Y-2.491 Z-3.94
X7.405 Y-2.525 Z-3.971
X7.427 Y-2.565 Z-3.99
X7.451 Y-2.608 Z-3.996
G3 X7.993 Y-3.176 I1.381 J0.774
G1 X8.956 Y-3.733
X9.317 Y-3.949
X9.446 Y-4.026
X9.613 Y-4.096
X9.833 Y-4.168
X10.139 Y-4.241
X10.617 Y-4.316
X11.229 Y-4.362
X11.842 Y-4.378
X12.134 Y-4.472
X12.385 Y-4.649
X12.582 Y-4.883
X12.883 Y-5.418
X13.016 Y-6.017
X13.07 Y-6.627
X13.092 Y-7.24
X13.094 Y-7.406
X13.104 Y-7.491
X13.129 Y-7.573
X13.17 Y-7.648
G3 X13.477 Y-7.424 I0.154 J0.112
X13.314 Y-7.346 I-0.154 J-0.112
G1 X13.265 Y-7.349 Z-3.99
X13.219 Y-7.351 Z-3.971
X13.18 Y-7.353 Z-3.94
X13.15 Y-7.355 Z-3.901
X13.131 Y-7.356 Z-3.855
X13.124 Z-3.806
G0 Z3.004
X8.732 Y-3.174
Z-3.616
G1 Z-3.806 F1000
X8.735 Y-3.18 Z-3.855
X8.743 Y-3.197 Z-3.901
X8.756 Y-3.225 Z-3.94
X8.773 Y-3.26 Z-3.971
X8.793 Y-3.302 Z-3.99
X8.814 Y-3.346 Z-3.996
G3 X9.317 Y-3.949 I1.429 J0.681
G1 X9.41 Y-4.011
X10.093 Y-4.567
X10.214 Y-4.656
X10.343 Y-4.732
X10.493 Y-4.804
X10.68 Y-4.875
X11.269 Y-5.048
X11.528 Y-5.212
X11.742 Y-5.432
X12.075 Y-5.946
X12.218 Y-6.486
X12.24 Y-6.551
X12.273 Y-6.612
X12.315 Y-6.667
G3 X12.59 Y-6.405 I0.138 J0.131
X12.418 Y-6.349 I-0.138 J-0.131
G1 X12.37 Y-6.358 Z-3.99
X12.325 Y-6.366 Z-3.971
X12.286 Y-6.373 Z-3.94
X12.256 Y-6.379 Z-3.901
X12.238 Y-6.382 Z-3.855
X12.231 Y-6.383 Z-3.806
G0 Z3.004
X9.584 Y-3.74
Z-3.616
G1 Z-3.806 F1000
X9.586 Y-3.746 Z-3.855
X9.593 Y-3.764 Z-3.901
X9.603 Y-3.793 Z-3.94
X9.617 Y-3.83 Z-3.971
X9.633 Y-3.873 Z-3.99
X9.649 Y-3.919 Z-3.996
G3 X10.093 Y-4.567 I1.487 J0.542
G1 X11.125 Y-5.41
X11.264 Y-5.528
X11.542 Y-5.797
X11.563 Y-5.819
X13.072 Y-7.523
X13.156 Y-7.626
X13.211 Y-7.709
X13.514 Y-8.183
X13.933 Y-8.846
G0 Z3.004
X15.577 Y-23.596
Z-3.616
G1 Z-3.806 F1000
X15.572 Y-23.599 Z-3.855
X15.556 Y-23.611 Z-3.901
X15.532 Y-23.628 Z-3.94
X15.5 Y-23.652 Z-3.971
X15.463 Y-23.679 Z-3.99
X15.424 Y-23.708 Z-3.996
G3 X14.925 Y-24.314 I0.934 J-1.277
G1 X14.628 Y-25.01
X14.602 Y-25.069
X14.463 Y-25.312
X14.393 Y-25.427
X14.324 Y-25.536
X14.235 Y-25.694
X14.169 Y-25.836
X14.099 Y-26.025
X14.028 Y-26.28
X13.954 Y-26.658
X13.886 Y-27.267
X13.862 Y-27.88
X13.853 Y-28.493
X13.85 Y-29.107
X13.848 Y-30.027
X13.78 Y-30.326
X13.628 Y-30.592
X13.409 Y-30.807
X12.89 Y-31.133
X12.294 Y-31.281
X11.684 Y-31.343
X11.072 Y-31.368
X10.458 Y-31.378
X9.845 Y-31.382
X8.874 Y-31.384
X8.797 Y-31.39
X8.723 Y-31.41
X8.653 Y-31.443
X7.51 Y-32.103
X7.336 Y-32.202
G3 X7.536 Y-32.525 I0.1 J-0.161
X7.626 Y-32.368 I-0.1 J0.161
G1 X7.627 Y-32.319 Z-3.99
X7.628 Y-32.273 Z-3.971
X7.629 Y-32.234 Z-3.94
X7.63 Y-32.204 Z-3.901
Y-32.185 Z-3.855
X7.631 Y-32.178 Z-3.806
G0 Z3.004
X15.083 Y-24.931
Z-3.616
G1 Z-3.806 F1000
X15.077 Y-24.934 Z-3.855
X15.06 Y-24.943 Z-3.901
X15.033 Y-24.957 Z-3.94
X14.998 Y-24.975 Z-3.971
X14.957 Y-24.995 Z-3.99
X14.914 Y-25.018 Z-3.996
G3 X14.324 Y-25.536 I0.717 J-1.411
G1 X13.553 Y-26.755
X13.479 Y-26.885
X13.408 Y-27.041
X13.338 Y-27.234
X13.265 Y-27.502
X13.19 Y-27.898
X13.125 Y-28.507
X13.101 Y-29.12
X13.078 Y-29.426
X12.964 Y-29.711
X12.772 Y-29.95
X12.528 Y-30.136
X11.984 Y-30.418
X11.383 Y-30.541
X10.772 Y-30.592
X10.159 Y-30.612
X10.024 Y-30.613
X9.926 Y-30.626
X9.834 Y-30.659
X9.75 Y-30.712
G3 X10 Y-30.999 I0.125 J-0.143
X10.063 Y-30.829 I-0.125 J0.143
G1 X10.057 Y-30.781 Z-3.99
X10.05 Y-30.735 Z-3.971
X10.045 Y-30.696 Z-3.94
X10.041 Y-30.666 Z-3.901
X10.038 Y-30.648 Z-3.855
X10.037 Y-30.641 Z-3.806
G0 Z3.004
X14.312 Y-26.15
Z-3.616
G1 Z-3.806 F1000
X14.307 Y-26.153 Z-3.855
X14.29 Y-26.162 Z-3.901
X14.263 Y-26.175 Z-3.94
X14.228 Y-26.193 Z-3.971
X14.187 Y-26.214 Z-3.99
X14.143 Y-26.236 Z-3.996
G3 X13.553 Y-26.755 I0.717 J-1.411
G1 X13.336 Y-27.096
X13.211 Y-27.291
X13.156 Y-27.374
X13.072 Y-27.477
X12.933 Y-27.635
X12.839 Y-27.752
X12.758 Y-27.879
X12.69 Y-28.014
X12.616 Y-28.195
X12.431 Y-28.779
X12.266 Y-29.037
X12.047 Y-29.252
X11.535 Y-29.59
X11.018 Y-29.728
X10.959 Y-29.749
X10.904 Y-29.777
X10.853 Y-29.813
G3 X11.103 Y-30.099 I0.125 J-0.143
X11.166 Y-29.929 I-0.125 J0.143
G1 X11.159 Y-29.881 Z-3.99
X11.153 Y-29.835 Z-3.971
X11.147 Y-29.796 Z-3.94
X11.143 Y-29.766 Z-3.901
X11.14 Y-29.748 Z-3.855
X11.139 Y-29.741 Z-3.806
G0 Z3.004
X13.779 Y-27.16
Z-3.616
G1 Z-3.806 F1000
X13.773 Y-27.162 Z-3.855
X13.755 Y-27.168 Z-3.901
X13.726 Y-27.177 Z-3.94
X13.689 Y-27.189 Z-3.971
X13.645 Y-27.203 Z-3.99
X13.598 Y-27.218 Z-3.996
G3 X12.933 Y-27.635 I0.482 J-1.507
G1 X11.563 Y-29.181
X11.542 Y-29.203
X11.264 Y-29.472
X11.115 Y-29.599
X9.735 Y-30.725
X9.41 Y-30.989
X9.317 Y-31.051
X8.956 Y-31.267
X8.653 Y-31.443
G3 X8.853 Y-31.766 I0.101 J-0.161
G1 X8.881 Y-31.733 Z-3.991
X8.907 Y-31.702 Z-3.976
X8.93 Y-31.675 Z-3.952
X8.936 Y-31.646 Z-3.922
X8.94 Y-31.625 Z-3.887
X8.943 Y-31.612 Z-3.847
X8.944 Y-31.608 Z-3.806
G0 Z3.004
X0.304 Y-16.65
Z2.5
G3 X-0.304 Y-18.35 Z2.401 I-0.304 J-0.85 F333.3
X0.304 Y-16.65 Z2.302 I0.304 J0.85
X-0.304 Y-18.35 Z2.203 I-0.304 J-0.85
X0.304 Y-16.65 Z2.104 I0.304 J0.85
X-0.304 Y-18.35 Z2.005 I-0.304 J-0.85
X0.304 Y-16.65 Z1.906 I0.304 J0.85
X-0.304 Y-18.35 Z1.807 I-0.304 J-0.85
X0.304 Y-16.65 Z1.708 I0.304 J0.85
X-0.304 Y-18.35 Z1.609 I-0.304 J-0.85
X0.304 Y-16.65 Z1.51 I0.304 J0.85
X-0.304 Y-18.35 Z1.411 I-0.304 J-0.85
X0.304 Y-16.65 Z1.312 I0.304 J0.85
X-0.304 Y-18.35 Z1.213 I-0.304 J-0.85
X0.304 Y-16.65 Z1.114 I0.304 J0.85
X-0.304 Y-18.35 Z1.015 I-0.304 J-0.85
X0.304 Y-16.65 Z0.916 I0.304 J0.85
X-0.304 Y-18.35 Z0.817 I-0.304 J-0.85
X0.304 Y-16.65 Z0.718 I0.304 J0.85
X-0.304 Y-18.35 Z0.619 I-0.304 J-0.85
X0.304 Y-16.65 Z0.52 I0.304 J0.85
X-0.304 Y-18.35 Z0.421 I-0.304 J-0.85
X0.304 Y-16.65 Z0.322 I0.304 J0.85
X-0.304 Y-18.35 Z0.223 I-0.304 J-0.85
X0.304 Y-16.65 Z0.124 I0.304 J0.85
X-0.304 Y-18.35 Z0.025 I-0.304 J-0.85
X0.304 Y-16.65 Z-0.074 I0.304 J0.85
X-0.304 Y-18.35 Z-0.173 I-0.304 J-0.85
X0.304 Y-16.65 Z-0.272 I0.304 J0.85
X-0.304 Y-18.35 Z-0.371 I-0.304 J-0.85
X0.304 Y-16.65 Z-0.47 I0.304 J0.85
X-0.304 Y-18.35 Z-0.569 I-0.304 J-0.85
X0.304 Y-16.65 Z-0.668 I0.304 J0.85
X-0.304 Y-18.35 Z-0.767 I-0.304 J-0.85
X0.304 Y-16.65 Z-0.866 I0.304 J0.85
X-0.304 Y-18.35 Z-0.965 I-0.304 J-0.85
X0.304 Y-16.65 Z-1.064 I0.304 J0.85
X-0.304 Y-18.35 Z-1.163 I-0.304 J-0.85
X0.304 Y-16.65 Z-1.262 I0.304 J0.85
X-0.304 Y-18.35 Z-1.361 I-0.304 J-0.85
X0.304 Y-16.65 Z-1.46 I0.304 J0.85
X-0.304 Y-18.35 Z-1.559 I-0.304 J-0.85
X0.304 Y-16.65 Z-1.658 I0.304 J0.85
X-0.304 Y-18.35 Z-1.757 I-0.304 J-0.85
X0.304 Y-16.65 Z-1.856 I0.304 J0.85
X-0.304 Y-18.35 Z-1.955 I-0.304 J-0.85
X0.304 Y-16.65 Z-2.054 I0.304 J0.85
X-0.304 Y-18.35 Z-2.153 I-0.304 J-0.85
X0.304 Y-16.65 Z-2.253 I0.304 J0.85
X-0.304 Y-18.35 Z-2.352 I-0.304 J-0.85
X0.304 Y-16.65 Z-2.451 I0.304 J0.85
X-0.304 Y-18.35 Z-2.55 I-0.304 J-0.85
X0.304 Y-16.65 Z-2.649 I0.304 J0.85
X-0.304 Y-18.35 Z-2.748 I-0.304 J-0.85
X0.304 Y-16.65 Z-2.847 I0.304 J0.85
X-0.304 Y-18.35 Z-2.946 I-0.304 J-0.85
X0.304 Y-16.65 Z-3.045 I0.304 J0.85
X-0.304 Y-18.35 Z-3.144 I-0.304 J-0.85
X0.304 Y-16.65 Z-3.243 I0.304 J0.85
X-0.304 Y-18.35 Z-3.342 I-0.304 J-0.85
X0.304 Y-16.65 Z-3.441 I0.304 J0.85
X-0.304 Y-18.35 Z-3.54 I-0.304 J-0.85
X0.304 Y-16.65 Z-3.639 I0.304 J0.85
X-0.304 Y-18.35 Z-3.738 I-0.304 J-0.85
X0.304 Y-16.65 Z-3.837 I0.304 J0.85
X-0.304 Y-18.35 Z-3.936 I-0.304 J-0.85
X0.902 Y-17.5 Z-3.996 I0.304 J0.85
X-0.902 I-0.902
X0.902 I0.902
G1 X0.929 Y-16.937 F1000
X0.924 Y-16.788
X0.879 Y-16.644
X0.805 Y-16.514
X0.708 Y-16.4
X0.594 Y-16.302
X0.467 Y-16.223
X0.329 Y-16.163
X0.185 Y-16.121
X0.037 Y-16.097
X-0.113 Y-16.092
X-0.262 Y-16.104
X-0.409 Y-16.133
X-0.552 Y-16.179
X-0.689 Y-16.24
X-0.819 Y-16.316
X-0.939 Y-16.405
X-1.049 Y-16.507
X-1.148 Y-16.62
X-1.234 Y-16.743
X-1.307 Y-16.874
X-1.366 Y-17.012
X-1.41 Y-17.155
X-1.438 Y-17.302
X-1.452 Y-17.452
X-1.449 Y-17.602
X-1.431 Y-17.751
X-1.398 Y-17.897
X-1.35 Y-18.039
X-1.288 Y-18.175
X-1.211 Y-18.305
X-1.122 Y-18.425
X-1.021 Y-18.536
X-0.909 Y-18.636
X-0.787 Y-18.723
X-0.657 Y-18.798
X-0.52 Y-18.859
X-0.377 Y-18.905
X-0.23 Y-18.936
X-0.081 Y-18.952
X0.069 Y-18.953
X0.218 Y-18.938
X0.365 Y-18.908
X0.508 Y-18.863
X0.646 Y-18.804
X0.776 Y-18.73
X0.899 Y-18.644
X1.012 Y-18.545
X1.114 Y-18.435
X1.205 Y-18.316
X1.282 Y-18.187
X1.354 Y-18.038
X1.431 Y-17.838
X1.496 Y-17.619
X1.534 Y-17.436
X1.554 Y-17.284
X1.561 Y-17.134
X1.555 Y-16.984
X1.536 Y-16.836
X1.504 Y-16.689
X1.457 Y-16.547
X1.397 Y-16.409
X1.324 Y-16.278
X1.238 Y-16.155
X1.141 Y-16.041
X1.034 Y-15.936
X0.917 Y-15.842
X0.792 Y-15.759
X0.66 Y-15.687
X0.523 Y-15.627
X0.38 Y-15.58
X0.235 Y-15.545
X0.086 Y-15.522
X-0.063 Y-15.512
X-0.215 Y-15.515
X-0.365 Y-15.529
X-0.512 Y-15.555
X-0.661 Y-15.595
X-0.81 Y-15.647
X-0.949 Y-15.709
X-1.085 Y-15.783
X-1.218 Y-15.87
X-1.345 Y-15.969
X-1.46 Y-16.074
X-1.568 Y-16.19
X-1.669 Y-16.317
X-1.76 Y-16.453
X-1.837 Y-16.592
X-1.904 Y-16.737
X-1.96 Y-16.892
X-2.004 Y-17.052
X-2.034 Y-17.211
X-2.051 Y-17.37
X-2.056 Y-17.534
X-2.047 Y-17.701
X-2.025 Y-17.865
X-1.991 Y-18.022
X-1.943 Y-18.178
X-1.882 Y-18.334
X-1.809 Y-18.484
X-1.726 Y-18.624
X-1.632 Y-18.756
X-1.525 Y-18.884
X-1.407 Y-19.004
X-1.282 Y-19.112
X-1.152 Y-19.208
X-1.012 Y-19.294
X-0.863 Y-19.371
X-0.708 Y-19.435
X-0.553 Y-19.485
X-0.394 Y-19.523
X-0.23 Y-19.548
X-0.062 Y-19.56
X0.104 Y-19.558
X0.265 Y-19.544
X0.428 Y-19.516
X0.59 Y-19.474
X0.749 Y-19.42
X0.899 Y-19.355
X1.042 Y-19.278
X1.182 Y-19.188
X1.316 Y-19.086
X1.443 Y-18.972
X1.563 Y-18.845
X1.683 Y-18.696
X1.802 Y-18.521
X1.909 Y-18.334
X1.999 Y-18.139
X2.073 Y-17.941
X2.13 Y-17.74
X2.17 Y-17.541
X2.192 Y-17.345
X2.199 Y-17.152
X2.191 Y-16.966
X2.168 Y-16.784
X2.131 Y-16.605
X2.079 Y-16.431
X2.014 Y-16.262
X1.936 Y-16.098
X1.845 Y-15.941
X1.743 Y-15.795
X1.629 Y-15.656
X1.504 Y-15.527
X1.367 Y-15.406
X1.22 Y-15.296
X1.062 Y-15.197
X0.896 Y-15.11
X0.722 Y-15.036
X0.54 Y-14.976
X0.353 Y-14.93
X0.161 Y-14.899
X-0.034 Y-14.884
X-0.232
X-0.431 Y-14.9
X-0.628 Y-14.932
X-0.824 Y-14.981
X-1.018 Y-15.045
X-1.206 Y-15.125
X-1.388 Y-15.221
X-1.563 Y-15.331
X-1.73 Y-15.456
X-1.887 Y-15.595
X-2.033 Y-15.747
X-2.166 Y-15.91
X-2.287 Y-16.083
X-2.394 Y-16.268
X-2.485 Y-16.46
X-2.561 Y-16.659
X-2.621 Y-16.864
X-2.665 Y-17.075
X-2.692 Y-17.289
X-2.701 Y-17.503
X-2.693 Y-17.718
X-2.668 Y-17.932
X-2.625 Y-18.145
X-2.566 Y-18.352
X-2.49 Y-18.554
X-2.398 Y-18.75
X-2.291 Y-18.939
X-2.168 Y-19.118
X-2.032 Y-19.286
X-1.883 Y-19.443
X-1.722 Y-19.588
X-1.548 Y-19.72
X-1.365 Y-19.837
X-1.174 Y-19.939
X-0.975 Y-20.025
X-0.769 Y-20.095
X-0.558 Y-20.149
X-0.344 Y-20.185
X-0.128 Y-20.204
X0.089 Y-20.206
X0.307 Y-20.19
X0.521 Y-20.157
X0.732 Y-20.106
X0.939 Y-20.039
X1.14 Y-19.956
X1.335 Y-19.856
X1.522 Y-19.739
X1.705 Y-19.605
X1.882 Y-19.451
X2.052 Y-19.277
X2.212 Y-19.085
X2.358 Y-18.878
X2.488 Y-18.659
X2.6 Y-18.429
X2.692 Y-18.192
X2.765 Y-17.95
X2.818 Y-17.706
X2.85 Y-17.462
X2.863 Y-17.219
X2.856 Y-16.977
X2.83 Y-16.739
X2.785 Y-16.504
X2.721 Y-16.275
X2.641 Y-16.054
X2.543 Y-15.84
X2.428 Y-15.636
X2.297 Y-15.441
X2.151 Y-15.257
X1.99 Y-15.084
X1.814 Y-14.925
X1.626 Y-14.779
X1.425 Y-14.648
X1.213 Y-14.533
X0.992 Y-14.435
X0.761 Y-14.354
X0.524 Y-14.291
X0.28 Y-14.248
X0.032 Y-14.224
X-0.218 Y-14.22
X-0.47 Y-14.237
X-0.721 Y-14.273
X-0.969 Y-14.33
X-1.213 Y-14.407
X-1.452 Y-14.504
X-1.684 Y-14.621
X-1.906 Y-14.756
X-2.117 Y-14.909
X-2.317 Y-15.08
X-2.502 Y-15.267
X-2.673 Y-15.468
X-2.827 Y-15.683
X-2.964 Y-15.911
X-3.083 Y-16.149
X-3.182 Y-16.397
X-3.262 Y-16.653
X-3.32 Y-16.914
X-3.358 Y-17.18
X-3.374 Y-17.448
X-3.368 Y-17.718
X-3.341 Y-17.986
X-3.293 Y-18.251
X-3.223 Y-18.512
X-3.132 Y-18.766
X-3.022 Y-19.013
X-2.891 Y-19.25
X-2.742 Y-19.476
X-2.575 Y-19.69
X-2.392 Y-19.889
X-2.193 Y-20.073
X-1.98 Y-20.241
X-1.754 Y-20.391
X-1.517 Y-20.523
X-1.27 Y-20.635
X-1.014 Y-20.726
X-0.752 Y-20.797
X-0.485 Y-20.847
X-0.215 Y-20.875
X0.056 Y-20.882
X0.327 Y-20.867
X0.596 Y-20.83
X0.862 Y-20.771
X1.122 Y-20.691
X1.377 Y-20.59
X1.625 Y-20.468
X1.865 Y-20.324
X2.097 Y-20.159
X2.32 Y-19.972
X2.53 Y-19.764
X2.726 Y-19.536
X2.905 Y-19.29
X3.065 Y-19.03
X3.204 Y-18.757
X3.32 Y-18.474
X3.412 Y-18.184
X3.481 Y-17.89
X3.526 Y-17.592
X3.546 Y-17.294
X3.542 Y-16.997
X3.515 Y-16.702
X3.464 Y-16.413
X3.391 Y-16.129
X3.296 Y-15.854
X3.178 Y-15.587
X3.041 Y-15.331
X2.883 Y-15.087
X2.705 Y-14.857
X2.51 Y-14.64
X2.297 Y-14.44
X2.067 Y-14.256
X1.823 Y-14.091
X1.565 Y-13.946
X1.295 Y-13.821
X1.015 Y-13.717
X0.726 Y-13.636
X0.429 Y-13.578
X0.127 Y-13.544
X-0.178 Y-13.534
X-0.484 Y-13.549
X-0.79 Y-13.589
X-1.093 Y-13.653
X-1.391 Y-13.742
X-1.682 Y-13.855
X-1.965 Y-13.991
X-2.236 Y-14.15
X-2.495 Y-14.331
X-2.74 Y-14.534
X-2.968 Y-14.755
X-3.178 Y-14.995
X-3.369 Y-15.252
X-3.539 Y-15.524
X-3.687 Y-15.81
X-3.811 Y-16.107
X-3.912 Y-16.413
X-3.988 Y-16.727
X-4.038 Y-17.047
X-4.063 Y-17.37
X-4.062 Y-17.694
X-4.034 Y-18.018
X-3.981 Y-18.339
X-3.902 Y-18.654
X-3.798 Y-18.963
X-3.669 Y-19.262
X-3.517 Y-19.551
X-3.342 Y-19.826
X-3.145 Y-20.086
X-2.929 Y-20.33
X-2.693 Y-20.556
X-2.439 Y-20.762
X-2.17 Y-20.947
X-1.887 Y-21.11
X-1.591 Y-21.25
X-1.286 Y-21.366
X-0.971 Y-21.457
X-0.651 Y-21.522
X-0.326 Y-21.561
X0.001 Y-21.574
X0.327 Y-21.561
X0.653 Y-21.522
X0.974 Y-21.457
X1.29 Y-21.365
X1.6 Y-21.248
X1.903 Y-21.105
X2.196 Y-20.936
X2.478 Y-20.742
X2.747 Y-20.524
X3.001 Y-20.281
X3.236 Y-20.016
X3.451 Y-19.732
X3.644 Y-19.429
X3.812 Y-19.112
X3.953 Y-18.782
X4.068 Y-18.442
X4.155 Y-18.095
X4.213 Y-17.744
X4.243 Y-17.391
X4.245 Y-17.037
X4.218 Y-16.686
X4.163 Y-16.34
X4.081 Y-16
X3.973 Y-15.669
X3.838 Y-15.348
X3.678 Y-15.039
X3.494 Y-14.744
X3.286 Y-14.464
X3.057 Y-14.202
X2.806 Y-13.959
X2.537 Y-13.735
X2.249 Y-13.534
X1.945 Y-13.356
X1.626 Y-13.202
X1.295 Y-13.073
X0.953 Y-12.971
X0.603 Y-12.897
X0.246 Y-12.851
X-0.115 Y-12.833
X-0.477 Y-12.845
X-0.839 Y-12.885
X-1.198 Y-12.955
X-1.552 Y-13.054
X-1.897 Y-13.182
X-2.233 Y-13.337
X-2.556 Y-13.52
X-2.864 Y-13.728
X-3.156 Y-13.961
X-3.429 Y-14.218
X-3.68 Y-14.496
X-3.91 Y-14.794
X-4.114 Y-15.11
X-4.294 Y-15.443
X-4.446 Y-15.789
X-4.57 Y-16.147
X-4.665 Y-16.515
X-4.731 Y-16.889
X-4.766 Y-17.268
X-4.771 Y-17.649
X-4.745 Y-18.03
X-4.689 Y-18.407
X-4.602 Y-18.779
X-4.486 Y-19.143
X-4.341 Y-19.497
X-4.168 Y-19.839
X-3.967 Y-20.165
X-3.742 Y-20.474
X-3.492 Y-20.765
X-3.219 Y-21.034
X-2.926 Y-21.281
X-2.613 Y-21.504
X-2.284 Y-21.701
X-1.94 Y-21.87
X-1.583 Y-22.012
X-1.216 Y-22.125
X-0.842 Y-22.208
X-0.461 Y-22.26
X-0.078 Y-22.282
X0.306 Y-22.273
X0.689 Y-22.233
X1.069 Y-22.162
X1.443 Y-22.061
X1.81 Y-21.929
X2.168 Y-21.767
X2.514 Y-21.575
X2.847 Y-21.354
X3.164 Y-21.105
X3.462 Y-20.829
X3.739 Y-20.527
X3.993 Y-20.203
X4.221 Y-19.858
X4.421 Y-19.494
X4.591 Y-19.116
X4.73 Y-18.725
X4.837 Y-18.325
X4.911 Y-17.919
X4.953 Y-17.509
X4.962 Y-17.098
X4.937 Y-16.689
X4.88 Y-16.285
X4.791 Y-15.887
X4.671 Y-15.499
X4.52 Y-15.122
X4.339 Y-14.759
X4.13 Y-14.411
X3.893 Y-14.081
X3.631 Y-13.771
X3.344 Y-13.483
X3.034 Y-13.217
X2.703 Y-12.978
X2.353 Y-12.764
X1.986 Y-12.579
X1.604 Y-12.424
X1.209 Y-12.299
X0.804 Y-12.206
X0.392 Y-12.146
X-0.026 Y-12.119
X-0.445 Y-12.125
X-0.865 Y-12.165
X-1.281 Y-12.24
X-1.691 Y-12.347
X-2.093 Y-12.488
X-2.483 Y-12.661
X-2.86 Y-12.865
X-3.219 Y-13.1
X-3.56 Y-13.363
X-3.879 Y-13.653
X-4.175 Y-13.969
X-4.444 Y-14.309
X-4.687 Y-14.669
X-4.899 Y-15.049
X-5.081 Y-15.445
X-5.231 Y-15.855
X-5.348 Y-16.276
X-5.43 Y-16.706
X-5.478 Y-17.141
X-5.491 Y-17.58
X-5.468 Y-18.018
X-5.41 Y-18.454
X-5.318 Y-18.883
X-5.191 Y-19.304
X-5.031 Y-19.714
X-4.838 Y-20.11
X-4.614 Y-20.49
X-4.36 Y-20.85
X-4.078 Y-21.189
X-3.77 Y-21.504
X-3.437 Y-21.793
X-3.082 Y-22.055
X-2.707 Y-22.288
X-2.314 Y-22.49
X-1.907 Y-22.659
X-1.487 Y-22.796
X-1.057 Y-22.898
X-0.621 Y-22.966
X-0.18 Y-22.998
X0.262 Y-22.995
X0.703 Y-22.956
X1.141 Y-22.882
X1.573 Y-22.773
X1.997 Y-22.628
X2.411 Y-22.449
X2.811 Y-22.236
X3.196 Y-21.989
X3.563 Y-21.711
X3.908 Y-21.401
X4.229 Y-21.064
X4.524 Y-20.699
X4.789 Y-20.311
X5.023 Y-19.901
X5.224 Y-19.474
X5.389 Y-19.032
X5.519 Y-18.578
X5.612 Y-18.117
X5.667 Y-17.65
X5.684 Y-17.181
X5.664 Y-16.714
X5.606 Y-16.251
X5.512 Y-15.795
X5.382 Y-15.349
X5.216 Y-14.915
X5.016 Y-14.496
X4.784 Y-14.095
X4.52 Y-13.713
X4.225 Y-13.354
X3.903 Y-13.019
X3.554 Y-12.71
X3.181 Y-12.43
X2.785 Y-12.18
X2.37 Y-11.962
X1.937 Y-11.778
X1.49 Y-11.629
X1.031 Y-11.515
X0.562 Y-11.439
X0.088 Y-11.4
X-0.39 Y-11.399
X-0.867 Y-11.437
X-1.341 Y-11.514
X-1.81 Y-11.628
X-2.268 Y-11.78
X-2.715 Y-11.97
X-3.145 Y-12.194
X-3.558 Y-12.454
X-3.949 Y-12.746
X-4.316 Y-13.069
X-4.657 Y-13.422
X-4.969 Y-13.802
X-5.25 Y-14.206
X-5.499 Y-14.632
X-5.712 Y-15.077
X-5.889 Y-15.539
X-6.029 Y-16.013
X-6.131 Y-16.499
X-6.193 Y-16.991
X-6.215 Y-17.487
X-6.198 Y-17.983
X-6.141 Y-18.477
X-6.044 Y-18.966
X-5.908 Y-19.445
X-5.734 Y-19.912
X-5.524 Y-20.363
X-5.277 Y-20.797
X-4.996 Y-21.209
X-4.684 Y-21.598
X-4.34 Y-21.96
X-3.969 Y-22.294
X-3.572 Y-22.597
X-3.152 Y-22.868
X-2.712 Y-23.103
X-2.254 Y-23.303
X-1.781 Y-23.465
X-1.297 Y-23.589
X-0.804 Y-23.673
X-0.306 Y-23.718
X0.195 Y-23.723
X0.695 Y-23.687
X1.191 Y-23.612
X1.682 Y-23.496
X2.164 Y-23.34
X2.634 Y-23.146
X3.09 Y-22.913
X3.528 Y-22.642
X3.946 Y-22.335
X4.339 Y-21.994
X4.707 Y-21.621
X5.044 Y-21.217
X5.349 Y-20.786
X5.619 Y-20.331
X5.852 Y-19.855
X6.046 Y-19.362
X6.2 Y-18.855
X6.312 Y-18.338
X6.383 Y-17.815
X6.411 Y-17.288
X6.397 Y-16.762
X6.341 Y-16.24
X6.243 Y-15.725
X6.105 Y-15.22
X5.926 Y-14.728
X5.709 Y-14.253
X5.454 Y-13.796
X5.164 Y-13.362
X4.839 Y-12.951
X4.483 Y-12.568
X4.096 Y-12.214
X3.681 Y-11.892
X3.241 Y-11.604
X2.778 Y-11.351
X2.295 Y-11.136
X1.795 Y-10.96
X1.281 Y-10.824
X0.757 Y-10.73
X0.225 Y-10.678
X-0.31 Y-10.668
X-0.846 Y-10.702
X-1.38 Y-10.779
X-1.906 Y-10.899
X-2.423 Y-11.061
X-2.926 Y-11.264
X-3.413 Y-11.508
X-3.879 Y-11.791
X-4.323 Y-12.11
X-4.74 Y-12.466
X-5.127 Y-12.854
X-5.483 Y-13.273
X-5.805 Y-13.72
X-6.091 Y-14.191
X-6.337 Y-14.685
X-6.544 Y-15.198
X-6.709 Y-15.726
X-6.831 Y-16.267
X-6.91 Y-16.816
X-6.944 Y-17.37
X-6.934 Y-17.925
X-6.879 Y-18.478
X-6.78 Y-19.026
X-6.637 Y-19.564
X-6.452 Y-20.089
X-6.224 Y-20.597
X-5.957 Y-21.086
X-5.651 Y-21.552
X-5.308 Y-21.992
X-4.932 Y-22.404
X-4.523 Y-22.783
X-4.085 Y-23.129
X-3.621 Y-23.439
X-3.133 Y-23.71
X-2.625 Y-23.942
X-2.1 Y-24.132
X-1.561 Y-24.279
X-1.012 Y-24.383
X-0.456 Y-24.442
X0.103 Y-24.456
X0.663 Y-24.426
X1.219 Y-24.35
X1.769 Y-24.23
X2.31 Y-24.065
X2.838 Y-23.857
X3.35 Y-23.605
X3.843 Y-23.312
X4.313 Y-22.979
X4.757 Y-22.607
X5.171 Y-22.199
X5.553 Y-21.757
X5.9 Y-21.284
X6.208 Y-20.784
X6.475 Y-20.26
X6.699 Y-19.717
X6.879 Y-19.157
X7.014 Y-18.584
X7.102 Y-18.004
X7.143 Y-17.419
X7.137 Y-16.834
X7.084 Y-16.252
X6.984 Y-15.677
X6.839 Y-15.112
X6.65 Y-14.562
X6.417 Y-14.028
X6.142 Y-13.516
X5.826 Y-13.027
X5.473 Y-12.564
X5.083 Y-12.131
X4.659 Y-11.731
X4.203 Y-11.365
X3.719 Y-11.036
X3.209 Y-10.747
X2.677 Y-10.499
X2.125 Y-10.294
X1.557 Y-10.134
X0.976 Y-10.02
X0.387 Y-9.952
X-0.207 Y-9.932
X-0.802 Y-9.959
X-1.395 Y-10.035
X-1.981 Y-10.158
X-2.557 Y-10.328
X-3.118 Y-10.545
X-3.661 Y-10.806
X-4.183 Y-11.11
X-4.68 Y-11.457
X-5.148 Y-11.842
X-5.584 Y-12.265
X-5.986 Y-12.722
X-6.351 Y-13.211
X-6.675 Y-13.728
X-6.957 Y-14.27
X-7.195 Y-14.833
X-7.387 Y-15.415
X-7.532 Y-16.011
X-7.629 Y-16.616
X-7.677 Y-17.228
X-7.676 Y-17.841
X-7.626 Y-18.452
X-7.527 Y-19.057
X-7.38 Y-19.653
X-7.186 Y-20.235
X-6.946 Y-20.799
X-6.661 Y-21.342
X-6.335 Y-21.861
X-5.967 Y-22.352
X-5.562 Y-22.813
X-5.122 Y-23.239
X-4.649 Y-23.63
X-4.146 Y-23.981
X-3.617 Y-24.291
X-3.064 Y-24.557
X-2.493 Y-24.779
X-1.905 Y-24.955
X-1.305 Y-25.083
X-0.697 Y-25.164
X-0.085 Y-25.195
X0.528 Y-25.178
X1.138 Y-25.112
X1.741 Y-24.998
X2.332 Y-24.837
X2.91 Y-24.63
X3.469 Y-24.378
X4.007 Y-24.084
X4.52 Y-23.748
X5.006 Y-23.373
X5.46 Y-22.962
X5.882 Y-22.517
X6.268 Y-22.041
X6.617 Y-21.536
X6.927 Y-21.007
X7.196 Y-20.455
X7.422 Y-19.885
X7.604 Y-19.3
X7.741 Y-18.702
X7.832 Y-18.096
X7.877 Y-17.484
X7.876 Y-16.871
X7.827 Y-16.259
X7.732 Y-15.653
X7.592 Y-15.057
X7.405 Y-14.472
X7.175 Y-13.904
X6.902 Y-13.355
X6.587 Y-12.828
X6.233 Y-12.328
X5.841 Y-11.856
X5.413 Y-11.417
X4.953 Y-11.011
X4.463 Y-10.642
X3.947 Y-10.311
X3.407 Y-10.021
X2.846 Y-9.772
X2.268 Y-9.567
X1.677 Y-9.406
X1.074 Y-9.29
X0.465 Y-9.219
X-0.148 Y-9.195
X-0.761 Y-9.217
X-1.37 Y-9.284
X-1.973 Y-9.396
X-2.566 Y-9.553
X-3.145 Y-9.754
X-3.708 Y-9.998
X-4.25 Y-10.285
X-4.769 Y-10.611
X-5.263 Y-10.975
X-5.729 Y-11.374
X-6.164 Y-11.806
X-6.567 Y-12.268
X-6.934 Y-12.759
X-7.265 Y-13.276
X-7.557 Y-13.815
X-7.81 Y-14.374
X-8.021 Y-14.95
X-8.188 Y-15.54
X-8.31 Y-16.141
X-8.387 Y-16.749
X-8.42 Y-17.362
X-8.408 Y-17.975
X-8.352 Y-18.585
X-8.252 Y-19.19
X-8.108 Y-19.787
X-7.922 Y-20.371
X-7.694 Y-20.94
X-7.426 Y-21.492
X-7.118 Y-22.022
X-6.77 Y-22.527
X-6.386 Y-23.006
X-5.969 Y-23.455
X-5.52 Y-23.872
X-5.042 Y-24.257
X-4.537 Y-24.605
X-4.009 Y-24.917
X-3.459 Y-25.189
X-2.892 Y-25.422
X-2.309 Y-25.613
X-1.714 Y-25.761
X-1.109 Y-25.864
X-0.499 Y-25.921
X0.114 Y-25.934
X0.727 Y-25.903
X1.335 Y-25.828
X1.937 Y-25.709
X2.529 Y-25.548
X3.108 Y-25.345
X3.671 Y-25.102
X4.215 Y-24.819
X4.738 Y-24.499
X5.236 Y-24.141
X5.706 Y-23.748
X6.147 Y-23.322
X6.557 Y-22.865
X6.935 Y-22.382
X7.278 Y-21.873
X7.584 Y-21.342
X7.854 Y-20.792
X8.085 Y-20.223
X8.276 Y-19.641
X8.427 Y-19.046
X8.536 Y-18.443
X8.603 Y-17.833
X8.625 Y-17.22
X8.603 Y-16.607
X8.539 Y-15.997
X8.433 Y-15.393
X8.286 Y-14.798
X8.097 Y-14.215
X7.868 Y-13.646
X7.6 Y-13.094
X7.295 Y-12.562
X6.952 Y-12.053
X6.575 Y-11.57
X6.164 Y-11.115
X5.721 Y-10.691
X5.248 Y-10.3
X4.75 Y-9.942
X4.228 Y-9.62
X3.685 Y-9.335
X3.124 Y-9.088
X2.547 Y-8.88
X1.957 Y-8.713
X1.357 Y-8.586
X0.749 Y-8.501
X0.138 Y-8.457
X-0.476
X-1.087 Y-8.5
X-1.695 Y-8.586
X-2.295 Y-8.712
X-2.885 Y-8.879
X-3.462 Y-9.085
X-4.024 Y-9.331
X-4.568 Y-9.616
X-5.09 Y-9.936
X-5.59 Y-10.291
X-6.066 Y-10.679
X-6.514 Y-11.098
X-6.932 Y-11.546
X-7.318 Y-12.023
X-7.67 Y-12.525
X-7.989 Y-13.049
X-8.272 Y-13.593
X-8.518 Y-14.154
X-8.726 Y-14.731
X-8.894 Y-15.321
X-9.022 Y-15.921
X-9.109 Y-16.528
X-9.155 Y-17.14
X-9.161 Y-17.753
X-9.125 Y-18.365
X-9.047 Y-18.973
X-8.928 Y-19.575
X-8.769 Y-20.167
X-8.572 Y-20.748
X-8.337 Y-21.315
X-8.065 Y-21.864
X-7.756 Y-22.394
X-7.412 Y-22.902
X-7.035 Y-23.385
X-6.626 Y-23.842
X-6.188 Y-24.272
X-5.722 Y-24.671
X-5.23 Y-25.037
X-4.714 Y-25.369
X-4.178 Y-25.666
X-3.623 Y-25.927
X-3.052 Y-26.15
X-2.467 Y-26.336
X-1.872 Y-26.482
X-1.268 Y-26.588
X-0.658 Y-26.652
X-0.045 Y-26.676
X0.568 Y-26.659
X1.179 Y-26.602
X1.784 Y-26.503
X2.381 Y-26.364
X2.968 Y-26.186
X3.542 Y-25.969
X4.1 Y-25.716
X4.641 Y-25.427
X5.162 Y-25.104
X5.661 Y-24.746
X6.134 Y-24.357
X6.581 Y-23.937
X7 Y-23.489
X7.389 Y-23.015
X7.748 Y-22.517
X8.072 Y-21.997
X8.362 Y-21.456
X8.617 Y-20.898
X8.836 Y-20.325
X9.018 Y-19.74
X9.163 Y-19.144
X9.269 Y-18.54
X9.337 Y-17.93
X9.364 Y-17.318
X9.351 Y-16.705
X9.3 Y-16.093
X9.209 Y-15.487
X9.08 Y-14.887
X8.911 Y-14.298
X8.704 Y-13.721
X8.461 Y-13.158
X8.182 Y-12.612
X7.868 Y-12.084
X7.522 Y-11.578
X7.143 Y-11.096
X6.733 Y-10.64
X6.294 Y-10.212
X5.828 Y-9.813
X5.338 Y-9.445
X4.825 Y-9.109
X4.291 Y-8.806
X3.738 Y-8.54
X3.17 Y-8.31
X2.588 Y-8.117
X1.995 Y-7.96
X1.393 Y-7.841
X0.785 Y-7.76
X0.174 Y-7.718
X-0.44 Y-7.716
X-1.052 Y-7.753
X-1.526 Y-7.812
X-1.536 Y-7.814
X-1.947 Y-7.893
X-2.503 Y-8
X-2.642 Y-8.033
X-3.059 Y-8.169
X-3.098 Y-8.183
X-4.139 Y-8.6
X-4.482 Y-8.739
X-4.589 Y-8.801
X-5.284 Y-9.246
X-5.98 Y-9.693
X-6.004 Y-9.712
X-6.397 Y-10.059
X-7.231 Y-10.855
X-7.343 Y-10.964
X-7.469 Y-11.103
X-7.51 Y-11.154
X-8.483 Y-12.521
X-8.54 Y-12.633
X-8.739 Y-13.05
X-9.184 Y-14.023
X-9.241 Y-14.162
X-9.317 Y-14.371
X-9.342 Y-14.441
X-9.679 Y-15.831
X-9.704 Y-15.97
X-9.745 Y-16.248
X-9.759 Y-16.387
X-9.818 Y-17.639
X-9.821 Y-17.778
X-9.8 Y-18.195
X-9.782 Y-18.334
X-9.602 Y-19.586
X-9.596 Y-19.628
X-9.497 Y-20.003
X-9.456 Y-20.146
X-9.025 Y-21.394
X-8.973 Y-21.533
X-8.749 Y-21.95
X-8.187 Y-22.924
X-7.994 Y-23.202
X-7.897 Y-23.341
X-7.788 Y-23.48
X-6.945 Y-24.453
X-6.813 Y-24.592
X-6.536 Y-24.829
X-5.563 Y-25.595
X-5.421 Y-25.705
X-5.284 Y-25.798
X-4.933 Y-25.983
X-4.033 Y-26.447
X-3.616 Y-26.64
X-3.525 Y-26.678
X-2.225 Y-27.06
X-2.086 Y-27.097
X-1.669 Y-27.181
X-1.53 Y-27.197
X-0.278 Y-27.316
X-0.139 Y-27.32
X0.139
X0.278 Y-27.316
X1.53 Y-27.197
X1.669 Y-27.181
X2.091 Y-27.096
X2.225 Y-27.06
X3.525 Y-26.678
X3.616 Y-26.64
X4.033 Y-26.447
X4.933 Y-25.983
X5.284 Y-25.798
X5.424 Y-25.703
X6.483 Y-24.87
X6.536 Y-24.829
X6.814 Y-24.591
X6.945 Y-24.453
X7.788 Y-23.48
X7.897 Y-23.341
X8.091 Y-23.063
X8.187 Y-22.924
X8.749 Y-21.95
X8.973 Y-21.533
X9.025 Y-21.394
X9.458 Y-20.142
X9.497 Y-20.003
X9.596 Y-19.628
X9.622 Y-19.447
X9.782 Y-18.334
X9.8 Y-18.195
X9.821 Y-17.778
X9.818 Y-17.639
X9.759 Y-16.387
X9.745 Y-16.248
X9.704 Y-15.97
X9.679 Y-15.831
X9.342 Y-14.441
X9.317 Y-14.371
X9.241 Y-14.162
X9.178 Y-14.011
X8.739 Y-13.05
X8.54 Y-12.633
X8.483 Y-12.521
X7.51 Y-11.154
X7.469 Y-11.103
X7.343 Y-10.964
X7.2 Y-10.825
X6.397 Y-10.059
X6.004 Y-9.712
X5.98 Y-9.693
X4.867 Y-8.978
X4.589 Y-8.801
X4.482 Y-8.739
X3.894 Y-8.501
X3.098 Y-8.183
X3.059 Y-8.169
X2.642 Y-8.033
X2.503 Y-8
X1.252 Y-7.759
X1.113 Y-7.739
X0.834 Y-7.711
X0.695 Y-7.698
X-0.695
X-0.973 Y-7.725
X-1.113 Y-7.739
X-1.252 Y-7.759
X-1.536 Y-7.814
G3 X-1.453 Y-8.185 I0.042 J-0.185
G1 X-1.416 Y-8.163 Z-3.991
X-1.381 Y-8.142 Z-3.976
X-1.35 Y-8.123 Z-3.952
X-1.335 Y-8.099 Z-3.922
X-1.324 Y-8.08 Z-3.887
X-1.318 Y-8.069 Z-3.847
X-1.315 Y-8.065 Z-3.806
G0 Z-3.22
X6.369 Y-12.646
G1 Z-3.41 F1000
X6.375 Y-12.644 Z-3.459
X6.392 Y-12.637 Z-3.505
X6.421 Y-12.627 Z-3.544
X6.457 Y-12.612 Z-3.575
X6.5 Y-12.596 Z-3.594
X6.546 Y-12.578 Z-3.6
G3 X7.943 Y-11.861 I-2.614 J6.807
G1 X8.066 Y-11.774
X8.11 Y-11.631
X8.121 Y-11.481
X8.116 Y-11.426
X8.102 Y-11.348
X8.075 Y-11.273
X8.035 Y-11.205
X7.864 Y-10.964
X7.788 Y-10.86
X7.62 Y-10.686
X7.483 Y-10.547
X7.344 Y-10.408
X7.092 Y-10.166
X6.616 Y-9.712
X6.397 Y-9.514
X6.29 Y-9.434
X5.892 Y-9.156
X5.145 Y-8.675
X5.006 Y-8.585
X4.867 Y-8.509
X4.499 Y-8.322
X4.45 Y-8.299
X4.172 Y-8.178
X4.033 Y-8.119
X3.338 Y-7.84
X3.143 Y-7.765
X3.059 Y-7.736
X2.642 Y-7.624
X2.503 Y-7.592
X2.086 Y-7.504
X1.669 Y-7.423
X1.252 Y-7.345
X0.834 Y-7.309
X0.695 Y-7.297
X0.278 Y-7.29
X0 Y-7.289
X-0.278 Y-7.29
X-0.695 Y-7.297
X-1.113 Y-7.333
X-1.252 Y-7.345
X-1.669 Y-7.423
X-2.086 Y-7.504
X-2.503 Y-7.592
X-2.652 Y-7.626
X-3.059 Y-7.736
X-3.199 Y-7.786
X-3.338 Y-7.84
X-4.033 Y-8.119
X-4.311 Y-8.238
X-4.45 Y-8.299
X-4.499 Y-8.322
X-4.867 Y-8.509
X-5.006 Y-8.585
X-5.702 Y-9.033
X-5.892 Y-9.156
X-6.29 Y-9.434
X-6.397 Y-9.514
X-6.616 Y-9.712
X-7.231 Y-10.299
X-7.344 Y-10.408
X-7.51 Y-10.574
X-7.649 Y-10.715
X-7.788 Y-10.86
X-7.864 Y-10.964
X-8.358 Y-11.659
X-8.653 Y-12.076
X-8.748 Y-12.216
X-8.913 Y-12.494
X-8.984 Y-12.633
X-9.178 Y-13.051
X-9.559 Y-13.884
X-9.596 Y-13.968
X-9.669 Y-14.162
X-9.711 Y-14.301
X-9.748 Y-14.441
X-9.874 Y-14.927
X-10.093 Y-15.831
X-10.111 Y-15.97
X-10.152 Y-16.334
X-10.156 Y-16.387
X-10.184 Y-16.805
X-10.224 Y-17.639
X-10.226 Y-17.778
X-10.198 Y-18.195
X-10.169 Y-18.473
X-10.152 Y-18.627
X-10.013 Y-19.594
X-9.983 Y-19.725
X-9.912 Y-20.003
X-9.874 Y-20.145
X-9.745 Y-20.559
X-9.596 Y-20.994
X-9.454 Y-21.394
X-9.402 Y-21.533
X-9.207 Y-21.95
X-9.178 Y-22.009
X-8.979 Y-22.367
X-8.9 Y-22.507
X-8.66 Y-22.924
X-8.344 Y-23.411
X-8.296 Y-23.48
X-8.189 Y-23.619
X-8.066 Y-23.775
X-7.967 Y-23.897
X-7.606 Y-24.314
X-7.361 Y-24.592
X-7.227 Y-24.731
X-7.086 Y-24.87
X-6.943 Y-25.01
X-6.814 Y-25.129
X-5.98 Y-25.784
X-5.902 Y-25.844
X-5.504 Y-26.122
X-5.424 Y-26.178
X-5.279 Y-26.261
X-4.45 Y-26.688
X-4.311 Y-26.756
X-4.033 Y-26.89
X-3.755 Y-27.005
X-3.532 Y-27.096
X-2.584 Y-27.374
X-2.225 Y-27.471
X-2.086 Y-27.505
X-1.669 Y-27.582
X-1.53 Y-27.597
X-0.695 Y-27.677
X-0.278 Y-27.714
X-0.139 Y-27.717
X0.139
X0.278 Y-27.714
X0.695 Y-27.677
X1.53 Y-27.597
X1.669 Y-27.582
X2.086 Y-27.505
X2.225 Y-27.471
X2.584 Y-27.374
X3.532 Y-27.096
X3.755 Y-27.005
X4.033 Y-26.89
X4.311 Y-26.756
X4.469 Y-26.678
X5.284 Y-26.258
X5.424 Y-26.178
X5.563 Y-26.081
X5.902 Y-25.844
X5.98 Y-25.784
X6.814 Y-25.129
X6.953 Y-25
X7.092 Y-24.865
X7.231 Y-24.727
X7.361 Y-24.592
X7.606 Y-24.314
X7.967 Y-23.897
X8.079 Y-23.758
X8.205 Y-23.599
X8.296 Y-23.48
X8.344 Y-23.411
X8.66 Y-22.924
X8.9 Y-22.506
X9.056 Y-22.228
X9.178 Y-22.009
X9.207 Y-21.95
X9.402 Y-21.533
X9.456 Y-21.386
X9.602 Y-20.977
X9.745 Y-20.559
X9.875 Y-20.142
X9.912 Y-20.003
X9.983 Y-19.725
X10.013 Y-19.594
X10.154 Y-18.613
X10.184 Y-18.334
X10.198 Y-18.195
X10.226 Y-17.778
X10.224 Y-17.639
X10.184 Y-16.805
X10.156 Y-16.387
X10.152 Y-16.334
X10.111 Y-15.97
X10.093 Y-15.831
X9.874 Y-14.927
X9.735 Y-14.39
X9.711 Y-14.301
X9.669 Y-14.162
X9.596 Y-13.968
X9.559 Y-13.884
X9.178 Y-13.05
X8.984 Y-12.633
X8.913 Y-12.494
X8.748 Y-12.216
X8.653 Y-12.076
X8.26 Y-11.52
X8.035 Y-11.205
G3 X7.733 Y-11.435 I-0.151 J-0.116
G1 X7.768 Y-11.459 Z-3.595
X7.801 Y-11.482 Z-3.58
X7.831 Y-11.503 Z-3.556
X7.862 Y-11.507 Z-3.522
X7.884 Y-11.51 Z-3.482
X7.895 Z-3.447
X7.899 Z-3.41
G0 Z-2.82
X6.725 Y-12.457
G1 Z-3.01 F1000
X6.731 Y-12.454 Z-3.059
X6.749 Y-12.448 Z-3.105
X6.777 Y-12.437 Z-3.144
X6.814 Y-12.423 Z-3.175
X6.857 Y-12.407 Z-3.194
X6.903 Y-12.39 Z-3.2
G3 X8.305 Y-11.681 I-2.572 J6.823
G1 X8.427 Y-11.594
X8.472 Y-11.451
X8.482 Y-11.302
X8.478 Y-11.24
X8.464 Y-11.162
X8.437 Y-11.087
X8.397 Y-11.018
X8.16 Y-10.686
X8.066 Y-10.581
X7.763 Y-10.269
X7.231 Y-9.738
X7.206 Y-9.712
X6.914 Y-9.434
X6.814 Y-9.342
X6.759 Y-9.295
X6.675 Y-9.226
X5.98 Y-8.739
X5.841 Y-8.644
X5.424 Y-8.367
X5.353 Y-8.322
X5.284 Y-8.281
X5.006 Y-8.132
X4.867 Y-8.063
X4.172 Y-7.74
X4.033 Y-7.676
X3.894 Y-7.619
X3.565 Y-7.487
X3.477 Y-7.458
X3.113 Y-7.348
X2.594 Y-7.209
X2.225 Y-7.116
X2.086 Y-7.083
X1.669 Y-7.003
X1.53 Y-6.987
X1.252 Y-6.958
X1.113 Y-6.944
X0.417 Y-6.883
X0.278 Y-6.877
X0.139 Y-6.876
X-0.139
X-0.278 Y-6.877
X-0.417 Y-6.883
X-1.113 Y-6.944
X-1.252 Y-6.958
X-1.53 Y-6.987
X-1.669 Y-7.003
X-2.086 Y-7.083
X-2.225 Y-7.116
X-2.594 Y-7.209
X-3.113 Y-7.348
X-3.477 Y-7.458
X-3.565 Y-7.487
X-3.912 Y-7.626
X-4.033 Y-7.676
X-4.589 Y-7.934
X-4.867 Y-8.063
X-5.006 Y-8.132
X-5.284 Y-8.281
X-5.353 Y-8.322
X-5.424 Y-8.367
X-5.841 Y-8.644
X-5.98 Y-8.739
X-6.675 Y-9.226
X-6.759 Y-9.295
X-6.814 Y-9.342
X-6.914 Y-9.434
X-7.206 Y-9.712
X-7.649 Y-10.154
X-7.788 Y-10.294
X-8.066 Y-10.581
X-8.16 Y-10.686
X-8.483 Y-11.139
X-9.178 Y-12.132
X-9.226 Y-12.216
X-9.423 Y-12.633
X-9.747 Y-13.328
X-9.811 Y-13.467
X-10.013 Y-13.925
X-10.045 Y-14.023
X-10.291 Y-14.943
X-10.375 Y-15.275
X-10.409 Y-15.414
X-10.499 Y-15.831
X-10.513 Y-15.97
X-10.586 Y-16.805
X-10.614 Y-17.222
X-10.62 Y-17.361
X-10.627 Y-17.639
X-10.626 Y-17.778
X-10.553 Y-18.613
X-10.539 Y-18.752
X-10.506 Y-19.03
X-10.489 Y-19.169
X-10.423 Y-19.586
X-10.39 Y-19.725
X-10.152 Y-20.613
X-10.037 Y-20.977
X-10.013 Y-21.05
X-9.874 Y-21.419
X-9.829 Y-21.533
X-9.44 Y-22.367
X-9.371 Y-22.506
X-9.217 Y-22.784
X-9.137 Y-22.924
X-8.863 Y-23.341
X-8.761 Y-23.49
X-8.483 Y-23.887
X-8.271 Y-24.175
X-8.205 Y-24.254
X-8.152 Y-24.314
X-8.028 Y-24.453
X-7.788 Y-24.719
X-7.219 Y-25.288
X-6.913 Y-25.566
X-6.814 Y-25.652
X-6.675 Y-25.762
X-6.381 Y-25.983
X-5.98 Y-26.265
X-5.702 Y-26.457
X-5.424 Y-26.647
X-5.006 Y-26.862
X-4.867 Y-26.93
X-4.45 Y-27.128
X-4.033 Y-27.323
X-3.894 Y-27.378
X-3.551 Y-27.513
X-3.477 Y-27.536
X-3.059 Y-27.657
X-2.225 Y-27.88
X-2.086 Y-27.914
X-1.669 Y-27.987
X-1.53 Y-28.002
X-1.113 Y-28.041
X-0.278 Y-28.114
X-0.139 Y-28.12
X0.139
X0.278 Y-28.114
X1.252 Y-28.028
X1.53 Y-28.002
X1.669 Y-27.987
X2.086 Y-27.914
X2.225 Y-27.88
X3.078 Y-27.652
X3.477 Y-27.536
X3.551 Y-27.513
X3.906 Y-27.374
X4.033 Y-27.323
X4.519 Y-27.096
X4.867 Y-26.93
X5.006 Y-26.862
X5.424 Y-26.647
X5.784 Y-26.4
X5.985 Y-26.261
X6.381 Y-25.983
X6.675 Y-25.762
X6.814 Y-25.652
X6.913 Y-25.566
X7.219 Y-25.288
X7.788 Y-24.719
X8.066 Y-24.411
X8.152 Y-24.314
X8.205 Y-24.254
X8.271 Y-24.175
X8.483 Y-23.887
X8.769 Y-23.48
X8.863 Y-23.341
X9.137 Y-22.924
X9.217 Y-22.784
X9.371 Y-22.506
X9.44 Y-22.367
X9.829 Y-21.533
X9.883 Y-21.394
X10.013 Y-21.05
X10.125 Y-20.699
X10.152 Y-20.613
X10.39 Y-19.725
X10.423 Y-19.586
X10.489 Y-19.169
X10.523 Y-18.891
X10.539 Y-18.752
X10.553 Y-18.613
X10.626 Y-17.778
X10.627 Y-17.639
X10.62 Y-17.361
X10.614 Y-17.222
X10.586 Y-16.805
X10.513 Y-15.97
X10.499 Y-15.831
X10.409 Y-15.414
X10.375 Y-15.275
X10.269 Y-14.858
X10.045 Y-14.023
X10.013 Y-13.925
X9.811 Y-13.467
X9.596 Y-13.002
X9.358 Y-12.494
X9.226 Y-12.216
X9.178 Y-12.132
X8.457 Y-11.103
X8.397 Y-11.018
G3 X8.094 Y-11.248 I-0.151 J-0.116
G1 X8.129 Y-11.272 Z-3.195
X8.163 Y-11.295 Z-3.18
X8.193 Y-11.316 Z-3.156
X8.224 Y-11.32 Z-3.122
X8.246 Y-11.324 Z-3.082
X8.257 Y-11.323 Z-3.047
X8.26 Z-3.01
G0 Z-2.42
X-8.089 Y-14.027
G1 Z-2.61 F1000
X-8.094 Y-14.023 Z-2.659
X-8.109 Y-14.011 Z-2.705
X-8.132 Y-13.992 Z-2.744
X-8.162 Y-13.967 Z-2.775
X-8.198 Y-13.937 Z-2.794
X-8.236 Y-13.906 Z-2.8
G3 X-9.55 Y-13.047 I-4.625 J-5.637
G1 X-9.686 Y-12.983
X-9.833 Y-13.014
X-9.968 Y-13.08
X-10.021 Y-13.116
X-10.081 Y-13.166
X-10.132 Y-13.226
X-10.171 Y-13.294
X-10.252 Y-13.467
X-10.305 Y-13.606
X-10.43 Y-13.943
X-10.454 Y-14.023
X-10.789 Y-15.275
X-10.822 Y-15.414
X-10.893 Y-15.831
X-10.907 Y-15.97
X-11.016 Y-17.222
X-11.02 Y-17.361
Y-17.639
X-11.017 Y-17.778
X-10.907 Y-19.03
X-10.894 Y-19.169
X-10.825 Y-19.586
X-10.792 Y-19.725
X-10.456 Y-20.977
X-10.43 Y-21.064
X-10.291 Y-21.445
X-10.257 Y-21.533
X-9.608 Y-22.924
X-9.317 Y-23.369
X-9.241 Y-23.48
X-8.657 Y-24.314
X-8.622 Y-24.36
X-8.313 Y-24.731
X-8.205 Y-24.851
X-7.351 Y-25.705
X-7.231 Y-25.813
X-6.859 Y-26.122
X-6.814 Y-26.156
X-5.98 Y-26.74
X-5.868 Y-26.817
X-5.424 Y-27.106
X-4.033 Y-27.755
X-3.94 Y-27.791
X-3.557 Y-27.93
X-3.477 Y-27.954
X-2.225 Y-28.289
X-2.086 Y-28.322
X-1.669 Y-28.39
X-1.53 Y-28.404
X-0.278 Y-28.514
X-0.139 Y-28.517
X0.139
X0.278 Y-28.514
X1.53 Y-28.404
X1.669 Y-28.39
X2.086 Y-28.322
X2.225 Y-28.289
X3.477 Y-27.954
X3.557 Y-27.93
X3.94 Y-27.791
X4.033 Y-27.755
X5.424 Y-27.106
X5.868 Y-26.817
X5.98 Y-26.74
X6.814 Y-26.156
X6.859 Y-26.122
X7.231 Y-25.813
X7.351 Y-25.705
X8.205 Y-24.851
X8.313 Y-24.731
X8.622 Y-24.36
X8.657 Y-24.314
X9.241 Y-23.48
X9.317 Y-23.369
X9.608 Y-22.924
X10.257 Y-21.533
X10.291 Y-21.445
X10.43 Y-21.064
X10.456 Y-20.977
X10.792 Y-19.725
X10.825 Y-19.586
X10.894 Y-19.169
X10.907 Y-19.03
X11.017 Y-17.778
X11.02 Y-17.639
Y-17.361
X11.016 Y-17.222
X10.907 Y-15.97
X10.893 Y-15.831
X10.822 Y-15.414
X10.789 Y-15.275
X10.454 Y-14.023
X10.43 Y-13.943
X10.291 Y-13.567
X10.252 Y-13.467
X9.603 Y-12.076
X9.317 Y-11.638
X9.236 Y-11.52
X8.652 Y-10.686
X8.622 Y-10.646
X8.309 Y-10.269
X8.205 Y-10.152
X7.348 Y-9.295
X7.231 Y-9.19
X6.858 Y-8.878
X6.814 Y-8.845
X5.98 Y-8.261
X5.866 Y-8.183
X5.424 Y-7.893
X4.033 Y-7.244
X3.943 Y-7.209
X3.564 Y-7.07
X3.477 Y-7.044
X2.225 Y-6.708
X2.086 Y-6.675
X1.669 Y-6.606
X1.53 Y-6.592
X0.278 Y-6.482
X0.139 Y-6.479
X-0.139
X-0.278 Y-6.482
X-1.53 Y-6.592
X-1.669 Y-6.606
X-2.086 Y-6.675
X-2.225 Y-6.708
X-3.477 Y-7.044
X-3.564 Y-7.07
X-3.943 Y-7.209
X-4.033 Y-7.244
X-5.424 Y-7.893
X-5.866 Y-8.183
X-5.98 Y-8.261
X-6.814 Y-8.845
X-6.858 Y-8.878
X-7.231 Y-9.19
X-7.348 Y-9.295
X-8.205 Y-10.152
X-8.309 Y-10.269
X-8.622 Y-10.646
X-8.652 Y-10.686
X-9.236 Y-11.52
X-9.331 Y-11.659
X-9.603 Y-12.076
X-10.171 Y-13.294
G3 X-9.822 Y-13.444 I0.175 J-0.074
G1 X-9.814 Y-13.405 Z-2.796
X-9.806 Y-13.368 Z-2.784
Z-2.783
X-9.82 Y-13.325 Z-2.754
X-9.83 Y-13.291 Z-2.713
X-9.836 Y-13.269 Z-2.664
X-9.839 Y-13.262 Z-2.61
G0 Z3.004
X12.666 Y-4.395
Z-2.42
G1 Z-2.61 F1000
X12.661 Y-4.399 Z-2.659
X12.648 Y-4.413 Z-2.705
X12.627 Y-4.434 Z-2.744
X12.599 Y-4.463 Z-2.775
X12.567 Y-4.495 Z-2.794
X12.533 Y-4.53 Z-2.8
G3 X11.561 Y-5.764 I5.207 J-5.104
G1 X11.54 Y-5.799
X11.539 Y-5.84
X11.558 Y-5.875
X12.985 Y-7.487
X13.072 Y-7.586
X13.104 Y-7.626
X13.211 Y-7.788
X13.376 Y-8.044
X14.08 Y-9.156
X14.432 Y-9.712
X14.511 Y-9.851
X14.582 Y-9.99
X14.998 Y-10.964
X15.53 Y-12.216
X15.575 Y-12.37
X15.648 Y-12.633
X15.684 Y-12.772
X16.095 Y-14.441
X16.132 Y-14.6
X16.185 Y-14.858
X16.211 Y-14.997
X16.39 Y-17.222
X16.395 Y-17.361
Y-17.639
X16.39 Y-17.778
X16.211 Y-20.003
X16.185 Y-20.142
X16.127 Y-20.42
X16.095 Y-20.559
X15.684 Y-22.228
X15.648 Y-22.367
X15.571 Y-22.645
X15.53 Y-22.784
X14.939 Y-24.175
X14.582 Y-25.01
X14.511 Y-25.149
X14.432 Y-25.288
X13.464 Y-26.817
X13.286 Y-27.096
X13.196 Y-27.235
X13.104 Y-27.374
X13.072 Y-27.414
X12.616 Y-27.93
X11.507 Y-29.181
X11.264 Y-29.418
X11.219 Y-29.46
X9.456 Y-30.899
X9.34 Y-30.989
X9.317 Y-31.005
X9.178 Y-31.089
X8.873 Y-31.267
X7.186 Y-32.241
X7.092 Y-32.294
X6.896 Y-32.38
X6.814 Y-32.412
X4.867 Y-33.151
X4.728 Y-33.197
X4.45 Y-33.28
X4.311 Y-33.317
X2.086 Y-33.771
X1.947 Y-33.784
X1.669 Y-33.804
X1.53 Y-33.811
X-0.139 Y-33.878
X-0.278 Y-33.883
X-0.556 Y-33.89
X-0.695 Y-33.892
X-1.113 Y-33.845
X-2.92 Y-33.625
X-3.059 Y-33.604
X-3.338 Y-33.555
X-3.477 Y-33.525
X-5.702 Y-32.88
X-5.841 Y-32.829
X-6.119 Y-32.703
X-6.258 Y-32.639
X-7.975 Y-31.824
X-8.066 Y-31.775
X-8.447 Y-31.546
X-8.483 Y-31.523
X-10.291 Y-30.275
X-10.435 Y-30.155
X-10.586 Y-30.016
X-12.099 Y-28.563
X-12.175 Y-28.486
X-12.301 Y-28.347
X-12.377 Y-28.262
X-13.671 Y-26.539
X-13.767 Y-26.407
X-13.946 Y-26.122
X-14.024 Y-25.983
X-14.973 Y-24.175
X-15.019 Y-24.073
X-15.158 Y-23.744
X-15.204 Y-23.619
X-15.808 Y-21.811
X-15.939 Y-21.394
X-16.009 Y-20.977
X-16.303 Y-19.169
X-16.321 Y-19.03
X-16.349 Y-18.752
X-16.36 Y-18.613
Y-16.387
X-16.349 Y-16.248
X-16.321 Y-15.97
X-16.303 Y-15.831
X-16.009 Y-14.023
X-15.939 Y-13.606
X-15.808 Y-13.189
X-15.204 Y-11.381
X-15.158 Y-11.256
X-15.019 Y-10.927
X-14.973 Y-10.825
X-14.024 Y-9.017
X-13.946 Y-8.878
X-13.767 Y-8.593
X-13.671 Y-8.461
X-12.377 Y-6.738
X-12.301 Y-6.653
X-12.175 Y-6.514
X-12.099 Y-6.437
X-10.569 Y-4.968
X-10.43 Y-4.841
X-10.291 Y-4.725
X-8.483 Y-3.477
X-8.447 Y-3.454
X-8.066 Y-3.225
X-7.975 Y-3.176
X-6.217 Y-2.342
X-5.98 Y-2.234
X-5.841 Y-2.171
X-5.702 Y-2.12
X-3.477 Y-1.475
X-3.338 Y-1.445
X-3.059 Y-1.396
X-2.92 Y-1.375
X-1.113 Y-1.155
X-0.695 Y-1.108
X-0.556 Y-1.11
X-0.278 Y-1.117
X0.278 Y-1.138
X1.53 Y-1.189
X1.669 Y-1.196
X1.947 Y-1.216
X2.088 Y-1.229
X4.311 Y-1.683
X4.45 Y-1.72
X4.728 Y-1.803
X4.867 Y-1.849
X6.814 Y-2.588
X6.896 Y-2.62
X7.092 Y-2.706
X7.231 Y-2.785
X8.9 Y-3.748
X9.178 Y-3.911
X9.317 Y-3.995
X9.34 Y-4.011
X9.456 Y-4.101
X11.219 Y-5.54
X11.264 Y-5.582
X11.507 Y-5.819
X11.558 Y-5.875
G3 X11.834 Y-5.615 I0.138 J0.131
G1 X11.797 Y-5.594 Z-2.795
X11.761 Y-5.575 Z-2.78
X11.729 Y-5.558 Z-2.756
X11.696 Y-5.555 Z-2.719
X11.677 Y-5.556 Z-2.685
X11.665 Y-5.557 Z-2.648
X11.661 Y-5.558 Z-2.61
G0 Z3.004
X12.623 Y-30.55
Z-2.02
G1 Z-2.21 F1000
X12.62 Y-30.545 Z-2.259
X12.61 Y-30.528 Z-2.305
X12.595 Y-30.503 Z-2.344
X12.575 Y-30.469 Z-2.375
X12.551 Y-30.429 Z-2.394
X12.526 Y-30.387 Z-2.4
G3 X11.581 Y-29.132 I-6.262 J-3.734
G1 X11.528 Y-29.08
X11.382 Y-29.043
X11.232 Y-29.045
X11.084 Y-29.067
X10.937 Y-29.106
X10.753 Y-29.17
X10.515 Y-29.275
X10.178 Y-29.457
X9.664 Y-29.791
X9.175 Y-30.161
X8.66 Y-30.494
X8.134 Y-30.81
X7.605 Y-31.12
X7.074 Y-31.427
X6.519 Y-31.686
X5.951 Y-31.918
X5.379 Y-32.141
X4.806 Y-32.357
X4.218 Y-32.531
X3.621 Y-32.672
X3.021 Y-32.801
X2.421 Y-32.926
X1.813 Y-33.008
X1.201 Y-33.053
X0.589 Y-33.085
X-0.024 Y-33.111
X-0.637 Y-33.102
X-1.248 Y-33.051
X-1.858 Y-32.984
X-2.467 Y-32.913
X-3.072 Y-32.812
X-3.667 Y-32.665
X-4.259 Y-32.503
X-4.849 Y-32.335
X-5.431 Y-32.142
X-5.996 Y-31.905
X-6.555 Y-31.651
X-7.11 Y-31.391
X-7.655 Y-31.11
X-8.178 Y-30.789
X-8.689 Y-30.45
X-9.196 Y-30.105
X-9.695 Y-29.748
X-10.159 Y-29.348
X-10.609 Y-28.931
X-11.054 Y-28.509
X-11.492 Y-28.08
X-11.889 Y-27.613
X-12.268 Y-27.13
X-12.64 Y-26.643
X-13.004 Y-26.149
X-13.326 Y-25.627
X-13.624 Y-25.091
X-13.914 Y-24.551
X-14.195 Y-24.006
X-14.435 Y-23.441
X-14.645 Y-22.865
X-14.845 Y-22.285
X-15.039 Y-21.704
X-15.189 Y-21.109
X-15.306 Y-20.507
X-15.41 Y-19.903
X-15.509 Y-19.297
X-15.568 Y-18.687
X-15.589 Y-18.074
X-15.596 Y-17.461
X-15.598 Y-16.848
X-15.564 Y-16.235
X-15.488 Y-15.627
X-15.397 Y-15.02
X-15.301 Y-14.414
X-15.175 Y-13.814
X-15.005 Y-13.225
X-14.819 Y-12.641
X-14.628 Y-12.058
X-14.413 Y-11.484
X-14.152 Y-10.928
X-13.876 Y-10.381
X-13.594 Y-9.836
X-13.294 Y-9.301
X-12.951 Y-8.793
X-12.591 Y-8.297
X-12.225 Y-7.804
X-11.848 Y-7.321
X-11.429 Y-6.872
X-10.995 Y-6.439
X-10.556 Y-6.012
X-10.11 Y-5.59
X-9.627 Y-5.213
X-9.129 Y-4.854
X-8.627 Y-4.502
X-8.117 Y-4.161
X-7.584 Y-3.858
X-7.037 Y-3.581
X-6.485 Y-3.314
X-5.931 Y-3.051
X-5.356 Y-2.836
X-4.772 Y-2.65
X-4.184 Y-2.474
X-3.596 Y-2.302
X-2.995 Y-2.177
X-2.389 Y-2.085
X-1.781 Y-2.005
X-1.172 Y-1.93
X-0.56 Y-1.896
X0.053 Y-1.901
X0.666 Y-1.918
X1.279 Y-1.941
X1.89 Y-2
X2.495 Y-2.1
X3.097 Y-2.215
X3.699 Y-2.335
X4.293 Y-2.485
X4.875 Y-2.679
X5.451 Y-2.888
X6.026 Y-3.103
X6.591 Y-3.341
X7.135 Y-3.623
X7.671 Y-3.922
X8.204 Y-4.226
X8.727 Y-4.545
X9.221 Y-4.91
X9.702 Y-5.29
X10.179 Y-5.675
X10.647 Y-6.072
X11.078 Y-6.507
X11.494 Y-6.959
X11.903 Y-7.415
X12.307 Y-7.877
X12.664 Y-8.375
X13.003 Y-8.887
X13.334 Y-9.403
X13.66 Y-9.922
X13.938 Y-10.469
X14.191 Y-11.028
X14.436 Y-11.59
X14.677 Y-12.154
X14.868 Y-12.737
X15.03 Y-13.328
X15.182 Y-13.922
X15.327 Y-14.518
X15.43 Y-15.123
X15.498 Y-15.732
X15.554 Y-16.343
X15.605 Y-16.954
X15.614 Y-17.567
X15.585 Y-18.18
X15.542 Y-18.792
X15.495 Y-19.403
X15.412 Y-20.011
X15.287 Y-20.611
X15.148 Y-21.208
X15.004 Y-21.804
X14.83 Y-22.393
X14.613 Y-22.966
X14.381 Y-23.534
X14.143 Y-24.099
X13.883 Y-24.655
X13.579 Y-25.187
X13.259 Y-25.71
X12.934 Y-26.23
X12.594 Y-26.741
X12.21 Y-27.219
X11.811 Y-27.685
X11.335 Y-28.071
X10.777 Y-28.326
X10.222 Y-28.588
X9.689 Y-28.891
X9.178 Y-29.23
X8.67 Y-29.574
X8.153 Y-29.903
X7.628 Y-30.22
X7.1 Y-30.532
X6.556 Y-30.815
X5.996 Y-31.066
X5.429 Y-31.299
X4.857 Y-31.521
X4.274 Y-31.71
X3.681 Y-31.867
X3.083 Y-32.005
X2.483 Y-32.128
X1.876 Y-32.218
X1.265 Y-32.275
X0.653 Y-32.315
X0.04 Y-32.336
X-0.573 Y-32.324
X-1.184 Y-32.281
X-1.795 Y-32.221
X-2.403 Y-32.141
X-3.006 Y-32.027
X-3.602 Y-31.884
X-4.194 Y-31.726
X-4.781 Y-31.548
X-5.356 Y-31.335
X-5.921 Y-31.095
X-6.48 Y-30.842
X-7.029 Y-30.569
X-7.56 Y-30.263
X-8.078 Y-29.934
X-8.588 Y-29.593
X-9.085 Y-29.234
X-9.558 Y-28.844
X-10.015 Y-28.435
X-10.462 Y-28.016
X-10.891 Y-27.578
X-11.294 Y-27.115
X-11.678 Y-26.637
X-12.051 Y-26.15
X-12.401 Y-25.646
X-12.721 Y-25.123
X-13.023 Y-24.589
X-13.313 Y-24.049
X-13.574 Y-23.494
X-13.803 Y-22.925
X-14.013 Y-22.349
X-14.212 Y-21.769
X-14.376 Y-21.178
X-14.507 Y-20.579
X-14.621 Y-19.976
X-14.718 Y-19.371
X-14.782 Y-18.761
X-14.815 Y-18.148
X-14.829 Y-17.535
X-14.825 Y-16.922
X-14.787 Y-16.31
X-14.719 Y-15.7
X-14.633 Y-15.093
X-14.528 Y-14.489
X-14.389 Y-13.892
X-14.221 Y-13.302
X-14.039 Y-12.716
X-13.838 Y-12.137
X-13.6 Y-11.571
X-13.337 Y-11.017
X-13.061 Y-10.47
X-12.766 Y-9.932
X-12.438 Y-9.414
X-12.087 Y-8.911
X-11.725 Y-8.416
X-11.345 Y-7.935
X-10.935 Y-7.478
X-10.508 Y-7.038
X-10.071 Y-6.608
X-9.615 Y-6.197
X-9.136 Y-5.815
X-8.642 Y-5.451
X-8.14 Y-5.099
X-7.622 Y-4.771
X-7.086 Y-4.473
X-6.54 Y-4.193
X-5.989 Y-3.924
X-5.424 Y-3.687
X-4.846 Y-3.482
X-4.261 Y-3.296
X-3.673 Y-3.122
X-3.076 Y-2.983
X-2.472 Y-2.877
X-1.865 Y-2.788
X-1.256 Y-2.716
X-0.644 Y-2.678
X-0.031 Y-2.671
X0.583 Y-2.682
X1.195 Y-2.712
X1.805 Y-2.776
X2.411 Y-2.869
X3.015 Y-2.979
X3.614 Y-3.109
X4.205 Y-3.274
X4.787 Y-3.466
X5.365 Y-3.672
X5.935 Y-3.897
X6.49 Y-4.159
X7.032 Y-4.445
X7.568 Y-4.743
X8.093 Y-5.06
X8.597 Y-5.41
X9.085 Y-5.781
X9.565 Y-6.163
X10.029 Y-6.564
X10.468 Y-6.992
X10.89 Y-7.437
X11.302 Y-7.891
X11.693 Y-8.364
X12.055 Y-8.859
X12.399 Y-9.367
X12.732 Y-9.882
X13.038 Y-10.413
X13.313 Y-10.961
X13.569 Y-11.519
X13.816 Y-12.08
X14.028 Y-12.655
X14.208 Y-13.242
X14.369 Y-13.833
X14.516 Y-14.429
X14.63 Y-15.031
X14.712 Y-15.639
X14.776 Y-16.249
X14.823 Y-16.861
X14.836 Y-17.474
X14.817 Y-18.087
X14.781 Y-18.699
X14.726 Y-19.31
X14.636 Y-19.916
X14.517 Y-20.518
X14.383 Y-21.116
X14.228 Y-21.71
X14.039 Y-22.293
X13.823 Y-22.867
X13.593 Y-23.436
X13.345 Y-23.997
X13.06 Y-24.539
X12.751 Y-25.07
X12.431 Y-25.593
X12.092 Y-26.104
X11.721 Y-26.592
X11.31 Y-27.047
X10.811 Y-27.404
X10.274 Y-27.7
X9.736 Y-27.995
X9.211 Y-28.312
X8.182 Y-28.98
X7.663 Y-29.305
X7.138 Y-29.623
X6.603 Y-29.922
X6.053 Y-30.194
X5.492 Y-30.443
X4.925 Y-30.674
X4.346 Y-30.878
X3.757 Y-31.05
X3.163 Y-31.199
X2.563 Y-31.327
X1.957 Y-31.425
X1.348 Y-31.493
X0.736 Y-31.539
X0.123 Y-31.56
X-0.49 Y-31.55
X-1.102 Y-31.513
X-1.712 Y-31.454
X-2.32 Y-31.368
X-2.922 Y-31.251
X-3.518 Y-31.11
X-4.11 Y-30.948
X-4.693 Y-30.757
X-5.265 Y-30.536
X-5.829 Y-30.295
X-6.383 Y-30.033
X-6.922 Y-29.741
X-7.447 Y-29.424
X-7.961 Y-29.089
X-8.461 Y-28.734
X-8.941 Y-28.352
X-9.404 Y-27.949
X-9.852 Y-27.531
X-10.281 Y-27.093
X-10.687 Y-26.633
X-11.075 Y-26.158
X-11.445 Y-25.669
X-11.789 Y-25.161
X-12.109 Y-24.638
X-12.412 Y-24.105
X-12.691 Y-23.559
X-12.941 Y-22.999
X-13.166 Y-22.429
X-13.374 Y-21.852
X-13.552 Y-21.265
X-13.699 Y-20.669
X-13.822 Y-20.068
X-13.924 Y-19.464
X-13.996 Y-18.855
X-14.038 Y-18.243
X-14.057 Y-17.63
X-14.052 Y-17.016
X-14.016 Y-16.404
X-13.953 Y-15.794
X-13.868 Y-15.187
X-13.755 Y-14.584
X-13.612 Y-13.988
X-13.446 Y-13.397
X-13.259 Y-12.813
X-13.043 Y-12.239
X-12.798 Y-11.677
X-12.533 Y-11.124
X-12.247 Y-10.581
X-11.932 Y-10.056
X-11.592 Y-9.545
X-11.235 Y-9.046
X-10.858 Y-8.563
X-10.455 Y-8.1
X-10.034 Y-7.654
X-9.597 Y-7.224
X-9.14 Y-6.815
X-8.664 Y-6.429
X-8.172 Y-6.062
X-7.667 Y-5.714
X-7.145 Y-5.392
X-6.609 Y-5.094
X-6.064 Y-4.814
X-5.507 Y-4.557
X-4.936 Y-4.332
X-4.356 Y-4.132
X-3.771 Y-3.95
X-3.177 Y-3.798
X-2.575 Y-3.677
X-1.97 Y-3.58
X-1.361 Y-3.504
X-0.75 Y-3.459
X-0.137 Y-3.444
X0.477 Y-3.45
X1.089 Y-3.482
X1.699 Y-3.545
X2.306 Y-3.634
X2.909 Y-3.744
X3.507 Y-3.883
X4.096 Y-4.052
X4.679 Y-4.243
X5.255 Y-4.454
X5.818 Y-4.695
X6.369 Y-4.965
X6.91 Y-5.254
X7.44 Y-5.563
X7.952 Y-5.901
X8.447 Y-6.262
X8.93 Y-6.64
X9.397 Y-7.038
X9.841 Y-7.461
X10.269 Y-7.9
X10.681 Y-8.355
X11.07 Y-8.829
X11.434 Y-9.322
X11.781 Y-9.828
X12.108 Y-10.347
X12.407 Y-10.882
X12.681 Y-11.431
X12.938 Y-11.988
X13.17 Y-12.555
X13.369 Y-13.135
X13.544 Y-13.723
X13.699 Y-14.317
X13.824 Y-14.917
X13.919 Y-15.523
X13.992 Y-16.132
X14.041 Y-16.743
X14.059 Y-17.356
X14.049 Y-17.969
X14.017 Y-18.582
X13.958 Y-19.192
X13.869 Y-19.799
X13.754 Y-20.401
X13.618 Y-20.999
X13.454 Y-21.59
X13.259 Y-22.172
X13.043 Y-22.746
X12.808 Y-23.312
X12.542 Y-23.865
X12.249 Y-24.404
X11.937 Y-24.932
X11.605 Y-25.447
X11.241 Y-25.941
X10.819 Y-26.386
X10.327 Y-26.752
X9.805 Y-27.073
X9.278 Y-27.387
X8.756 Y-27.709
X7.722 Y-28.369
X7.201 Y-28.692
X6.673 Y-29.004
X6.133 Y-29.295
X5.58 Y-29.561
X5.018 Y-29.807
X4.446 Y-30.027
X3.863 Y-30.217
X3.271 Y-30.379
X2.674 Y-30.517
X2.07 Y-30.626
X1.462 Y-30.705
X0.851 Y-30.758
X0.238 Y-30.783
X-0.375 Y-30.779
X-0.987 Y-30.746
X-1.598 Y-30.688
X-2.205 Y-30.601
X-2.807 Y-30.484
X-3.404 Y-30.342
X-3.993 Y-30.174
X-4.573 Y-29.975
X-5.144 Y-29.751
X-5.706 Y-29.504
X-6.253 Y-29.228
X-6.786 Y-28.925
X-7.306 Y-28.599
X-7.811 Y-28.251
X-8.297 Y-27.878
X-8.766 Y-27.482
X-9.218 Y-27.068
X-9.65 Y-26.632
X-10.06 Y-26.176
X-10.45 Y-25.702
X-10.818 Y-25.212
X-11.161 Y-24.704
X-11.482 Y-24.181
X-11.781 Y-23.645
X-12.052 Y-23.096
X-12.296 Y-22.533
X-12.519 Y-21.961
X-12.714 Y-21.38
X-12.877 Y-20.789
X-13.012 Y-20.191
X-13.123 Y-19.588
X-13.204 Y-18.98
X-13.256 Y-18.369
X-13.282 Y-17.756
X-13.28 Y-17.143
X-13.248 Y-16.53
X-13.189 Y-15.92
X-13.103 Y-15.312
X-12.988 Y-14.71
X-12.845 Y-14.114
X-12.678 Y-13.524
X-12.483 Y-12.942
X-12.259 Y-12.371
X-12.009 Y-11.811
X-11.737 Y-11.261
X-11.436 Y-10.727
X-11.109 Y-10.208
X-10.761 Y-9.704
X-10.39 Y-9.215
X-9.995 Y-8.746
X-9.579 Y-8.295
X-9.145 Y-7.862
X-8.69 Y-7.451
X-8.216 Y-7.062
X-7.726 Y-6.693
X-7.219 Y-6.348
X-6.696 Y-6.027
X-6.16 Y-5.729
X-5.612 Y-5.454
X-5.05 Y-5.208
X-4.477 Y-4.989
X-3.896 Y-4.793
X-3.307 Y-4.625
X-2.708 Y-4.489
X-2.105 Y-4.38
X-1.497 Y-4.297
X-0.886 Y-4.243
X-0.274 Y-4.219
X0.34 Y-4.22
X0.952 Y-4.25
X1.563 Y-4.309
X2.17 Y-4.395
X2.773 Y-4.507
X3.369 Y-4.649
X3.959 Y-4.819
X4.541 Y-5.012
X5.113 Y-5.233
X5.673 Y-5.483
X6.221 Y-5.757
X6.758 Y-6.054
X7.278 Y-6.379
X7.782 Y-6.729
X8.27 Y-7.1
X8.741 Y-7.493
X9.192 Y-7.908
X9.625 Y-8.343
X10.038 Y-8.796
X10.428 Y-9.269
X10.796 Y-9.76
X11.144 Y-10.265
X11.467 Y-10.787
X11.763 Y-11.323
X12.037 Y-11.872
X12.287 Y-12.432
X12.508 Y-13.004
X12.7 Y-13.587
X12.869 Y-14.176
X13.008 Y-14.773
X13.117 Y-15.377
X13.2 Y-15.985
X13.256 Y-16.595
X13.282 Y-17.208
X13.235 Y-17.82
X13.191 Y-18.431
X13.129 Y-19.041
X13.04 Y-19.648
X12.926 Y-20.251
X12.786 Y-20.848
X12.617 Y-21.437
X12.42 Y-22.018
X12.201 Y-22.591
X11.954 Y-23.152
X11.677 Y-23.7
X11.377 Y-24.234
X11.053 Y-24.755
X10.693 Y-25.251
X10.268 Y-25.694
X9.784 Y-26.07
X9.528 Y-26.239
X8.882 Y-26.652
X8.363 Y-26.979
X7.846 Y-27.308
X7.327 Y-27.636
X6.805 Y-27.957
X6.275 Y-28.265
X5.733 Y-28.553
X5.18 Y-28.819
X4.617 Y-29.06
X4.042 Y-29.274
X3.457 Y-29.457
X2.863 Y-29.613
X2.263 Y-29.739
X1.657 Y-29.834
X1.047 Y-29.899
X0.435 Y-29.934
X-0.178 Y-29.939
X-0.791 Y-29.915
X-1.402 Y-29.861
X-2.009 Y-29.777
X-2.612 Y-29.663
X-3.208 Y-29.521
X-3.797 Y-29.349
X-4.377 Y-29.148
X-4.946 Y-28.921
X-5.503 Y-28.665
X-6.046 Y-28.38
X-6.575 Y-28.068
X-7.087 Y-27.731
X-7.582 Y-27.368
X-8.057 Y-26.982
X-8.514 Y-26.573
X-8.95 Y-26.141
X-9.365 Y-25.689
X-9.757 Y-25.218
X-10.125 Y-24.727
X-10.469 Y-24.22
X-10.789 Y-23.696
X-11.083 Y-23.158
X-11.348 Y-22.605
X-11.588 Y-22.041
X-11.801 Y-21.465
X-11.981 Y-20.879
X-12.131 Y-20.284
X-12.252 Y-19.683
X-12.343 Y-19.077
X-12.404 Y-18.467
X-12.436 Y-17.854
X-12.438 Y-17.241
X-12.409 Y-16.628
X-12.351 Y-16.018
X-12.264 Y-15.411
X-12.146 Y-14.809
X-12 Y-14.213
X-11.826 Y-13.625
X-11.621 Y-13.047
X-11.389 Y-12.479
X-11.13 Y-11.923
X-10.842 Y-11.382
X-10.525 Y-10.857
X-10.184 Y-10.347
X-9.818 Y-9.855
X-9.429 Y-9.381
X-9.016 Y-8.927
X-8.583 Y-8.493
X-8.128 Y-8.082
X-7.654 Y-7.693
X-7.162 Y-7.327
X-6.652 Y-6.987
X-6.126 Y-6.671
X-5.586 Y-6.38
X-5.033 Y-6.116
X-4.466 Y-5.882
X-3.888 Y-5.675
X-3.301 Y-5.498
X-2.706 Y-5.352
X-2.104 Y-5.235
X-1.497 Y-5.147
X-0.886 Y-5.09
X-0.273 Y-5.063
X0.34 Y-5.064
X0.952 Y-5.097
X1.562 Y-5.159
X2.169 Y-5.249
X2.77 Y-5.37
X3.365 Y-5.521
X3.952 Y-5.699
X4.529 Y-5.906
X5.094 Y-6.144
X5.647 Y-6.409
X6.187 Y-6.699
X6.711 Y-7.018
X7.218 Y-7.363
X7.708 Y-7.732
X8.18 Y-8.124
X8.631 Y-8.54
X9.062 Y-8.976
X9.471 Y-9.432
X9.857 Y-9.909
X10.221 Y-10.403
X10.559 Y-10.914
X10.871 Y-11.443
X11.157 Y-11.985
X11.416 Y-12.541
X11.647 Y-13.109
X11.848 Y-13.688
X12.022 Y-14.277
X12.165 Y-14.873
X12.278 Y-15.476
X12.362 Y-16.083
X12.416 Y-16.694
X12.418 Y-17.307
X12.389 Y-17.92
X12.34 Y-18.531
X12.268 Y-19.14
X12.17 Y-19.746
X12.043 Y-20.346
X11.887 Y-20.939
X11.702 Y-21.523
X11.49 Y-22.099
X11.249 Y-22.663
X10.979 Y-23.214
X10.682 Y-23.75
X10.355 Y-24.269
X9.977 Y-24.752
X9.754 Y-24.963
X9.637 Y-25.061
X9.602 Y-25.101
X9.58 Y-25.15
X9.573 Y-25.203
G3 X9.888 Y-25.346 I0.19
G1 X9.909 Y-25.309 Z-2.395
X9.93 Y-25.274 Z-2.38
X9.948 Y-25.243 Z-2.356
X9.953 Y-25.208 Z-2.317
Y-25.203 Z-2.309
X9.951 Y-25.182 Z-2.261
Y-25.175 Z-2.21
G0 Z3.004
X-17.754 Y-37.728
Z-7.22
G1 Z-7.41 F1000
X-17.752 Y-37.721 Z-7.459
X-17.747 Y-37.703 Z-7.505
X-17.74 Y-37.674 Z-7.544
X-17.73 Y-37.636 Z-7.575
X-17.719 Y-37.591 Z-7.594
X-17.706 Y-37.544 Z-7.6
G3 X-17.483 Y-35.989 I-7.063 J1.809
G1 Y-35.839
X-17.605 Y-35.238
X-17.649 Y-34.626
X-17.664 Y-34.013
X-17.67 Y-33.4
X-17.672 Y-32.786
Y-29.72
X-17.673 Y-0.896
X-17.644 Y-0.745
X-17.571 Y-0.611
X-17.374 Y-0.375
X-17.119 Y-0.205
X-16.554 Y0.034
X-15.948 Y0.124
X-15.335 Y0.156
X-14.722 Y0.167
X-14.109 Y0.17
X-12.882 Y0.172
X-3.07 Y0.173
X16.555
X16.708 Y0.17
X16.852 Y0.115
X17.097 Y-0.069
X17.275 Y-0.319
X17.525 Y-0.879
X17.62 Y-1.485
X17.653 Y-2.097
X17.664 Y-2.71
X17.667 Y-3.324
X17.668 Y-4.55
X17.648 Y-30.308
X17.645 Y-34.141
X17.607 Y-34.29
X17.53 Y-34.422
X17.328 Y-34.653
X17.07 Y-34.819
X16.503 Y-35.052
X15.896 Y-35.14
X15.284 Y-35.171
X14.671 Y-35.181
X14.057 Y-35.185
X12.831 Y-35.186
X-15.84 Y-35.174
X-15.988 Y-35.133
X-16.254 Y-34.981
X-16.452 Y-34.747
X-16.737 Y-34.204
X-16.849 Y-33.601
X-16.89 Y-32.989
X-16.905 Y-32.376
X-16.91 Y-31.763
X-16.912 Y-31.149
X-16.913 Y-28.083
Y-23.177
Y-1.865
X-16.882 Y-1.715
X-16.77 Y-1.43
X-16.57 Y-1.197
X-16.32 Y-1.02
X-15.764 Y-0.761
X-15.16 Y-0.654
X-14.548 Y-0.612
X-13.935 Y-0.597
X-13.322 Y-0.591
X-12.709 Y-0.589
X-10.256 Y-0.588
X11.823 Y-0.587
X15.656
X15.805 Y-0.62
X15.948 Y-0.676
X16.207 Y-0.839
X16.409 Y-1.07
X16.707 Y-1.606
X16.832 Y-2.207
X16.881 Y-2.818
X16.899 Y-3.431
X16.905 Y-4.044
X16.907 Y-4.658
Y-6.498
X16.885 Y-33.175
X16.813 Y-33.473
X16.644 Y-33.729
X16.411 Y-33.929
X15.873 Y-34.223
X15.273 Y-34.348
X14.661 Y-34.397
X14.048 Y-34.415
X13.435 Y-34.422
X12.822 Y-34.424
X10.982 Y-34.425
X4.236 Y-34.422
X-14.776 Y-34.414
X-14.929 Y-34.403
X-15.077 Y-34.364
X-15.356 Y-34.236
X-15.58 Y-34.027
X-15.914 Y-33.513
X-16.059 Y-32.917
X-16.117 Y-32.306
X-16.139 Y-31.693
X-16.148 Y-31.08
X-16.151 Y-30.467
X-16.152 Y-29.24
X-16.153 Y-20.391
Y-20.367
X-16.155 Y-20.343
X-16.158 Y-20.319
X-16.345 Y-19.169
X-16.364 Y-19.03
X-16.391 Y-18.752
X-16.401 Y-18.613
Y-16.387
X-16.391 Y-16.248
X-16.364 Y-15.97
X-16.345 Y-15.831
X-16.278 Y-15.414
X-16.21 Y-14.805
X-16.172 Y-14.192
X-16.159 Y-13.579
X-16.155 Y-12.966
X-16.153 Y-11.739
Y-2.847
X-16.149 Y-2.694
X-16.089 Y-2.393
X-15.94 Y-2.125
X-15.719 Y-1.912
X-15.198 Y-1.589
X-14.602 Y-1.445
X-13.991 Y-1.386
X-13.379 Y-1.362
X-12.765 Y-1.353
X-12.152 Y-1.35
X-10.926 Y-1.348
X-3.051 Y-1.347
X-3.029
X-3.007 Y-1.345
X-2.986 Y-1.343
X-2.92 Y-1.333
X-1.113 Y-1.113
X-0.695 Y-1.066
X-0.556 Y-1.068
X-0.278 Y-1.075
X0.278 Y-1.097
X1.53 Y-1.147
X1.669 Y-1.154
X1.947 Y-1.174
X2.086 Y-1.187
X2.225 Y-1.215
X2.692 Y-1.285
X3.304 Y-1.326
X3.917 Y-1.34
X4.53 Y-1.345
X5.144 Y-1.346
X9.437 Y-1.347
X14.649
X14.956 Y-1.356
X15.243 Y-1.463
X15.484 Y-1.653
X15.672 Y-1.895
X15.951 Y-2.441
X16.071 Y-3.043
X16.119 Y-3.654
X16.137 Y-4.267
X16.144 Y-4.88
X16.146 Y-5.494
X16.147 Y-6.72
X16.141 Y-14.4
X16.142 Y-14.434
X16.146 Y-14.467
X16.152 Y-14.5
X16.17 Y-14.58
X16.227 Y-14.858
X16.253 Y-14.997
X16.432 Y-17.222
X16.437 Y-17.361
Y-17.639
X16.432 Y-17.778
X16.253 Y-20.003
X16.238 Y-20.08
X16.184 Y-20.481
X16.152 Y-21.093
X16.14 Y-21.706
X16.136 Y-22.32
X16.133 Y-23.546
X16.126 Y-32.439
X16.029 Y-32.73
X15.847 Y-32.977
X15.609 Y-33.17
X15.068 Y-33.459
X14.468 Y-33.584
X13.857 Y-33.634
X13.244 Y-33.654
X12.63 Y-33.661
X12.017 Y-33.664
X10.791 Y-33.665
X2.876 Y-33.662
X2.847 Y-33.663
X2.817 Y-33.666
X2.788 Y-33.671
X2.086 Y-33.813
X1.947 Y-33.826
X1.669 Y-33.846
X1.53 Y-33.853
X-0.139 Y-33.92
X-0.278 Y-33.925
X-0.556 Y-33.932
X-0.695 Y-33.934
X-1.113 Y-33.887
X-2.086 Y-33.769
X-3.309 Y-33.681
X-3.923 Y-33.666
X-4.536 Y-33.661
X-5.149 Y-33.659
X-8.829 Y-33.657
X-14.042 Y-33.654
X-14.343 Y-33.598
X-14.611 Y-33.45
X-14.827 Y-33.231
X-15.152 Y-32.711
X-15.296 Y-32.115
X-15.355 Y-31.505
X-15.378 Y-30.892
X-15.387 Y-30.279
X-15.39 Y-29.666
X-15.392 Y-28.439
X-15.393 Y-23.259
X-15.395 Y-23.212
X-15.403 Y-23.165
X-15.415 Y-23.119
X-15.806 Y-21.95
X-15.853 Y-21.804
X-15.981 Y-21.394
X-16.074 Y-20.838
X-16.158 Y-20.319
X-16.159 Y-20.317
G2 X-16.507 Y-19.04 I7.124 J2.625
G1 X-16.51 Y-19.011
X-16.565 Y-16.737
X-16.563 Y-16.708
G2 X-16.278 Y-15.415 I7.528 J-0.984
G1 Y-15.414
X-16.051 Y-14.023
X-15.981 Y-13.606
X-15.851 Y-13.189
X-15.713 Y-12.772
X-15.666 Y-12.633
X-15.567 Y-12.276
X-15.495 Y-11.907
X-15.427 Y-11.298
X-15.404 Y-10.685
X-15.397 Y-10.072
X-15.394 Y-9.459
X-15.393 Y-7.619
Y-3.632
X-15.384 Y-3.326
X-15.28 Y-3.037
X-15.093 Y-2.794
X-14.853 Y-2.603
X-14.311 Y-2.316
X-13.711 Y-2.191
X-13.1 Y-2.14
X-12.487 Y-2.12
X-11.873 Y-2.112
X-11.26 Y-2.109
X-10.034 Y-2.108
X-5.867 Y-2.107
X-5.817 Y-2.105
X-5.768 Y-2.096
X-5.721 Y-2.083
X-5.702 Y-2.076
X-3.477 Y-1.431
X-3.338 Y-1.402
X-3.059 Y-1.354
X-2.986 Y-1.343
X-2.983 Y-1.342
G2 X-1.571 Y-0.976 I2.798 J-7.891
G1 X-1.544 Y-0.973
X0.768 Y-0.917
X0.795 Y-0.918
G2 X2.224 Y-1.215 I-0.98 J-8.315
G1 X2.225
X4.341 Y-1.647
X4.45 Y-1.67
X4.589 Y-1.706
X4.817 Y-1.786
X4.867 Y-1.805
X5.156 Y-1.898
X5.455 Y-1.969
X5.93 Y-2.041
X6.542 Y-2.085
X7.155 Y-2.1
X7.768 Y-2.105
X8.381 Y-2.106
X12.061 Y-2.107
X13.901
X14.207 Y-2.124
X14.49 Y-2.241
X14.727 Y-2.436
X14.913 Y-2.68
X15.189 Y-3.228
X15.308 Y-3.829
X15.357 Y-4.44
X15.376 Y-5.053
X15.383 Y-5.667
X15.385 Y-6.28
X15.386 Y-7.507
X15.383 Y-11.671
X15.387 Y-11.73
X15.398 Y-11.788
X15.418 Y-11.844
X15.575 Y-12.216
X15.615 Y-12.355
X15.691 Y-12.633
X15.727 Y-12.772
X16.146 Y-14.473
X16.152 Y-14.5
X16.153 Y-14.502
G2 X16.556 Y-15.674 I-6.493 J-2.889
G1 X16.561 Y-15.717
X16.61 Y-18.851
X16.606 Y-18.894
G2 X16.239 Y-20.077 I-6.946 J1.503
G1 X16.238 Y-20.08
X16.227 Y-20.142
X16.17 Y-20.42
X16.132 Y-20.586
X15.714 Y-22.279
X15.691 Y-22.367
X15.615 Y-22.645
X15.575 Y-22.784
X15.534 Y-22.928
X15.461 Y-23.334
X15.402 Y-23.944
X15.382 Y-24.557
X15.375 Y-25.171
X15.372 Y-25.784
X15.369 Y-28.237
X15.367 Y-31.61
X15.284 Y-31.905
X15.117 Y-32.162
X14.889 Y-32.368
X14.358 Y-32.675
X13.761 Y-32.812
X13.15 Y-32.869
X12.537 Y-32.891
X11.924 Y-32.9
X11.311 Y-32.903
X10.084 Y-32.904
X5.72 Y-32.903
X5.666 Y-32.906
X5.614 Y-32.916
X5.563 Y-32.932
X4.817 Y-33.214
X4.589 Y-33.294
X4.45 Y-33.33
X4.311 Y-33.36
X2.788 Y-33.671
X2.785
G2 X2.238 Y-33.871 I-2.559 J6.167
G1 X2.185 Y-33.88
X2.039 Y-33.883
X-1.329 Y-33.95
X-1.475 Y-33.953
X-1.528 Y-33.947
G2 X-2.083 Y-33.769 I1.754 J6.443
G1 X-2.086
X-2.92 Y-33.667
X-3.059 Y-33.646
X-3.338 Y-33.598
X-3.477 Y-33.569
X-5.006 Y-33.125
X-5.384 Y-33.036
X-5.861 Y-32.963
X-6.473 Y-32.92
X-7.086 Y-32.905
X-7.7 Y-32.9
X-8.313 Y-32.898
X-11.993 Y-32.895
X-13.219
X-13.523 Y-32.852
X-13.799 Y-32.72
X-14.025 Y-32.513
X-14.368 Y-32.004
X-14.524 Y-31.411
X-14.589 Y-30.801
X-14.616 Y-30.188
X-14.626 Y-29.575
X-14.63 Y-28.962
X-14.632 Y-27.735
X-14.633 Y-25.022
X-14.638 Y-24.951
X-14.655 Y-24.882
X-14.683 Y-24.816
X-15.02 Y-24.175
X-15.081 Y-24.036
X-15.197 Y-23.758
X-15.248 Y-23.619
X-15.415 Y-23.119
G0 Z-2.2
X-16.259 Y-13.402
Z-7.22
G1 Z-7.41 F1000
X-16.254 Y-13.397 Z-7.459
X-16.239 Y-13.385 Z-7.505
X-16.217 Y-13.365 Z-7.544
X-16.187 Y-13.339 Z-7.575
X-16.152 Y-13.31 Z-7.594
X-16.115 Y-13.277 Z-7.6
G3 X-15.666 Y-12.633 I-1.034 J1.198
G1 X-15.248 Y-11.381
X-15.197 Y-11.242
X-15.081 Y-10.964
X-15.019 Y-10.824
X-14.946 Y-10.665
X-14.878 Y-10.482
X-14.808 Y-10.231
X-14.736 Y-9.861
X-14.668 Y-9.251
X-14.645 Y-8.639
X-14.637 Y-8.025
X-14.634 Y-7.412
X-14.633 Y-5.572
Y-4.346
X-14.609 Y-4.04
X-14.487 Y-3.758
X-14.29 Y-3.524
X-14.044 Y-3.341
X-13.495 Y-3.067
X-12.893 Y-2.948
X-12.282 Y-2.899
X-11.669 Y-2.88
X-11.056 Y-2.872
X-10.442 Y-2.869
X-9.216 Y-2.868
X-7.522
X-7.456 Y-2.863
X-7.393 Y-2.848
X-7.332 Y-2.825
X-5.98 Y-2.184
X-5.841 Y-2.125
X-5.721 Y-2.083
G3 X-5.858 Y-1.729 I-0.069 J0.177
X-5.975 Y-1.866 I0.069 J-0.177
G1 X-5.986 Y-1.915 Z-7.594
X-5.995 Y-1.959 Z-7.575
X-6.003 Y-1.998 Z-7.544
X-6.009 Y-2.027 Z-7.505
X-6.013 Y-2.046 Z-7.459
X-6.015 Y-2.052 Z-7.41
G0 Z-2.2
X4.123 Y-1.182
Z-7.22
G1 Z-7.41 F1000
X4.127 Y-1.187 Z-7.459
X4.139 Y-1.202 Z-7.505
X4.158 Y-1.225 Z-7.544
X4.182 Y-1.256 Z-7.575
X4.211 Y-1.292 Z-7.594
X4.241 Y-1.331 Z-7.6
G3 X4.867 Y-1.805 I1.239 J0.985
G1 X6.814 Y-2.543
X6.953 Y-2.597
X7.094 Y-2.647
X7.381 Y-2.718
X7.827 Y-2.791
X8.438 Y-2.841
X9.051 Y-2.858
X9.665 Y-2.864
X10.278 Y-2.866
X12.731 Y-2.867
X13.344
X13.637 Y-2.959
X13.891 Y-3.131
X14.094 Y-3.361
X14.398 Y-3.894
X14.534 Y-4.492
X14.59 Y-5.102
X14.613 Y-5.715
X14.621 Y-6.328
X14.624 Y-6.942
X14.625 Y-8.168
X14.624 Y-9.89
X14.628 Y-9.95
X14.64 Y-10.009
X14.66 Y-10.065
X15.418 Y-11.844
G3 X15.762 Y-11.683 I0.172 J0.08
X15.617 Y-11.575 I-0.172 J-0.08
G1 X15.569 Y-11.568 Z-7.594
X15.523 Y-11.562 Z-7.575
X15.484 Y-11.556 Z-7.544
X15.454 Y-11.552 Z-7.505
X15.436 Y-11.549 Z-7.459
X15.429 Y-11.548 Z-7.41
G0 Z-2.2
X16.226 Y-22.063
Z-7.22
G1 Z-7.41 F1000
X16.22 Y-22.067 Z-7.459
X16.205 Y-22.078 Z-7.505
X16.181 Y-22.096 Z-7.544
X16.149 Y-22.12 Z-7.575
X16.112 Y-22.147 Z-7.594
X16.073 Y-22.176 Z-7.6
G3 X15.575 Y-22.784 I0.938 J-1.275
G1 X15.28 Y-23.48
X14.925 Y-24.314
X14.858 Y-24.496
X14.787 Y-24.748
X14.715 Y-25.123
X14.646 Y-25.732
X14.623 Y-26.345
X14.614 Y-26.958
X14.611 Y-27.571
X14.608 Y-29.411
X14.607 Y-30.638
X14.591 Y-30.944
X14.48 Y-31.229
X14.289 Y-31.47
X14.046 Y-31.657
X13.502 Y-31.939
X12.901 Y-32.062
X12.29 Y-32.113
X11.677 Y-32.132
X11.063 Y-32.14
X10.45 Y-32.143
X9.224 Y-32.144
X7.557
X7.48 Y-32.15
X7.406 Y-32.17
X7.336 Y-32.202
X7.092 Y-32.341
X7.01 Y-32.38
X6.953 Y-32.403
X6.119 Y-32.721
X5.563 Y-32.932
G3 X5.71 Y-33.282 I0.074 J-0.175
X5.823 Y-33.141 I-0.074 J0.175
G1 X5.832 Y-33.093 Z-7.594
X5.84 Y-33.048 Z-7.575
X5.847 Y-33.009 Z-7.544
X5.853 Y-32.979 Z-7.505
X5.856 Y-32.961 Z-7.459
X5.857 Y-32.954 Z-7.41
G0 Z-2.2
X-4.214 Y-33.686
Z-7.22
G1 Z-7.41 F1000
X-4.219 Y-33.682 Z-7.459
X-4.232 Y-33.668 Z-7.505
X-4.252 Y-33.646 Z-7.544
X-4.279 Y-33.617 Z-7.575
X-4.311 Y-33.584 Z-7.594
X-4.344 Y-33.548 Z-7.6
G3 X-5.006 Y-33.125 I-1.155 J-1.082
G1 X-5.702 Y-32.924
X-5.841 Y-32.875
X-5.98 Y-32.816
X-6.607 Y-32.519
X-6.854 Y-32.417
X-7.066 Y-32.348
X-7.368 Y-32.277
X-7.848 Y-32.203
X-8.459 Y-32.159
X-9.072 Y-32.144
X-9.686 Y-32.139
X-10.299 Y-32.137
X-12.445 Y-32.135
X-12.749 Y-32.095
X-13.027 Y-31.965
X-13.255 Y-31.759
X-13.602 Y-31.254
X-13.761 Y-30.662
X-13.828 Y-30.052
X-13.855 Y-29.439
X-13.866 Y-28.826
X-13.87 Y-28.213
X-13.871 Y-27.6
X-13.872 Y-26.453
X-13.88 Y-26.373
X-13.901 Y-26.296
X-13.936 Y-26.224
X-13.998 Y-26.122
X-14.683 Y-24.816
G3 X-15.013 Y-25.004 I-0.165 J-0.094
X-14.86 Y-25.1 I0.165 J0.094
G1 X-14.811 Y-25.103 Z-7.594
X-14.765 Y-25.106 Z-7.575
X-14.726 Y-25.108 Z-7.544
X-14.696 Y-25.11 Z-7.505
X-14.677 Y-25.111 Z-7.459
X-14.67 Z-7.41
G0 Z-2.2
X-5.915 Y-33.2
Z-7.22
G1 Z-7.41 F1000
X-5.919 Y-33.194 Z-7.459
X-5.929 Y-33.179 Z-7.505
X-5.946 Y-33.154 Z-7.544
X-5.968 Y-33.121 Z-7.575
X-5.994 Y-33.083 Z-7.594
X-6.021 Y-33.042 Z-7.6
G3 X-6.607 Y-32.519 I-1.314 J-0.882
G1 X-7.927 Y-31.893
X-8.066 Y-31.822
X-8.228 Y-31.736
X-8.384 Y-31.669
X-8.592 Y-31.6
X-8.883 Y-31.527
X-9.331 Y-31.454
X-9.943 Y-31.403
X-10.556 Y-31.385
X-11.169 Y-31.379
X-11.782 Y-31.376
X-12.08 Y-31.304
X-12.342 Y-31.146
X-12.552 Y-30.922
X-12.872 Y-30.398
X-13.014 Y-29.802
X-13.073 Y-29.191
X-13.097 Y-28.579
X-13.106 Y-27.965
X-13.109 Y-27.502
X-13.12 Y-27.408
X-13.15 Y-27.319
X-13.198 Y-27.238
G3 X-13.494 Y-27.477 I-0.148 J-0.119
X-13.327 Y-27.547 I0.148 J0.119
G1 X-13.278 Y-27.542 Z-7.594
X-13.232 Y-27.537 Z-7.575
X-13.193 Y-27.533 Z-7.544
X-13.163 Y-27.53 Z-7.505
X-13.144 Y-27.528 Z-7.459
X-13.138 Z-7.41
G0 Z-2.2
X-7.439 Y-32.563
Z-7.22
G1 Z-7.41 F1000
X-7.442 Y-32.557 Z-7.459
X-7.451 Y-32.541 Z-7.505
X-7.466 Y-32.514 Z-7.544
X-7.485 Y-32.48 Z-7.575
X-7.507 Y-32.439 Z-7.594
X-7.53 Y-32.396 Z-7.6
G3 X-8.066 Y-31.822 I-1.389 J-0.758
G1 X-8.344 Y-31.657
X-8.483 Y-31.574
X-9.128 Y-31.128
X-9.264 Y-31.044
X-9.398 Y-30.976
X-9.57 Y-30.905
X-9.798 Y-30.832
X-10.114 Y-30.757
X-10.614 Y-30.682
X-10.92 Y-30.66
X-11.222 Y-30.61
X-11.499 Y-30.477
X-11.726 Y-30.271
X-12.075 Y-29.767
X-12.236 Y-29.175
X-12.305 Y-28.566
X-12.306 Y-28.546
X-12.321 Y-28.452
X-12.354 Y-28.364
X-12.406 Y-28.285
G3 X-12.692 Y-28.536 I-0.143 J-0.125
X-12.522 Y-28.599 I0.143 J0.125
G1 X-12.473 Y-28.592 Z-7.594
X-12.428 Y-28.585 Z-7.575
X-12.389 Y-28.58 Z-7.544
X-12.359 Y-28.575 Z-7.505
X-12.34 Y-28.573 Z-7.459
X-12.334 Y-28.572 Z-7.41
G0 Z-2.2
X-8.554 Y-31.911
Z-7.22
G1 Z-7.41 F1000
X-8.557 Y-31.905 Z-7.459
X-8.565 Y-31.888 Z-7.505
X-8.578 Y-31.861 Z-7.544
X-8.594 Y-31.825 Z-7.575
X-8.613 Y-31.783 Z-7.594
X-8.634 Y-31.739 Z-7.6
G3 X-9.128 Y-31.128 I-1.438 J-0.66
G1 X-10.291 Y-30.326
X-10.796 Y-29.978
X-11.196 Y-29.513
X-11.219 Y-29.477
X-11.245 Y-29.444
X-11.274 Y-29.413
G3 X-11.53 Y-29.693 I-0.127 J-0.142
G1 X-11.39 Y-29.824
X-10.67 Y-30.492
X-10.541 Y-30.612
G3 X-10.268 Y-30.598 I0.129 J0.139
X-10.291 Y-30.326 I-0.143 J0.125
G1 X-10.332 Y-30.294
X-10.495 Y-30.155
X-10.569 Y-30.09
X-12.099 Y-28.621
X-12.238 Y-28.474
X-12.377 Y-28.321
X-12.469 Y-28.208
X-13.767 Y-26.481
X-13.825 Y-26.4
X-13.914 Y-26.261
X-13.936 Y-26.224
G3 X-14.254 Y-26.432 I-0.159 J-0.104
X-14.095 Y-26.518 I0.159 J0.104
G1 X-14.046 Z-7.594
X-14 Z-7.575
X-13.961 Z-7.544
X-13.931 Z-7.505
X-13.912 Z-7.459
X-13.905 Z-7.41
G0 Z-2.2
X-15.727 Y-11.488
Z-7.22
G1 Z-7.41 F1000
X-15.722 Y-11.484 Z-7.459
X-15.705 Y-11.474 Z-7.505
X-15.68 Y-11.458 Z-7.544
X-15.646 Y-11.438 Z-7.575
X-15.607 Y-11.414 Z-7.594
X-15.565 Y-11.388 Z-7.6
G3 X-15.019 Y-10.824 I-0.829 J1.348
G1 X-14.29 Y-9.434
X-14.192 Y-9.222
X-14.122 Y-9.034
X-14.051 Y-8.777
X-13.977 Y-8.4
X-13.909 Y-7.791
X-13.885 Y-7.178
X-13.877 Y-6.565
X-13.874 Y-5.952
X-13.873 Y-5.032
X-13.822 Y-4.729
X-13.68 Y-4.458
X-13.467 Y-4.236
X-12.958 Y-3.895
X-12.365 Y-3.739
X-11.755 Y-3.672
X-11.142 Y-3.645
X-10.529 Y-3.635
X-9.916 Y-3.63
X-8.913 Y-3.628
X-8.825 Y-3.619
X-8.74 Y-3.593
X-8.662 Y-3.55
X-8.483 Y-3.426
X-8.205 Y-3.261
X-8.063 Y-3.176
X-7.927 Y-3.107
X-7.332 Y-2.825
G3 X-7.506 Y-2.487 I-0.087 J0.169
X-7.608 Y-2.637 I0.087 J-0.169
G1 X-7.613 Y-2.686 Z-7.594
X-7.618 Y-2.731 Z-7.575
X-7.622 Y-2.771 Z-7.544
X-7.625 Y-2.801 Z-7.505
X-7.626 Y-2.82 Z-7.459
X-7.627 Y-2.826 Z-7.41
G0 Z-2.2
X-14.998 Y-10.098
Z-7.22
G1 Z-7.41 F1000
X-14.992 Y-10.095 Z-7.459
X-14.976 Y-10.085 Z-7.505
X-14.95 Y-10.069 Z-7.544
X-14.917 Y-10.048 Z-7.575
X-14.878 Y-10.024 Z-7.594
X-14.836 Y-9.999 Z-7.6
G3 X-14.29 Y-9.434 I-0.829 J1.348
G1 X-13.998 Y-8.878
X-13.907 Y-8.727
X-13.825 Y-8.6
X-13.767 Y-8.519
X-13.628 Y-8.334
X-13.544 Y-8.21
X-13.475 Y-8.077
X-13.405 Y-7.911
X-13.334 Y-7.695
X-13.26 Y-7.389
X-13.185 Y-6.917
X-13.138 Y-6.306
X-13.122 Y-5.693
X-13.036 Y-5.399
X-12.869 Y-5.142
X-12.641 Y-4.936
X-12.113 Y-4.625
X-11.516 Y-4.485
X-10.905 Y-4.426
X-10.292 Y-4.403
X-10.024 Y-4.399
X-9.937 Y-4.389
X-9.855 Y-4.363
X-9.779 Y-4.32
G3 X-10.005 Y-4.015 I-0.113 J0.153
X-10.081 Y-4.179 I0.113 J-0.153
G1 X-10.079 Y-4.229 Z-7.594
X-10.076 Y-4.274 Z-7.575
X-10.073 Y-4.314 Z-7.544
X-10.072 Y-4.344 Z-7.505
X-10.07 Y-4.363 Z-7.459
Y-4.369 Z-7.41
G0 Z-2.2
X-14.434 Y-8.876
Z-7.22
G1 Z-7.41 F1000
X-14.428 Y-8.874 Z-7.459
X-14.41 Y-8.866 Z-7.505
X-14.382 Y-8.855 Z-7.544
X-14.346 Y-8.84 Z-7.575
X-14.304 Y-8.822 Z-7.594
X-14.258 Y-8.804 Z-7.6
G3 X-13.628 Y-8.334 I-0.602 J1.464
G1 X-12.887 Y-7.348
X-12.803 Y-7.224
X-12.731 Y-7.087
X-12.661 Y-6.925
X-12.587 Y-6.706
X-12.512 Y-6.408
X-12.387 Y-6.129
X-12.203 Y-5.883
X-11.969 Y-5.685
X-11.434 Y-5.385
X-11.066 Y-5.3
X-10.99 Y-5.276
X-10.921 Y-5.238
X-10.859 Y-5.188
G0 Z-2.2
X-13.693 Y-7.89
Z-7.22
G1 Z-7.41 F1000
X-13.687 Y-7.887 Z-7.459
X-13.669 Y-7.88 Z-7.505
X-13.641 Y-7.869 Z-7.544
X-13.605 Y-7.854 Z-7.575
X-13.563 Y-7.836 Z-7.594
X-13.517 Y-7.818 Z-7.6
G3 X-12.887 Y-7.348 I-0.602 J1.464
G1 X-12.469 Y-6.792
X-12.377 Y-6.679
X-12.227 Y-6.514
X-12.094 Y-6.375
X-10.569 Y-4.91
X-10.495 Y-4.845
X-10.332 Y-4.706
X-10.291 Y-4.674
X-8.662 Y-3.55
G3 X-8.889 Y-3.245 I-0.113 J0.153
X-8.965 Y-3.409 I0.113 J-0.153
G1 X-8.962 Y-3.458 Z-7.594
X-8.959 Y-3.504 Z-7.575
X-8.957 Y-3.543 Z-7.544
X-8.955 Y-3.573 Z-7.505
X-8.954 Y-3.592 Z-7.459
X-8.953 Y-3.598 Z-7.41
G0 Z-2.2
X6.229 Y-1.951
Z-7.22
G1 Z-7.41 F1000
X6.233 Y-1.956 Z-7.459
X6.244 Y-1.971 Z-7.505
X6.262 Y-1.995 Z-7.544
X6.285 Y-2.027 Z-7.575
X6.313 Y-2.064 Z-7.594
X6.342 Y-2.103 Z-7.6
G3 X6.953 Y-2.597 I1.269 J0.946
G1 X7.01 Y-2.62
X7.092 Y-2.659
X7.649 Y-2.977
X7.993 Y-3.176
X8.185 Y-3.274
X8.348 Y-3.342
X8.566 Y-3.413
X8.874 Y-3.486
X9.358 Y-3.56
X9.97 Y-3.604
X10.583 Y-3.619
X11.196 Y-3.624
X11.809 Y-3.626
X12.423 Y-3.627
X12.727 Y-3.664
X13.006 Y-3.792
X13.234 Y-3.996
X13.587 Y-4.498
X13.751 Y-5.089
X13.82 Y-5.698
X13.848 Y-6.311
X13.859 Y-6.924
X13.863 Y-7.537
X13.865 Y-8.609
X13.872 Y-8.692
X13.896 Y-8.772
X13.933 Y-8.846
X14.393 Y-9.573
X14.463 Y-9.688
X14.602 Y-9.931
X14.66 Y-10.065
G0 Z-2.2
X7.358 Y-2.442
Z-7.22
G1 Z-7.41 F1000
X7.362 Y-2.448 Z-7.459
X7.371 Y-2.464 Z-7.505
X7.386 Y-2.491 Z-7.544
X7.405 Y-2.525 Z-7.575
X7.427 Y-2.565 Z-7.594
X7.451 Y-2.608 Z-7.6
G3 X7.993 Y-3.176 I1.381 J0.774
G1 X8.956 Y-3.733
X9.317 Y-3.949
X9.446 Y-4.026
X9.613 Y-4.096
X9.833 Y-4.168
X10.139 Y-4.241
X10.617 Y-4.316
X11.229 Y-4.362
X11.842 Y-4.378
X12.134 Y-4.472
X12.385 Y-4.649
X12.582 Y-4.883
X12.883 Y-5.418
X13.016 Y-6.017
X13.07 Y-6.627
X13.092 Y-7.24
X13.094 Y-7.406
X13.104 Y-7.491
X13.129 Y-7.573
X13.17 Y-7.648
G3 X13.477 Y-7.424 I0.154 J0.112
X13.314 Y-7.346 I-0.154 J-0.112
G1 X13.265 Y-7.349 Z-7.594
X13.219 Y-7.351 Z-7.575
X13.18 Y-7.353 Z-7.544
X13.15 Y-7.355 Z-7.505
X13.131 Y-7.356 Z-7.459
X13.124 Z-7.41
G0 Z-2.2
X8.732 Y-3.174
Z-7.22
G1 Z-7.41 F1000
X8.735 Y-3.18 Z-7.459
X8.743 Y-3.197 Z-7.505
X8.756 Y-3.225 Z-7.544
X8.773 Y-3.26 Z-7.575
X8.793 Y-3.302 Z-7.594
X8.814 Y-3.346 Z-7.6
G3 X9.317 Y-3.949 I1.429 J0.681
G1 X9.41 Y-4.011
X10.093 Y-4.567
X10.214 Y-4.656
X10.343 Y-4.732
X10.493 Y-4.804
X10.68 Y-4.875
X11.269 Y-5.048
X11.528 Y-5.212
X11.742 Y-5.432
X12.075 Y-5.946
X12.218 Y-6.486
X12.24 Y-6.551
X12.273 Y-6.612
X12.315 Y-6.667
G3 X12.59 Y-6.405 I0.138 J0.131
X12.418 Y-6.349 I-0.138 J-0.131
G1 X12.37 Y-6.358 Z-7.594
X12.325 Y-6.366 Z-7.575
X12.286 Y-6.373 Z-7.544
X12.256 Y-6.379 Z-7.505
X12.238 Y-6.382 Z-7.459
X12.231 Y-6.383 Z-7.41
G0 Z-2.2
X9.584 Y-3.74
Z-7.22
G1 Z-7.41 F1000
X9.586 Y-3.746 Z-7.459
X9.593 Y-3.764 Z-7.505
X9.603 Y-3.793 Z-7.544
X9.617 Y-3.83 Z-7.575
X9.633 Y-3.873 Z-7.594
X9.649 Y-3.919 Z-7.6
G3 X10.093 Y-4.567 I1.487 J0.542
G1 X11.125 Y-5.41
X11.264 Y-5.528
X11.542 Y-5.797
X11.563 Y-5.819
X13.072 Y-7.523
X13.156 Y-7.626
X13.211 Y-7.709
X13.514 Y-8.183
X13.933 Y-8.846
G0 Z-2.2
X15.577 Y-23.596
Z-7.22
G1 Z-7.41 F1000
X15.572 Y-23.599 Z-7.459
X15.556 Y-23.611 Z-7.505
X15.532 Y-23.628 Z-7.544
X15.5 Y-23.652 Z-7.575
X15.463 Y-23.679 Z-7.594
X15.424 Y-23.708 Z-7.6
G3 X14.925 Y-24.314 I0.934 J-1.277
G1 X14.628 Y-25.01
X14.602 Y-25.069
X14.463 Y-25.312
X14.393 Y-25.427
X14.324 Y-25.536
X14.235 Y-25.694
X14.169 Y-25.836
X14.099 Y-26.025
X14.028 Y-26.28
X13.954 Y-26.658
X13.886 Y-27.267
X13.862 Y-27.88
X13.853 Y-28.493
X13.85 Y-29.107
X13.848 Y-30.027
X13.78 Y-30.326
X13.628 Y-30.592
X13.409 Y-30.807
X12.89 Y-31.133
X12.294 Y-31.281
X11.684 Y-31.343
X11.072 Y-31.368
X10.458 Y-31.378
X9.845 Y-31.382
X8.874 Y-31.384
X8.797 Y-31.39
X8.723 Y-31.41
X8.653 Y-31.443
X7.51 Y-32.103
X7.336 Y-32.202
G3 X7.536 Y-32.525 I0.1 J-0.161
X7.626 Y-32.368 I-0.1 J0.161
G1 X7.627 Y-32.319 Z-7.594
X7.628 Y-32.273 Z-7.575
X7.629 Y-32.234 Z-7.544
X7.63 Y-32.204 Z-7.505
Y-32.185 Z-7.459
X7.631 Y-32.178 Z-7.41
G0 Z-2.2
X15.083 Y-24.931
Z-7.22
G1 Z-7.41 F1000
X15.077 Y-24.934 Z-7.459
X15.06 Y-24.943 Z-7.505
X15.033 Y-24.957 Z-7.544
X14.998 Y-24.975 Z-7.575
X14.957 Y-24.995 Z-7.594
X14.914 Y-25.018 Z-7.6
G3 X14.324 Y-25.536 I0.717 J-1.411
G1 X13.553 Y-26.755
X13.479 Y-26.885
X13.408 Y-27.041
X13.338 Y-27.234
X13.265 Y-27.502
X13.19 Y-27.898
X13.125 Y-28.507
X13.101 Y-29.12
X13.078 Y-29.426
X12.964 Y-29.711
X12.772 Y-29.95
X12.528 Y-30.136
X11.984 Y-30.418
X11.383 Y-30.541
X10.772 Y-30.592
X10.159 Y-30.612
X10.024 Y-30.613
X9.926 Y-30.626
X9.834 Y-30.659
X9.75 Y-30.712
G3 X10 Y-30.999 I0.125 J-0.143
X10.063 Y-30.829 I-0.125 J0.143
G1 X10.057 Y-30.781 Z-7.594
X10.05 Y-30.735 Z-7.575
X10.045 Y-30.696 Z-7.544
X10.041 Y-30.666 Z-7.505
X10.038 Y-30.648 Z-7.459
X10.037 Y-30.641 Z-7.41
G0 Z-2.2
X14.312 Y-26.15
Z-7.22
G1 Z-7.41 F1000
X14.307 Y-26.153 Z-7.459
X14.29 Y-26.162 Z-7.505
X14.263 Y-26.175 Z-7.544
X14.228 Y-26.193 Z-7.575
X14.187 Y-26.214 Z-7.594
X14.143 Y-26.236 Z-7.6
G3 X13.553 Y-26.755 I0.717 J-1.411
G1 X13.336 Y-27.096
X13.211 Y-27.291
X13.156 Y-27.374
X13.072 Y-27.477
X12.933 Y-27.635
X12.839 Y-27.752
X12.758 Y-27.879
X12.69 Y-28.014
X12.616 Y-28.195
X12.431 Y-28.779
X12.266 Y-29.037
X12.047 Y-29.252
X11.535 Y-29.59
X11.018 Y-29.728
X10.959 Y-29.749
X10.904 Y-29.777
X10.853 Y-29.813
G3 X11.103 Y-30.099 I0.125 J-0.143
X11.166 Y-29.929 I-0.125 J0.143
G1 X11.159 Y-29.881 Z-7.594
X11.153 Y-29.835 Z-7.575
X11.147 Y-29.796 Z-7.544
X11.143 Y-29.766 Z-7.505
X11.14 Y-29.748 Z-7.459
X11.139 Y-29.741 Z-7.41
G0 Z-2.2
X13.779 Y-27.16
Z-7.22
G1 Z-7.41 F1000
X13.773 Y-27.162 Z-7.459
X13.755 Y-27.168 Z-7.505
X13.726 Y-27.177 Z-7.544
X13.689 Y-27.189 Z-7.575
X13.645 Y-27.203 Z-7.594
X13.598 Y-27.218 Z-7.6
G3 X12.933 Y-27.635 I0.482 J-1.507
G1 X11.563 Y-29.181
X11.542 Y-29.203
X11.264 Y-29.472
X11.115 Y-29.599
X9.735 Y-30.725
X9.41 Y-30.989
X9.317 Y-31.051
X8.956 Y-31.267
X8.653 Y-31.443
G3 X8.853 Y-31.766 I0.101 J-0.161
G1 X8.881 Y-31.733 Z-7.595
X8.907 Y-31.702 Z-7.58
X8.93 Y-31.675 Z-7.556
X8.936 Y-31.646 Z-7.526
X8.94 Y-31.625 Z-7.491
X8.943 Y-31.612 Z-7.451
X8.944 Y-31.608 Z-7.41
G0 Z-1.496
X0.196 Y-16.619
G3 X-0.196 Y-18.381 Z-1.595 I-0.196 J-0.881 F333.3
X0.196 Y-16.619 Z-1.694 I0.196 J0.881
X-0.196 Y-18.381 Z-1.793 I-0.196 J-0.881
X0.196 Y-16.619 Z-1.892 I0.196 J0.881
X-0.196 Y-18.381 Z-1.991 I-0.196 J-0.881
X0.196 Y-16.619 Z-2.09 I0.196 J0.881
X-0.196 Y-18.381 Z-2.189 I-0.196 J-0.881
X0.196 Y-16.619 Z-2.288 I0.196 J0.881
X-0.196 Y-18.381 Z-2.387 I-0.196 J-0.881
X0.196 Y-16.619 Z-2.486 I0.196 J0.881
X-0.196 Y-18.381 Z-2.585 I-0.196 J-0.881
X0.196 Y-16.619 Z-2.684 I0.196 J0.881
X-0.196 Y-18.381 Z-2.783 I-0.196 J-0.881
X0.196 Y-16.619 Z-2.882 I0.196 J0.881
X-0.196 Y-18.381 Z-2.981 I-0.196 J-0.881
X0.196 Y-16.619 Z-3.08 I0.196 J0.881
X-0.196 Y-18.381 Z-3.179 I-0.196 J-0.881
X0.196 Y-16.619 Z-3.278 I0.196 J0.881
X-0.196 Y-18.381 Z-3.377 I-0.196 J-0.881
X0.196 Y-16.619 Z-3.476 I0.196 J0.881
X-0.196 Y-18.381 Z-3.575 I-0.196 J-0.881
X0.196 Y-16.619 Z-3.674 I0.196 J0.881
X-0.196 Y-18.381 Z-3.773 I-0.196 J-0.881
X0.196 Y-16.619 Z-3.872 I0.196 J0.881
X-0.196 Y-18.381 Z-3.971 I-0.196 J-0.881
X0.196 Y-16.619 Z-4.07 I0.196 J0.881
X-0.196 Y-18.381 Z-4.169 I-0.196 J-0.881
X0.196 Y-16.619 Z-4.268 I0.196 J0.881
X-0.196 Y-18.381 Z-4.367 I-0.196 J-0.881
X0.196 Y-16.619 Z-4.466 I0.196 J0.881
X-0.196 Y-18.381 Z-4.565 I-0.196 J-0.881
X0.196 Y-16.619 Z-4.664 I0.196 J0.881
X-0.196 Y-18.381 Z-4.763 I-0.196 J-0.881
X0.196 Y-16.619 Z-4.862 I0.196 J0.881
X-0.196 Y-18.381 Z-4.961 I-0.196 J-0.881
X0.196 Y-16.619 Z-5.06 I0.196 J0.881
X-0.196 Y-18.381 Z-5.159 I-0.196 J-0.881
X0.196 Y-16.619 Z-5.258 I0.196 J0.881
X-0.196 Y-18.381 Z-5.357 I-0.196 J-0.881
X0.196 Y-16.619 Z-5.456 I0.196 J0.881
X-0.196 Y-18.381 Z-5.555 I-0.196 J-0.881
X0.196 Y-16.619 Z-5.654 I0.196 J0.881
X-0.196 Y-18.381 Z-5.753 I-0.196 J-0.881
X0.196 Y-16.619 Z-5.852 I0.196 J0.881
X-0.196 Y-18.381 Z-5.951 I-0.196 J-0.881
X0.196 Y-16.619 Z-6.05 I0.196 J0.881
X-0.196 Y-18.381 Z-6.149 I-0.196 J-0.881
X0.196 Y-16.619 Z-6.249 I0.196 J0.881
X-0.196 Y-18.381 Z-6.348 I-0.196 J-0.881
X0.196 Y-16.619 Z-6.447 I0.196 J0.881
X-0.196 Y-18.381 Z-6.546 I-0.196 J-0.881
X0.196 Y-16.619 Z-6.645 I0.196 J0.881
X-0.196 Y-18.381 Z-6.744 I-0.196 J-0.881
X0.196 Y-16.619 Z-6.843 I0.196 J0.881
X-0.196 Y-18.381 Z-6.942 I-0.196 J-0.881
X0.196 Y-16.619 Z-7.041 I0.196 J0.881
X-0.196 Y-18.381 Z-7.14 I-0.196 J-0.881
X0.903 Y-17.5 Z-7.196 I0.196 J0.881
X-0.902 I-0.902
X0.903 I0.902
G1 X0.929 Y-16.937 F1000
X0.924 Y-16.788
X0.88 Y-16.644
X0.805 Y-16.514
X0.708 Y-16.4
X0.594 Y-16.302
X0.467 Y-16.223
X0.33 Y-16.163
X0.186 Y-16.121
X0.037 Y-16.097
X-0.112 Y-16.092
X-0.262 Y-16.104
X-0.409 Y-16.133
X-0.552 Y-16.179
X-0.689 Y-16.24
X-0.818 Y-16.316
X-0.939 Y-16.405
X-1.049 Y-16.507
X-1.148 Y-16.62
X-1.234 Y-16.743
X-1.307 Y-16.874
X-1.365 Y-17.012
X-1.409 Y-17.155
X-1.438 Y-17.302
X-1.451 Y-17.452
X-1.449 Y-17.602
X-1.431 Y-17.751
X-1.398 Y-17.897
X-1.35 Y-18.039
X-1.287 Y-18.175
X-1.211 Y-18.305
X-1.122 Y-18.425
X-1.021 Y-18.536
X-0.909 Y-18.636
X-0.787 Y-18.723
X-0.657 Y-18.798
X-0.52 Y-18.859
X-0.377 Y-18.905
X-0.23 Y-18.936
X-0.081 Y-18.952
X0.069 Y-18.953
X0.218 Y-18.938
X0.365 Y-18.908
X0.508 Y-18.863
X0.646 Y-18.804
X0.777 Y-18.73
X0.899 Y-18.644
X1.012 Y-18.545
X1.114 Y-18.435
X1.205 Y-18.316
X1.282 Y-18.187
X1.354 Y-18.038
X1.431 Y-17.838
X1.496 Y-17.619
X1.535 Y-17.436
X1.554 Y-17.284
X1.561 Y-17.134
X1.556 Y-16.984
X1.537 Y-16.836
X1.504 Y-16.689
X1.457 Y-16.547
X1.397 Y-16.409
X1.324 Y-16.278
X1.238 Y-16.155
X1.141 Y-16.041
X1.034 Y-15.936
X0.917 Y-15.842
X0.792 Y-15.759
X0.661 Y-15.687
X0.523 Y-15.627
X0.381 Y-15.58
X0.235 Y-15.545
X0.086 Y-15.522
X-0.063 Y-15.512
X-0.215 Y-15.515
X-0.365 Y-15.529
X-0.512 Y-15.555
X-0.661 Y-15.595
X-0.81 Y-15.647
X-0.949 Y-15.709
X-1.084 Y-15.783
X-1.218 Y-15.87
X-1.345 Y-15.969
X-1.46 Y-16.074
X-1.568 Y-16.19
X-1.669 Y-16.317
X-1.76 Y-16.453
X-1.837 Y-16.592
X-1.904 Y-16.737
X-1.955 Y-16.88
X-1.965 Y-16.918
X-2.001 Y-17.083
X-2.031 Y-17.222
X-2.037 Y-17.257
X-2.036 Y-17.5
Y-17.639
X-2.027 Y-17.777
X-2.025 Y-17.799
X-2.02 Y-17.821
G3 X-1.646 Y-17.762 I0.184 J0.045
G1 X-1.656 Y-17.631
G3 X-2.036 Y-17.639 I-0.189 J-0.014
G1 X-2.035 Y-17.743
X-2.03 Y-17.778
X-2 Y-17.917
X-1.984 Y-17.994
X-1.977 Y-18.028
X-1.939 Y-18.173
X-1.88 Y-18.327
X-1.809 Y-18.475
X-1.779 Y-18.526
G3 X-1.444 Y-18.351 I0.158 J0.106
G1 X-1.529 Y-18.138
Y-18.137
X-1.613 Y-17.925
G3 X-1.977 Y-18.028 I-0.177 J-0.07
G1 X-1.942 Y-18.195
X-1.925 Y-18.265
X-1.888 Y-18.334
X-1.808 Y-18.48
X-1.725 Y-18.613
X-1.635 Y-18.752
X-1.615 Y-18.78
X-1.587 Y-18.809
X-1.308 Y-19.086
X-1.28 Y-19.113
X-1.2 Y-19.169
X-1.113 Y-19.229
X-0.986 Y-19.308
X-0.834 Y-19.386
X-0.765 Y-19.421
X-0.695 Y-19.439
X-0.278 Y-19.54
X-0.261 Y-19.543
X-0.243 Y-19.545
X0.243
X0.261 Y-19.543
X0.278 Y-19.54
X0.695 Y-19.439
X0.765 Y-19.421
X0.834 Y-19.386
X0.986 Y-19.308
X1.113 Y-19.229
X1.252 Y-19.133
X1.28 Y-19.113
X1.308 Y-19.086
X1.587 Y-18.809
X1.615 Y-18.78
X1.635 Y-18.752
X1.726 Y-18.613
X1.811 Y-18.473
X1.887 Y-18.334
X1.923 Y-18.265
X1.941 Y-18.195
X2.032 Y-17.778
X2.037 Y-17.743
X2.035 Y-17.257
X2.03 Y-17.222
X1.942 Y-16.805
X1.925 Y-16.735
X1.891 Y-16.666
X1.808 Y-16.502
X1.735 Y-16.387
X1.636 Y-16.248
X1.53 Y-16.131
X1.312 Y-15.908
X1.282 Y-15.878
X1.252 Y-15.857
X1.113 Y-15.767
X0.985 Y-15.692
X0.765 Y-15.588
X0.695 Y-15.569
X0.278 Y-15.457
X0.261 Y-15.454
X0.243 Y-15.452
X-0.243
X-0.261 Y-15.454
X-0.278 Y-15.457
X-0.695 Y-15.569
X-0.765 Y-15.588
X-0.985 Y-15.692
X-1.113 Y-15.767
X-1.252 Y-15.857
X-1.282 Y-15.878
X-1.312 Y-15.908
X-1.53 Y-16.131
X-1.636 Y-16.248
X-1.735 Y-16.387
X-1.808 Y-16.503
X-1.923 Y-16.735
X-1.94 Y-16.805
X-1.965 Y-16.918
G3 X-1.591 Y-16.987 I0.187 J-0.034
G1 X-1.588 Y-16.952 Z-7.193
X-1.603 Y-16.908 Z-7.177
X-1.615 Y-16.869 Z-7.149
X-1.626 Y-16.838 Z-7.112
X-1.638 Y-16.825 Z-7.079
X-1.645 Y-16.817 Z-7.043
X-1.647 Y-16.814 Z-7.006
G0 Z3.004
X0.366 Y-17.395
Z-6.42
G1 Z-6.61 F1000
X0.371 Y-17.4 Z-6.659
X0.385 Y-17.413 Z-6.705
X0.406 Y-17.434 Z-6.744
X0.435 Y-17.462 Z-6.775
X0.467 Y-17.494 Z-6.794
X0.503 Y-17.528 Z-6.8
G3 X1.739 Y-18.497 I5.089 J5.222
G1 X1.804 Y-18.534
X1.954 Y-18.546
X2.091 Y-18.485
X2.209 Y-18.393
X2.311 Y-18.283
X2.395 Y-18.158
X2.463 Y-18.025
X2.518 Y-17.885
