%
(1001)
(T1  D=3.175 CR=0 - ZMIN=-10.49 - flat end mill)
G90 G94
G17
G21
G28 G91 Z0
G90

(Adaptive3)
M9
T1 M6
S5000 M3
G54
G0 X-20.317 Y-43.664
Z15
Z5
Z-9.365
G1 Z-9.682 F1000
X-20.315 Y-43.656 Z-9.753
X-20.309 Y-43.634 Z-9.82
X-20.3 Y-43.597 Z-9.88
X-20.287 Y-43.548 Z-9.931
X-20.272 Y-43.49 Z-9.969
X-20.256 Y-43.425 Z-9.992
X-20.238 Y-43.357 Z-10
G3 X-19.99 Y-41.628 I-7.852 J2.011
G1 Y-41.478
X-20.137 Y-40.755
X-20.217 Y-40.022
X-20.259 Y-39.285
X-20.282 Y-38.548
X-20.293 Y-37.81
X-20.3 Y-37.072
X-20.303 Y-36.334
X-20.305 Y-34.859
Y-28.956
X-20.299 Y-1.473
X-20.261 Y-1.292
X-20.106 Y-0.958
X-19.858 Y-0.684
X-19.265 Y-0.246
X-18.571 Y0.005
X-17.846 Y0.143
X-17.112 Y0.217
X-16.375 Y0.257
X-15.638 Y0.278
X-14.9 Y0.289
X-14.162 Y0.295
X-13.424 Y0.298
X-11.949 Y0.3
X-10.473 Y0.301
X18.486 Y0.299
X18.669 Y0.274
X19.011 Y0.135
X19.291 Y-0.105
X19.739 Y-0.691
X19.996 Y-1.383
X20.138 Y-2.107
X20.215 Y-2.84
X20.256 Y-3.577
X20.277 Y-4.315
X20.289 Y-5.052
X20.295 Y-5.79
X20.298 Y-6.528
X20.3 Y-8.004
X20.301 Y-13.906
X20.3 Y-20.546
X20.299 Y-38.623
X20.176 Y-38.971
X19.945 Y-39.258
X19.37 Y-39.72
X18.681 Y-39.986
X17.958 Y-40.132
X17.225 Y-40.212
X16.488 Y-40.254
X15.751 Y-40.276
X15.013 Y-40.288
X14.275 Y-40.294
X13.537 Y-40.298
X12.062 Y-40.3
X6.159 Y-40.301
X-11.548 Y-40.3
X-17.082 Y-40.299
X-17.266 Y-40.295
X-17.444 Y-40.244
X-17.77 Y-40.072
X-18.039 Y-39.82
X-18.473 Y-39.223
X-18.726 Y-38.53
X-18.867 Y-37.806
X-18.945 Y-37.072
X-18.987 Y-36.336
X-19.01 Y-35.598
X-19.022 Y-34.86
X-19.028 Y-34.123
X-19.032 Y-33.385
X-19.034 Y-31.909
Y-26.744
X-19.03 Y-3.134
X-18.972 Y-2.77
X-18.812 Y-2.437
X-18.581 Y-2.15
X-18.018 Y-1.673
X-17.342 Y-1.376
X-16.626 Y-1.2
X-15.895 Y-1.099
X-15.16 Y-1.041
X-14.422 Y-1.009
X-13.685 Y-0.991
X-12.947 Y-0.981
X-12.209 Y-0.976
X-11.472 Y-0.973
X-9.996 Y-0.97
X-4.831 Y-0.969
X16.934 Y-0.971
X17.295 Y-1.049
X17.62 Y-1.224
X17.897 Y-1.467
X18.359 Y-2.042
X18.644 Y-2.723
X18.812 Y-3.441
X18.908 Y-4.173
X18.963 Y-4.909
X18.993 Y-5.646
X19.01 Y-6.383
X19.02 Y-7.121
X19.025 Y-7.859
X19.028 Y-8.597
X19.03 Y-10.072
X19.031 Y-15.975
X19.03 Y-20.402
X19.029 Y-37.003
X18.934 Y-37.359
X18.745 Y-37.676
X18.239 Y-38.213
X17.585 Y-38.554
X16.876 Y-38.759
X16.148 Y-38.878
X15.413 Y-38.945
X14.676 Y-38.984
X13.939 Y-39.005
X13.201 Y-39.017
X12.463 Y-39.023
X11.726 Y-39.027
X10.25 Y-39.03
X5.823 Y-39.031
X-14.098 Y-39.029
X-15.574
X-15.938 Y-38.971
X-16.271 Y-38.813
X-16.56 Y-38.583
X-17.042 Y-38.024
X-17.344 Y-37.351
X-17.524 Y-36.636
X-17.629 Y-35.905
X-17.689 Y-35.17
X-17.723 Y-34.433
X-17.742 Y-33.695
X-17.752 Y-32.958
X-17.758 Y-32.22
X-17.761 Y-31.482
X-17.764 Y-30.006
Y-25.58
X-17.76 Y-4.552
X-17.703 Y-4.187
X-17.559 Y-3.848
X-17.342 Y-3.549
X-16.804 Y-3.044
X-16.142 Y-2.718
X-15.432 Y-2.519
X-14.704 Y-2.401
X-13.969 Y-2.332
X-13.232 Y-2.292
X-12.495 Y-2.269
X-11.757 Y-2.256
X-11.019 Y-2.249
X-10.282 Y-2.244
X-9.544 Y-2.242
X-7.33 Y-2.24
X-5.117 Y-2.239
X15.542 Y-2.241
X15.902 Y-2.321
X16.232 Y-2.486
X16.519 Y-2.718
X17.002 Y-3.275
X17.311 Y-3.945
X17.499 Y-4.659
X17.61 Y-5.388
X17.675 Y-6.123
X17.712 Y-6.86
X17.733 Y-7.598
X17.745 Y-8.335
X17.752 Y-9.073
X17.756 Y-9.811
X17.759 Y-11.286
X17.761 Y-14.976
X17.76 Y-31.207
X17.759 Y-35.634
X17.661 Y-35.99
X17.478 Y-36.31
X16.987 Y-36.861
X16.343 Y-37.222
X15.64 Y-37.445
X14.914 Y-37.578
X14.181 Y-37.656
X13.444 Y-37.701
X12.707 Y-37.727
X11.969 Y-37.742
X11.232 Y-37.75
X10.494 Y-37.755
X9.756 Y-37.757
X8.28 Y-37.76
X2.378
X-14.223 Y-37.759
X-14.585 Y-37.69
X-14.92 Y-37.534
X-15.213 Y-37.31
X-15.707 Y-36.763
X-16.026 Y-36.097
X-16.221 Y-35.385
X-16.336 Y-34.657
X-16.404 Y-33.922
X-16.443 Y-33.185
X-16.466 Y-32.448
X-16.479 Y-31.71
X-16.486 Y-30.972
X-16.49 Y-30.234
X-16.492 Y-29.497
X-16.494 Y-27.283
Y-25.808
Y-24.503
X-16.496 Y-24.442
X-16.504 Y-24.381
X-16.517 Y-24.321
X-16.636 Y-23.848
X-16.691 Y-23.513
X-16.991 Y-21.673
X-17.007 Y-21.506
X-17.033 Y-21.171
X-17.039 Y-21.004
Y-18.996
X-17.033 Y-18.829
X-17.007 Y-18.494
X-16.991 Y-18.327
X-16.73 Y-16.722
X-16.648 Y-15.988
X-16.573 Y-15.254
X-16.534 Y-14.518
X-16.514 Y-13.78
X-16.503 Y-13.042
X-16.498 Y-12.305
X-16.495 Y-11.567
X-16.492 Y-10.091
X-16.49 Y-5.664
X-16.379 Y-5.313
X-16.191 Y-4.995
X-15.7 Y-4.444
X-15.06 Y-4.077
X-14.359 Y-3.848
X-13.634 Y-3.708
X-12.901 Y-3.625
X-12.165 Y-3.577
X-11.428 Y-3.548
X-10.69 Y-3.532
X-9.952 Y-3.522
X-9.215 Y-3.517
X-8.477 Y-3.513
X-7.001 Y-3.511
X-4.417 Y-3.51
X-4.347 Y-3.506
X-4.278 Y-3.497
X-4.211 Y-3.48
X-3.681 Y-3.327
X-3.513 Y-3.28
X-3.471 Y-3.27
X-3.346 Y-3.245
X-3.179 Y-3.222
X-1.171 Y-2.978
X-1.004 Y-2.961
X-0.669 Y-2.935
X-0.502 Y-2.928
X1.673 Y-3.015
X1.84 Y-3.023
X2.008 Y-3.033
X2.175 Y-3.055
X3.011 Y-3.224
X3.741 Y-3.336
X4.474 Y-3.419
X5.21 Y-3.463
X5.948 Y-3.485
X6.686 Y-3.497
X7.423 Y-3.503
X8.161 Y-3.507
X9.637 Y-3.509
X14.064 Y-3.511
X14.429 Y-3.561
X14.775 Y-3.69
X15.082 Y-3.893
X15.611 Y-4.408
X15.959 Y-5.059
X16.175 Y-5.764
X16.306 Y-6.49
X16.383 Y-7.224
X16.429 Y-7.96
X16.455 Y-8.698
X16.47 Y-9.435
X16.479 Y-10.173
X16.484 Y-10.911
X16.487 Y-11.649
X16.49 Y-13.124
Y-15.616
X16.493 Y-15.676
X16.5 Y-15.735
X16.512 Y-15.793
X16.73 Y-16.676
X16.803 Y-16.989
X16.841 Y-17.156
X16.872 Y-17.323
X16.919 Y-17.825
X17.053 Y-19.498
X17.087 Y-20
X17.053 Y-20.502
X16.919 Y-22.175
X16.872 Y-22.677
X16.841 Y-22.844
X16.803 Y-23.011
X16.672 Y-23.738
X16.585 Y-24.47
X16.54 Y-25.207
X16.516 Y-25.944
X16.504 Y-26.682
X16.497 Y-27.42
X16.494 Y-28.157
X16.491 Y-29.633
X16.489 Y-34.06
X16.45 Y-34.427
X16.326 Y-34.774
X16.126 Y-35.084
X15.613 Y-35.615
X14.963 Y-35.963
X14.257 Y-36.179
X13.531 Y-36.309
X12.797 Y-36.385
X12.061 Y-36.43
X11.323 Y-36.456
X10.586 Y-36.471
X9.848 Y-36.479
X9.11 Y-36.484
X8.372 Y-36.487
X6.897 Y-36.49
X4.483
X4.433 Y-36.492
X4.384 Y-36.497
X4.335 Y-36.505
X2.342 Y-36.912
X2.175 Y-36.945
X2.008 Y-36.967
X1.84 Y-36.977
X1.673 Y-36.985
X-0.502 Y-37.072
X-0.68 Y-37.064
X-1.004 Y-37.039
X-1.171 Y-37.022
X-3.179 Y-36.778
X-3.346 Y-36.75
X-3.391 Y-36.739
X-3.787 Y-36.662
X-4.52 Y-36.579
X-5.257 Y-36.537
X-5.994 Y-36.514
X-6.732 Y-36.503
X-7.47 Y-36.497
X-8.207 Y-36.493
X-9.683 Y-36.491
X-12.634 Y-36.49
X-13.003 Y-36.471
X-13.359 Y-36.376
X-13.684 Y-36.202
X-14.253 Y-35.732
X-14.632 Y-35.099
X-14.871 Y-34.401
X-15.017 Y-33.678
X-15.103 Y-32.945
X-15.154 Y-32.209
X-15.184 Y-31.472
X-15.201 Y-30.734
X-15.211 Y-29.996
X-15.217 Y-29.259
X-15.22 Y-28.521
X-15.222 Y-27.842
X-15.232 Y-27.724
X-15.26 Y-27.609
X-15.307 Y-27.5
X-15.643 Y-26.859
X-15.726 Y-26.684
X-15.785 Y-26.525
X-16.455 Y-24.517
X-16.509 Y-24.35
X-16.517 Y-24.321
X-16.636 Y-23.848
X-16.664 Y-23.681
X-16.685 Y-23.555
X-16.991 Y-21.673
X-17.007 Y-21.506
X-17.033 Y-21.171
X-17.039 Y-21.004
Y-18.996
X-17.033 Y-18.829
X-17.007 Y-18.494
X-16.991 Y-18.327
X-16.856 Y-17.497
X-16.73 Y-16.722
X-16.664 Y-16.319
X-16.636 Y-16.152
X-16.509 Y-15.65
X-16.455 Y-15.483
X-15.785 Y-13.475
X-15.726 Y-13.338
X-15.668 Y-13.2
X-15.552 Y-12.823
X-15.432 Y-12.281
X-15.332 Y-11.55
X-15.279 Y-10.814
X-15.252 Y-10.077
X-15.237 Y-9.339
X-15.229 Y-8.601
X-15.225 Y-7.863
X-15.223 Y-7.125
X-15.154 Y-6.763
X-15.003 Y-6.427
X-14.784 Y-6.129
X-14.25 Y-5.621
X-13.591 Y-5.289
X-12.883 Y-5.083
X-12.155 Y-4.958
X-11.421 Y-4.884
X-10.685 Y-4.84
X-9.947 Y-4.815
X-9.21 Y-4.8
X-8.472 Y-4.791
X-7.847 Y-4.787
X-7.74 Y-4.778
X-7.635 Y-4.754
X-7.534 Y-4.715
X-6.357 Y-4.157
X-6.25 Y-4.107
X-6.023 Y-4.01
X-5.521 Y-3.86
X-4.211 Y-3.48
X-3.681 Y-3.327
X-3.513 Y-3.28
X-3.471 Y-3.27
X-3.455 Y-3.267
X-3.346 Y-3.245
X-3.179 Y-3.222
X-1.171 Y-2.978
X-1.004 Y-2.961
X-0.669 Y-2.935
X-0.502 Y-2.928
X1.673 Y-3.015
X1.84 Y-3.023
X2.008 Y-3.033
X2.175 Y-3.055
X2.242 Y-3.068
X2.342 Y-3.088
X3.011 Y-3.224
X4.35 Y-3.498
X4.684 Y-3.57
X4.803 Y-3.605
X4.852 Y-3.62
X5.019 Y-3.68
X6.525 Y-4.251
X7.072 Y-4.428
X7.575 Y-4.547
X8.304 Y-4.659
X9.04 Y-4.716
X9.777 Y-4.747
X10.514 Y-4.763
X11.252 Y-4.771
X11.99 Y-4.775
X12.728 Y-4.778
X13.094 Y-4.823
X13.443 Y-4.942
X13.756 Y-5.137
X14.298 Y-5.638
X14.657 Y-6.282
X14.884 Y-6.985
X15.021 Y-7.71
X15.104 Y-8.443
X15.152 Y-9.179
X15.181 Y-9.916
X15.198 Y-10.654
X15.207 Y-11.392
X15.213 Y-12.093
X15.22 Y-12.193
X15.241 Y-12.292
X15.276 Y-12.386
X15.313 Y-12.472
X15.955 Y-13.977
X16.166 Y-14.479
X16.218 Y-14.647
X16.31 Y-14.981
X16.353 Y-15.148
X16.512 Y-15.793
G3 X16.667 Y-15.995 I0.308 J0.076
G2 X16.83 Y-16.249 I-0.153 J-0.278
G1 X16.846 Y-16.458
X17.276 Y-22.083
G2 X17.188 Y-22.327 I-0.317 J-0.024
G3 X16.803 Y-23.011 I1.143 J-1.095
G1 X16.73 Y-23.324
X16.353 Y-24.852
X16.31 Y-25.019
X16.218 Y-25.353
X16.166 Y-25.521
X15.955 Y-26.023
X15.741 Y-26.525
X15.63 Y-26.826
X15.513 Y-27.244
X15.393 Y-27.865
X15.31 Y-28.598
X15.267 Y-29.335
X15.245 Y-30.072
X15.233 Y-30.81
X15.227 Y-31.548
X15.223 Y-32.286
X15.221 Y-33.023
X15.116 Y-33.377
X14.935 Y-33.698
X14.453 Y-34.257
X13.817 Y-34.632
X13.118 Y-34.868
X12.395 Y-35.012
X11.662 Y-35.098
X10.926 Y-35.149
X10.189 Y-35.179
X9.451 Y-35.197
X8.713 Y-35.207
X7.923 Y-35.213
X7.796 Y-35.225
X7.672 Y-35.258
X7.556 Y-35.312
X7.528 Y-35.328
X7.194 Y-35.488
X7.026 Y-35.559
X5.019 Y-36.32
X4.852 Y-36.38
X4.803 Y-36.395
X4.684 Y-36.43
X4.335 Y-36.505
X3.565 Y-36.662
X2.342 Y-36.912
X2.175 Y-36.945
X2.008 Y-36.967
X1.84 Y-36.977
X1.673 Y-36.985
X-0.502 Y-37.072
X-0.669 Y-37.065
X-1.004 Y-37.039
X-1.171 Y-37.022
X-2.613 Y-36.846
X-3.179 Y-36.778
X-3.346 Y-36.75
X-3.391 Y-36.739
X-3.681 Y-36.667
X-3.848 Y-36.625
X-5.521 Y-36.14
X-6.023 Y-35.99
X-6.25 Y-35.893
X-6.357 Y-35.843
X-6.734 Y-35.687
X-7.089 Y-35.572
X-7.591 Y-35.453
X-8.321 Y-35.342
X-9.056 Y-35.284
X-9.794 Y-35.253
X-10.531 Y-35.237
X-11.269 Y-35.229
X-11.638 Y-35.217
X-11.998 Y-35.14
X-12.332 Y-34.982
X-12.918 Y-34.534
X-13.317 Y-33.913
X-13.571 Y-33.221
X-13.727 Y-32.499
X-13.82 Y-31.768
X-13.876 Y-31.032
X-13.909 Y-30.295
X-13.915 Y-30.074
X-13.934 Y-29.923
X-13.984 Y-29.779
X-14.063 Y-29.649
X-14.273 Y-29.369
X-14.387 Y-29.194
X-14.582 Y-28.867
X-14.677 Y-28.699
X-15.307 Y-27.5
G3 X-15.897 Y-27.61 I-0.276 J-0.157
G1 X-15.907 Y-27.68 Z-9.992
X-15.917 Y-27.746 Z-9.969
X-15.926 Y-27.805 Z-9.931
X-15.934 Y-27.855 Z-9.88
X-15.939 Y-27.893 Z-9.82
X-15.943 Y-27.916 Z-9.753
X-15.944 Y-27.924 Z-9.682
G0 Z5
X-5.594 Y-36.63
Z-9.365
G1 Z-9.682 F1000
X-5.599 Y-36.623 Z-9.753
X-5.612 Y-36.604 Z-9.82
X-5.633 Y-36.572 Z-9.88
X-5.661 Y-36.531 Z-9.931
X-5.695 Y-36.481 Z-9.969
X-5.732 Y-36.425 Z-9.992
X-5.771 Y-36.366 Z-10
G3 X-6.357 Y-35.843 I-1.314 J-0.882
G1 X-8.367 Y-34.889
X-8.532 Y-34.805
X-8.665 Y-34.722
X-8.793 Y-34.644
X-9.011 Y-34.534
X-9.292 Y-34.42
X-9.668 Y-34.301
X-10.387 Y-34.136
X-10.74 Y-34.026
X-11.064 Y-33.851
X-11.638 Y-33.387
X-12.033 Y-32.764
X-12.288 Y-32.072
X-12.309 Y-31.976
X-12.354 Y-31.838
X-12.425 Y-31.711
X-12.519 Y-31.601
G0 Z5
X-8.035 Y-35.618
Z-9.365
G1 Z-9.682 F1000
X-8.038 Y-35.611 Z-9.753
X-8.048 Y-35.59 Z-9.82
X-8.064 Y-35.555 Z-9.88
X-8.085 Y-35.51 Z-9.931
X-8.11 Y-35.455 Z-9.969
X-8.139 Y-35.394 Z-9.992
X-8.168 Y-35.33 Z-10
G3 X-8.665 Y-34.722 I-1.436 J-0.666
G1 X-10.605 Y-33.384
X-10.707 Y-33.311
X-10.83 Y-33.216
X-10.874 Y-33.179
X-11.042 Y-33.02
X-12.579 Y-31.543
X-12.715 Y-31.403
X-12.882 Y-31.22
X-14.063 Y-29.649
G3 X-14.627 Y-29.852 I-0.247 J-0.199
G1 Y-29.922 Z-9.992
X-14.626 Y-29.99 Z-9.969
X-14.625 Y-30.05 Z-9.931
Y-30.1 Z-9.88
X-14.624 Y-30.138 Z-9.82
Y-30.161 Z-9.753
Y-30.169 Z-9.682
G0 Z5
X-16.515 Y-14.099
Z-9.365
G1 Z-9.682 F1000
X-16.508 Y-14.095 Z-9.753
X-16.488 Y-14.082 Z-9.82
X-16.457 Y-14.061 Z-9.88
X-16.415 Y-14.033 Z-9.931
X-16.365 Y-13.999 Z-9.969
X-16.309 Y-13.962 Z-9.992
X-16.251 Y-13.923 Z-10
G3 X-15.726 Y-13.338 I-0.878 J1.316
G1 X-15.551 Y-12.974
X-15.467 Y-12.806
X-14.677 Y-11.301
X-14.625 Y-11.209
X-14.535 Y-11.03
X-14.419 Y-10.744
X-14.301 Y-10.368
X-14.178 Y-9.829
X-14.072 Y-9.099
X-14.016 Y-8.364
X-13.925 Y-8.006
X-13.761 Y-7.676
X-13.309 Y-7.093
X-12.687 Y-6.695
X-11.995 Y-6.44
X-11.274 Y-6.283
X-10.542 Y-6.188
X-10.113 Y-6.155
X-9.985 Y-6.133
X-9.862 Y-6.09
X-9.749 Y-6.026
G3 X-9.93 Y-5.454 I-0.189 J0.255
G1 X-10 Y-5.452 Z-9.992
X-10.067 Y-5.45 Z-9.969
X-10.128 Y-5.448 Z-9.931
X-10.178 Y-5.446 Z-9.88
X-10.216 Y-5.445 Z-9.82
X-10.239 Z-9.753
X-10.247 Y-5.444 Z-9.682
G0 Z5
X-15.465 Y-11.912
Z-9.365
G1 Z-9.682 F1000
X-15.458 Y-11.909 Z-9.753
X-15.438 Y-11.897 Z-9.82
X-15.405 Y-11.878 Z-9.88
X-15.361 Y-11.853 Z-9.931
X-15.309 Y-11.823 Z-9.969
X-15.251 Y-11.79 Z-9.992
X-15.189 Y-11.755 Z-10
G3 X-14.625 Y-11.209 I-0.785 J1.374
G1 X-14.582 Y-11.133
X-14.383 Y-10.799
X-14.273 Y-10.631
X-12.882 Y-8.78
X-12.715 Y-8.597
X-12.579 Y-8.457
X-11.011 Y-6.951
X-10.874 Y-6.828
X-10.54 Y-6.579
X-10.363 Y-6.449
X-8.867 Y-5.416
X-8.699 Y-5.303
X-8.662 Y-5.278
X-8.532 Y-5.199
X-8.198 Y-5.03
X-7.534 Y-4.715
G3 X-7.621 Y-4.122 I-0.146 J0.282
G1 X-7.69 Y-4.108 Z-9.992
X-7.756 Y-4.096 Z-9.969
X-7.815 Y-4.084 Z-9.931
X-7.864 Y-4.075 Z-9.88
X-7.901 Y-4.068 Z-9.82
X-7.925 Y-4.063 Z-9.753
X-7.932 Y-4.062 Z-9.682
G0 Z5
X5.701 Y-3.529
Z-9.365
G1 Z-9.682 F1000
X5.706 Y-3.535 Z-9.753
X5.72 Y-3.553 Z-9.82
X5.744 Y-3.583 Z-9.88
X5.775 Y-3.622 Z-9.931
X5.813 Y-3.669 Z-9.969
X5.854 Y-3.722 Z-9.992
X5.898 Y-3.777 Z-10
G3 X6.525 Y-4.251 I1.239 J0.985
G1 X7.026 Y-4.442
X7.194 Y-4.512
X7.528 Y-4.672
X8.699 Y-5.348
X8.908 Y-5.455
X9.186 Y-5.57
X9.551 Y-5.688
X10.069 Y-5.811
X10.798 Y-5.923
X11.533 Y-5.982
X11.895 Y-6.054
X12.235 Y-6.197
X12.538 Y-6.408
X13.058 Y-6.931
X13.404 Y-7.582
X13.622 Y-8.287
X13.755 Y-9.013
X13.835 Y-9.746
X13.841 Y-9.839
X13.86 Y-9.961
X13.898 Y-10.078
X13.955 Y-10.187
G3 X14.534 Y-10.03 I0.262 J0.179
G1 X14.538 Y-9.96 Z-9.992
X14.543 Y-9.893 Z-9.969
X14.547 Y-9.833 Z-9.931
X14.551 Y-9.783 Z-9.88
X14.553 Y-9.745 Z-9.82
X14.555 Y-9.721 Z-9.753
Y-9.713 Z-9.682
G0 Z5
X8.002 Y-4.502
Z-9.365
G1 Z-9.682 F1000
X8.006 Y-4.509 Z-9.753
X8.018 Y-4.53 Z-9.82
X8.036 Y-4.563 Z-9.88
X8.061 Y-4.607 Z-9.931
X8.09 Y-4.659 Z-9.969
X8.123 Y-4.718 Z-9.992
X8.157 Y-4.779 Z-10
G3 X8.699 Y-5.348 I1.381 J0.774
G1 X9.369 Y-5.734
X9.446 Y-5.78
X9.703 Y-5.949
X9.87 Y-6.062
X10.205 Y-6.335
X10.799 Y-6.773
X11.378 Y-7.231
X11.455 Y-7.332
X11.49 Y-7.374
X11.528 Y-7.413
X11.569 Y-7.45
G3 X11.964 Y-6.953 I0.194 J0.251
G1 X10.615 Y-5.851
G3 X10.205 Y-6.335 I-0.201 J-0.246
G1 X11.573 Y-7.453
X11.774 Y-7.62
X11.878 Y-7.726
X12.045 Y-7.901
X13.551 Y-9.601
X13.573 Y-9.628
X13.702 Y-9.795
X13.918 Y-10.13
X14.889 Y-11.665
X14.975 Y-11.802
X15.24 Y-12.304
X15.276 Y-12.386
G3 X15.872 Y-12.317 I0.286 J0.138
G1 X15.887 Y-12.248 Z-9.992
X15.901 Y-12.182 Z-9.969
X15.914 Y-12.123 Z-9.931
X15.925 Y-12.074 Z-9.88
X15.933 Y-12.037 Z-9.82
X15.938 Y-12.014 Z-9.753
X15.94 Y-12.007 Z-9.682
G0 Z5
X16.496 Y-25.731
Z-9.365
G1 Z-9.682 F1000
X16.49 Y-25.735 Z-9.753
X16.471 Y-25.749 Z-9.82
X16.44 Y-25.771 Z-9.88
X16.4 Y-25.801 Z-9.931
X16.351 Y-25.837 Z-9.969
X16.297 Y-25.876 Z-9.992
X16.24 Y-25.918 Z-10
G3 X15.741 Y-26.525 I0.934 J-1.277
G1 X15.313 Y-27.528
X15.24 Y-27.696
X14.975 Y-28.198
X14.764 Y-28.532
X14.598 Y-28.827
X14.487 Y-29.066
X14.37 Y-29.383
X14.251 Y-29.812
X14.127 Y-30.447
X14.044 Y-31.18
X14.022 Y-31.548
X13.955 Y-31.911
X13.809 Y-32.25
X13.597 Y-32.552
X13.072 Y-33.07
X12.419 Y-33.414
X11.714 Y-33.629
X10.988 Y-33.76
X10.254 Y-33.838
X10.195 Y-33.842
X10.065 Y-33.862
X9.941 Y-33.904
X9.826 Y-33.968
G3 X10.001 Y-34.542 I0.187 J-0.257
G1 X10.072 Y-34.544 Z-9.992
X10.139 Y-34.547 Z-9.969
X10.199 Y-34.549 Z-9.931
X10.249 Y-34.551 Z-9.88
X10.287 Y-34.553 Z-9.82
X10.31 Y-34.554 Z-9.753
X10.318 Z-9.682
G0 Z5
X15.637 Y-27.87
Z-9.365
G1 Z-9.682 F1000
X15.63 Y-27.873 Z-9.753
X15.609 Y-27.884 Z-9.82
X15.575 Y-27.901 Z-9.88
X15.531 Y-27.924 Z-9.931
X15.477 Y-27.951 Z-9.969
X15.417 Y-27.981 Z-9.992
X15.354 Y-28.013 Z-10
G3 X14.764 Y-28.532 I0.717 J-1.411
G1 X13.918 Y-29.87
X13.702 Y-30.205
X13.573 Y-30.372
X13.133 Y-30.965
X12.642 Y-31.515
X12.527 Y-31.592
X12.475 Y-31.63
X12.427 Y-31.671
X12.383 Y-31.717
G3 X12.866 Y-32.13 I0.245 J-0.202
G1 X14.049 Y-30.793
G3 X14.021 Y-30.345 I-0.238 J0.21
X13.573 Y-30.372 I-0.21 J-0.238
G1 X13.551 Y-30.399
X12.045 Y-32.099
X11.878 Y-32.274
X11.774 Y-32.38
X11.543 Y-32.572
X9.87 Y-33.938
X9.7 Y-34.053
X9.446 Y-34.22
X9.369 Y-34.266
X7.556 Y-35.312
G3 X7.44 Y-35.723 I0.168 J-0.269
G1 X7.476 Y-35.764 Z-9.995
X7.51 Y-35.804 Z-9.981
X7.542 Y-35.841 Z-9.958
X7.588 Y-35.859 Z-9.922
X7.627 Y-35.874 Z-9.878
X7.657 Y-35.885 Z-9.827
X7.678 Y-35.893 Z-9.771
X7.689 Y-35.897 Z-9.711
X7.69 Z-9.682
G0 Z5
X-0.824 Y-18.736
Z2.5
G3 X0.824 Y-21.263 Z2.335 I0.824 J-1.263 F333.3
X-0.824 Y-18.736 Z2.169 I-0.824 J1.263
X0.824 Y-21.263 Z2.004 I0.824 J-1.263
X-0.824 Y-18.736 Z1.838 I-0.824 J1.263
X0.824 Y-21.263 Z1.673 I0.824 J-1.263
X-0.824 Y-18.736 Z1.507 I-0.824 J1.263
X0.824 Y-21.263 Z1.342 I0.824 J-1.263
X-0.824 Y-18.736 Z1.176 I-0.824 J1.263
X0.824 Y-21.263 Z1.011 I0.824 J-1.263
X-0.824 Y-18.736 Z0.845 I-0.824 J1.263
X0.824 Y-21.263 Z0.68 I0.824 J-1.263
X-0.824 Y-18.736 Z0.515 I-0.824 J1.263
X0.824 Y-21.263 Z0.349 I0.824 J-1.263
X-0.824 Y-18.736 Z0.184 I-0.824 J1.263
X0.824 Y-21.263 Z0.018 I0.824 J-1.263
X-0.824 Y-18.736 Z-0.147 I-0.824 J1.263
X0.824 Y-21.263 Z-0.313 I0.824 J-1.263
X-0.824 Y-18.736 Z-0.478 I-0.824 J1.263
X0.824 Y-21.263 Z-0.644 I0.824 J-1.263
X-0.824 Y-18.736 Z-0.809 I-0.824 J1.263
X0.824 Y-21.263 Z-0.974 I0.824 J-1.263
X-0.824 Y-18.736 Z-1.14 I-0.824 J1.263
X0.824 Y-21.263 Z-1.305 I0.824 J-1.263
X-0.824 Y-18.736 Z-1.471 I-0.824 J1.263
X0.824 Y-21.263 Z-1.636 I0.824 J-1.263
X-0.824 Y-18.736 Z-1.802 I-0.824 J1.263
X0.824 Y-21.263 Z-1.967 I0.824 J-1.263
X-0.824 Y-18.736 Z-2.133 I-0.824 J1.263
X0.824 Y-21.263 Z-2.298 I0.824 J-1.263
X-0.824 Y-18.736 Z-2.464 I-0.824 J1.263
X0.824 Y-21.263 Z-2.629 I0.824 J-1.263
X-0.824 Y-18.736 Z-2.794 I-0.824 J1.263
X0.824 Y-21.263 Z-2.96 I0.824 J-1.263
X-0.824 Y-18.736 Z-3.125 I-0.824 J1.263
X0.824 Y-21.263 Z-3.291 I0.824 J-1.263
X-0.824 Y-18.736 Z-3.456 I-0.824 J1.263
X0.824 Y-21.263 Z-3.622 I0.824 J-1.263
X-0.824 Y-18.736 Z-3.787 I-0.824 J1.263
X0.824 Y-21.263 Z-3.953 I0.824 J-1.263
X-0.824 Y-18.736 Z-4.118 I-0.824 J1.263
X0.824 Y-21.263 Z-4.284 I0.824 J-1.263
X-0.824 Y-18.736 Z-4.449 I-0.824 J1.263
X0.824 Y-21.263 Z-4.614 I0.824 J-1.263
X-0.824 Y-18.736 Z-4.78 I-0.824 J1.263
X0.824 Y-21.263 Z-4.945 I0.824 J-1.263
X-0.824 Y-18.736 Z-5.111 I-0.824 J1.263
X0.824 Y-21.263 Z-5.276 I0.824 J-1.263
X-0.824 Y-18.736 Z-5.442 I-0.824 J1.263
X0.824 Y-21.263 Z-5.607 I0.824 J-1.263
X-0.824 Y-18.736 Z-5.773 I-0.824 J1.263
X0.824 Y-21.263 Z-5.938 I0.824 J-1.263
X1.508 Y-20 Z-5.99 I-0.824 J1.263
X-1.508 I-1.508
X1.508 I1.508
G1 X1.528 Y-19.262 F1000
X1.549 Y-19.173
X1.565 Y-19.023
X1.552 Y-18.874
X1.517 Y-18.728
X1.462 Y-18.589
X1.39 Y-18.457
X1.305 Y-18.334
X1.206 Y-18.22
X1.098 Y-18.117
X0.98 Y-18.024
X0.854 Y-17.942
X0.722 Y-17.871
X0.584 Y-17.811
X0.437 Y-17.76
X0.283 Y-17.721
X0.123 Y-17.693
X-0.042 Y-17.678
X-0.211 Y-17.677
X-0.382 Y-17.689
X-0.554 Y-17.715
X-0.725 Y-17.756
X-0.894 Y-17.81
X-1.061 Y-17.879
X-1.222 Y-17.962
X-1.378 Y-18.058
X-1.527 Y-18.167
X-1.667 Y-18.289
X-1.798 Y-18.422
X-1.918 Y-18.565
X-2.027 Y-18.719
X-2.123 Y-18.881
X-2.207 Y-19.052
X-2.276 Y-19.229
X-2.332 Y-19.411
X-2.372 Y-19.598
X-2.398 Y-19.787
X-2.408 Y-19.979
X-2.403 Y-20.171
X-2.382 Y-20.362
X-2.346 Y-20.551
X-2.296 Y-20.737
X-2.23 Y-20.918
X-2.15 Y-21.094
X-2.056 Y-21.262
X-1.948 Y-21.423
X-1.828 Y-21.574
X-1.696 Y-21.716
X-1.554 Y-21.847
X-1.401 Y-21.965
X-1.239 Y-22.071
X-1.069 Y-22.164
X-0.892 Y-22.243
X-0.709 Y-22.307
X-0.522 Y-22.357
X-0.331 Y-22.391
X-0.138 Y-22.41
X0.055 Y-22.414
X0.249 Y-22.401
X0.441 Y-22.374
X0.63 Y-22.331
X0.815 Y-22.273
X0.995 Y-22.2
X1.168 Y-22.113
X1.334 Y-22.013
X1.491 Y-21.899
X1.639 Y-21.774
X1.776 Y-21.636
X1.901 Y-21.489
X2.015 Y-21.331
X2.119 Y-21.159
X2.23 Y-20.936
X2.377 Y-20.572
X2.485 Y-20.229
X2.548 Y-19.946
X2.585 Y-19.691
X2.6 Y-19.453
X2.596 Y-19.23
X2.575 Y-19.017
X2.537 Y-18.81
X2.483 Y-18.608
X2.414 Y-18.411
X2.329 Y-18.22
X2.229 Y-18.037
X2.114 Y-17.862
X1.984 Y-17.696
X1.84 Y-17.539
X1.682 Y-17.392
X1.51 Y-17.256
X1.326 Y-17.133
X1.129 Y-17.024
X0.922 Y-16.929
X0.704 Y-16.85
X0.477 Y-16.788
X0.243 Y-16.744
X0.003 Y-16.718
X-0.241 Y-16.712
X-0.487 Y-16.726
X-0.734 Y-16.759
X-0.98 Y-16.813
X-1.222 Y-16.887
X-1.46 Y-16.981
X-1.691 Y-17.094
X-1.914 Y-17.226
X-2.127 Y-17.377
X-2.328 Y-17.546
X-2.515 Y-17.73
X-2.689 Y-17.931
X-2.846 Y-18.145
X-2.986 Y-18.373
X-3.108 Y-18.611
X-3.21 Y-18.86
X-3.293 Y-19.116
X-3.355 Y-19.379
X-3.395 Y-19.647
X-3.414 Y-19.918
X-3.411 Y-20.19
X-3.387 Y-20.461
X-3.34 Y-20.73
X-3.273 Y-20.994
X-3.184 Y-21.252
X-3.074 Y-21.503
X-2.945 Y-21.744
X-2.796 Y-21.974
X-2.63 Y-22.192
X-2.446 Y-22.396
X-2.247 Y-22.584
X-2.033 Y-22.756
X-1.806 Y-22.91
X-1.567 Y-23.046
X-1.318 Y-23.162
X-1.06 Y-23.258
X-0.795 Y-23.332
X-0.526 Y-23.386
X-0.252 Y-23.417
X0.022 Y-23.426
X0.297 Y-23.414
X0.57 Y-23.379
X0.839 Y-23.322
X1.103 Y-23.244
X1.36 Y-23.145
X1.608 Y-23.026
X1.846 Y-22.887
X2.071 Y-22.73
X2.285 Y-22.554
X2.491 Y-22.354
X2.706 Y-22.111
X2.908 Y-21.84
X3.094 Y-21.543
X3.259 Y-21.227
X3.396 Y-20.901
X3.504 Y-20.575
X3.583 Y-20.251
X3.634 Y-19.931
X3.659 Y-19.615
X3.658 Y-19.303
X3.633 Y-18.995
X3.615 Y-18.89
X3.601 Y-18.823
X3.581 Y-18.757
X3.555 Y-18.694
X3.346 Y-18.25
X3.301 Y-18.16
X3.069 Y-17.825
X2.903 Y-17.591
X2.877 Y-17.558
X2.809 Y-17.491
X2.468 Y-17.156
X2.342 Y-17.052
X2.262 Y-16.989
X2.175 Y-16.926
X1.84 Y-16.711
X1.718 Y-16.654
X1.336 Y-16.487
X1.171 Y-16.422
X1.004 Y-16.372
X0.836 Y-16.33
X0.669 Y-16.298
X0.502 Y-16.277
X0.167 Y-16.251
X0 Y-16.238
X-0.335 Y-16.264
X-0.502 Y-16.277
X-0.669 Y-16.298
X-0.836 Y-16.33
X-1.004 Y-16.372
X-1.171 Y-16.422
X-1.338 Y-16.488
X-1.718 Y-16.654
X-1.84 Y-16.711
X-2.175 Y-16.926
X-2.262 Y-16.989
X-2.342 Y-17.052
X-2.468 Y-17.156
X-2.844 Y-17.525
X-2.877 Y-17.558
X-2.903 Y-17.591
X-3.069 Y-17.825
X-3.302 Y-18.16
X-3.346 Y-18.247
X-3.585 Y-18.745
X-3.608 Y-18.787
X-3.624 Y-18.808
X-3.777 Y-18.996
X-3.907 Y-19.174
X-3.985 Y-19.301
X-4.06 Y-19.448
X-4.129 Y-19.615
X-4.186 Y-19.795
X-4.235 Y-20.003
X-4.241 Y-20.043
X-4.245 Y-20.229
X-4.203 Y-20.409
X-4.118 Y-20.573
X-3.995 Y-20.712
G3 X-3.484 Y-20.529 I0.2 J0.246
G1 X-3.457 Y-20.398
X-3.226 Y-19.268
G3 X-3.777 Y-18.996 I-0.311 J0.064
G1 X-3.954 Y-19.215
X-3.985 Y-19.241
X-4.096 Y-19.331
X-4.35 Y-19.483
X-4.474 Y-19.567
X-4.581 Y-19.704
X-4.64 Y-19.868
X-4.647 Y-20.042
X-4.601 Y-20.209
X-4.506 Y-20.355
X-4.371 Y-20.465
G3 X-3.904 Y-20.204 I0.15 J0.28
G1 X-3.895 Y-20.056
X-3.885 Y-19.887
X-3.879 Y-19.779
G3 X-4.35 Y-19.483 I-0.317 J0.018
G1 X-4.517 Y-19.584
X-4.664 Y-19.665
X-4.684 Y-19.675
X-4.73 Y-19.699
X-4.768 Y-19.719
X-4.81 Y-19.751
X-4.833 Y-19.774
X-4.852 Y-19.797
X-4.874 Y-19.833
X-4.894 Y-19.875
X-4.906 Y-19.916
X-4.913 Y-19.958
X-4.914 Y-20
X-4.909 Y-20.042
X-4.899 Y-20.084
X-4.882 Y-20.125
X-4.857 Y-20.167
X-4.833 Y-20.199
X-4.81 Y-20.222
X-4.768 Y-20.254
X-4.684 Y-20.294
X-4.595 Y-20.335
X-4.096 Y-20.626
X-4.078 Y-20.639
X-3.934 Y-20.765
X-3.916 Y-20.783
X-3.623 Y-21.171
X-3.513 Y-21.379
X-3.346 Y-21.705
X-3.275 Y-21.84
X-3.078 Y-22.175
X-3.05 Y-22.222
X-3.011 Y-22.269
X-2.844 Y-22.46
X-2.463 Y-22.844
X-2.342 Y-22.944
X-2.256 Y-23.011
X-2.175 Y-23.07
X-1.84 Y-23.282
X-1.705 Y-23.346
X-1.331 Y-23.513
X-1.171 Y-23.577
X-1.004 Y-23.626
X-0.836 Y-23.67
X-0.669 Y-23.707
X-0.502 Y-23.731
X-0.167 Y-23.763
X0 Y-23.777
X0.167 Y-23.763
X0.502 Y-23.731
X0.669 Y-23.707
X0.836 Y-23.67
X1.004 Y-23.626
X1.171 Y-23.577
X1.338 Y-23.51
X1.705 Y-23.346
X1.84 Y-23.282
X2.175 Y-23.07
X2.256 Y-23.011
X2.342 Y-22.944
X2.463 Y-22.844
X2.844 Y-22.46
X3.011 Y-22.269
X3.05 Y-22.222
X3.078 Y-22.175
X3.276 Y-21.84
X3.453 Y-21.506
X3.585 Y-21.255
X3.607 Y-21.213
X3.614 Y-21.202
X3.947 Y-20.791
X3.963 Y-20.776
X4.07 Y-20.671
X4.159 Y-20.55
X4.249 Y-20.404
X4.332 Y-20.241
X4.339 Y-20.225
X4.388 Y-20.037
X4.385 Y-19.842
X4.33 Y-19.656
X4.227 Y-19.491
X4.083 Y-19.36
G3 X3.568 Y-19.568 I-0.2 J-0.247
G1 X3.555 Y-19.677
X3.462 Y-20.441
X3.456 Y-20.484
G3 X3.963 Y-20.776 I0.315 J-0.038
G1 X4.095 Y-20.669
X4.35 Y-20.506
X4.485 Y-20.434
X4.614 Y-20.357
X4.71 Y-20.214
X4.749 Y-20.047
X4.726 Y-19.876
X4.643 Y-19.724
X4.513 Y-19.612
X4.444 Y-19.582
X4.372 Y-19.562
X4.297 Y-19.554
G3 X4.266 Y-20.481 I-0.016 J-0.464
X4.485 Y-20.434 I0.016 J0.464
G1 X4.517 Y-20.417
X4.684 Y-20.333
X4.768 Y-20.292
X4.81 Y-20.264
X4.831 Y-20.246
X4.852 Y-20.224
X4.874 Y-20.196
X4.891 Y-20.167
X4.911 Y-20.125
X4.923 Y-20.084
X4.929 Y-20.042
X4.93 Y-20
X4.925 Y-19.958
X4.915 Y-19.916
X4.898 Y-19.875
X4.873 Y-19.833
X4.852 Y-19.806
X4.831 Y-19.784
X4.81 Y-19.766
X4.768 Y-19.738
X4.604 Y-19.665
X4.1 Y-19.371
X4.083 Y-19.36
X3.936 Y-19.232
X3.92 Y-19.215
X3.626 Y-18.829
X3.579 Y-18.745
X3.555 Y-18.694
G3 X3.155 Y-18.544 I-0.282 J-0.145
G1 X3.111 Y-18.576 Z-5.985
X3.068 Y-18.607 Z-5.971
X3.028 Y-18.636 Z-5.948
X3.007 Y-18.68 Z-5.913
X2.989 Y-18.718 Z-5.869
X2.975 Y-18.747 Z-5.817
X2.966 Y-18.767 Z-5.761
X2.961 Y-18.777 Z-5.701
Y-18.779 Z-5.673
G0 Z5
X1.772 Y-20.267
Z-4.365
G1 Z-4.682 F1000
X1.779 Y-20.271 Z-4.753
X1.799 Y-20.284 Z-4.82
X1.83 Y-20.305 Z-4.88
X1.872 Y-20.333 Z-4.931
X1.922 Y-20.366 Z-4.969
X1.978 Y-20.403 Z-4.992
X2.037 Y-20.442 Z-5
G3 X3.589 Y-21.242 I4.469 J6.762
G1 X3.731 Y-21.291
X3.885 Y-21.315
X4.061 Y-21.328
X4.223 Y-21.326
X4.372 Y-21.313
X4.52 Y-21.288
X4.665 Y-21.249
X4.806 Y-21.198
X4.941 Y-21.133
X5.068 Y-21.054
X5.186 Y-20.961
X5.293 Y-20.856
X5.386 Y-20.738
X5.464 Y-20.61
X5.525 Y-20.473
X5.567 Y-20.329
X5.589 Y-20.181
X5.59 Y-20.031
X5.57 Y-19.882
X5.528 Y-19.738
X5.448 Y-19.55
X5.106 Y-18.896
X4.769 Y-18.24
X4.443 Y-17.694
X4.112 Y-17.227
X3.808 Y-16.864
X3.478 Y-16.529
X3.176 Y-16.268
X2.8 Y-15.992
X2.45 Y-15.777
X2.103 Y-15.6
X1.745 Y-15.452
X1.333 Y-15.319
X0.966 Y-15.233
X0.54 Y-15.169
X0.141 Y-15.141
X-0.237 Y-15.145
X-0.609 Y-15.178
X-1.042 Y-15.253
X-1.397 Y-15.344
X-1.774 Y-15.474
X-2.117 Y-15.624
X-2.48 Y-15.819
X-2.803 Y-16.027
X-3.106 Y-16.259
X-3.43 Y-16.551
X-3.69 Y-16.826
X-4.152 Y-17.401
X-4.667 Y-17.929
X-5.013 Y-18.241
X-5.208 Y-18.448
X-5.35 Y-18.626
X-5.459 Y-18.787
X-5.545 Y-18.938
X-5.611 Y-19.082
X-5.663 Y-19.223
X-5.704 Y-19.367
X-5.731 Y-19.515
X-5.745 Y-19.664
X-5.743 Y-19.814
X-5.726 Y-19.963
X-5.692 Y-20.109
X-5.641 Y-20.25
X-5.564 Y-20.411
X-5.191 Y-21.048
X-4.824 Y-21.688
X-4.513 Y-22.216
X-4.157 Y-22.723
X-3.842 Y-23.102
X-3.51 Y-23.442
X-3.204 Y-23.709
X-2.82 Y-23.993
X-2.469 Y-24.212
X-2.103 Y-24.4
X-1.733 Y-24.555
X-1.322 Y-24.689
X-0.98 Y-24.771
X-0.569 Y-24.835
X-0.192 Y-24.864
X0.201 Y-24.861
X0.565 Y-24.83
X0.998 Y-24.757
X1.363 Y-24.665
X1.746 Y-24.535
X2.092 Y-24.386
X2.431 Y-24.206
X2.801 Y-23.969
X3.093 Y-23.749
X3.643 Y-23.257
X4.284 Y-22.891
X4.865 Y-22.591
X5.199 Y-22.384
X5.452 Y-22.197
X5.658 Y-22.017
X5.832 Y-21.839
X5.982 Y-21.658
X6.109 Y-21.478
X6.212 Y-21.302
X6.299 Y-21.125
X6.37 Y-20.943
X6.422 Y-20.769
X6.46 Y-20.591
X6.485 Y-20.403
X6.495 Y-20.208
X6.487 Y-19.969
X6.454 Y-19.667
X6.376 Y-19.264
X6.243 Y-18.785
X6.044 Y-18.241
X5.79 Y-17.69
X5.499 Y-17.172
X5.172 Y-16.686
X4.825 Y-16.25
X4.444 Y-15.843
X4.043 Y-15.479
X3.629 Y-15.16
X3.201 Y-14.881
X2.749 Y-14.636
X2.291 Y-14.434
X1.812 Y-14.267
X1.325 Y-14.14
X0.84 Y-14.054
X0.358 Y-14.008
X-0.14 Y-14.001
X-0.625 Y-14.033
X-1.107 Y-14.104
X-1.576 Y-14.212
X-2.041 Y-14.359
X-2.489 Y-14.542
X-2.918 Y-14.759
X-3.34 Y-15.017
X-3.734 Y-15.303
X-4.295 Y-15.783
X-4.823 Y-16.298
X-5.354 Y-16.81
X-5.745 Y-17.223
X-6.01 Y-17.551
X-6.213 Y-17.85
X-6.369 Y-18.124
X-6.491 Y-18.386
X-6.585 Y-18.637
X-6.653 Y-18.879
X-6.7 Y-19.113
X-6.726 Y-19.338
X-6.733 Y-19.559
X-6.723 Y-19.784
X-6.689 Y-20.056
X-6.615 Y-20.408
X-6.472 Y-20.894
X-6.215 Y-21.564
X-5.905 Y-22.21
X-5.565 Y-22.794
X-5.2 Y-23.319
X-4.823 Y-23.778
X-4.415 Y-24.2
X-3.995 Y-24.57
X-3.56 Y-24.895
X-3.115 Y-25.175
X-2.649 Y-25.418
X-2.189 Y-25.613
X-1.714 Y-25.771
X-1.237 Y-25.887
X-0.758 Y-25.965
X-0.274 Y-26.003
X0.219
X0.705 Y-25.963
X1.186 Y-25.885
X1.655 Y-25.769
X2.116 Y-25.615
X2.569 Y-25.422
X3.001 Y-25.195
X3.625 Y-24.801
X4.252 Y-24.411
X4.89 Y-24.041
X5.476 Y-23.675
X5.897 Y-23.363
X6.224 Y-23.076
X6.502 Y-22.791
X6.731 Y-22.514
X6.922 Y-22.24
X7.084 Y-21.965
X7.219 Y-21.686
X7.329 Y-21.403
X7.416 Y-21.108
X7.483 Y-20.791
X7.529 Y-20.438
X7.547 Y-20.074
X7.533 Y-19.658
X7.48 Y-19.181
X7.384 Y-18.693
X7.236 Y-18.164
X7.03 Y-17.605
X6.768 Y-17.038
X6.456 Y-16.487
X6.098 Y-15.956
X5.699 Y-15.458
X5.266 Y-14.998
X4.804 Y-14.58
X4.314 Y-14.204
X3.802 Y-13.872
X3.267 Y-13.584
X2.714 Y-13.341
X2.149 Y-13.145
X1.577 Y-12.997
X0.994 Y-12.895
X0.409 Y-12.841
X-0.176 Y-12.834
X-0.757 Y-12.873
X-1.332 Y-12.959
X-1.897 Y-13.091
X-2.448 Y-13.267
X-2.986 Y-13.488
X-3.504 Y-13.751
X-4.081 Y-14.105
X-4.677 Y-14.54
X-5.242 Y-15.014
X-5.788 Y-15.51
X-6.309 Y-16.033
X-6.681 Y-16.469
X-6.981 Y-16.883
X-7.219 Y-17.275
X-7.402 Y-17.641
X-7.547 Y-17.997
X-7.657 Y-18.347
X-7.735 Y-18.693
X-7.786 Y-19.044
X-7.81 Y-19.42
X-7.803 Y-19.847
X-7.761 Y-20.282
X-7.665 Y-20.813
X-7.507 Y-21.413
X-7.295 Y-22.015
X-7.02 Y-22.634
X-6.684 Y-23.251
X-6.302 Y-23.834
X-5.879 Y-24.38
X-5.423 Y-24.88
X-4.943 Y-25.327
X-4.441 Y-25.726
X-3.92 Y-26.074
X-3.383 Y-26.374
X-2.832 Y-26.626
X-2.271 Y-26.831
X-1.7 Y-26.988
X-1.12 Y-27.098
X-0.535 Y-27.161
X0.051 Y-27.178
X0.633 Y-27.147
X1.21 Y-27.069
X1.78 Y-26.946
X2.338 Y-26.777
X2.931 Y-26.544
X3.594 Y-26.22
X4.241 Y-25.865
X4.883 Y-25.501
X5.517 Y-25.124
X6.129 Y-24.713
X6.635 Y-24.312
X7.029 Y-23.944
X7.365 Y-23.576
X7.654 Y-23.203
X7.9 Y-22.827
X8.108 Y-22.445
X8.282 Y-22.053
X8.426 Y-21.644
X8.538 Y-21.219
X8.619 Y-20.768
X8.666 Y-20.28
X8.674 Y-19.763
X8.639 Y-19.212
X8.557 Y-18.645
X8.424 Y-18.062
X8.23 Y-17.447
X7.976 Y-16.82
X7.662 Y-16.195
X7.292 Y-15.585
X6.871 Y-15.003
X6.404 Y-14.457
X5.897 Y-13.951
X5.353 Y-13.49
X4.778 Y-13.076
X4.174 Y-12.712
X3.547 Y-12.399
X2.901 Y-12.14
X2.24 Y-11.934
X1.569 Y-11.782
X0.89 Y-11.686
X0.208 Y-11.644
X-0.472 Y-11.658
X-1.147 Y-11.725
X-1.812 Y-11.847
X-2.466 Y-12.021
X-3.104 Y-12.247
X-3.755 Y-12.539
X-4.402 Y-12.894
X-5.021 Y-13.296
X-5.612 Y-13.738
X-6.179 Y-14.21
X-6.722 Y-14.709
X-7.23 Y-15.243
X-7.65 Y-15.762
X-7.99 Y-16.259
X-8.207 Y-16.64
X-8.227 Y-16.681
X-8.406 Y-17.072
X-8.43 Y-17.156
X-8.795 Y-18.662
X-8.812 Y-18.745
X-8.833 Y-19.164
X-8.849 Y-19.498
X-8.847 Y-20.236
X-8.811 Y-20.707
X-8.724 Y-21.252
X-8.578 Y-21.855
X-8.37 Y-22.487
X-8.105 Y-23.116
X-7.769 Y-23.763
X-7.378 Y-24.388
X-6.939 Y-24.981
X-6.455 Y-25.539
X-5.93 Y-26.056
X-5.366 Y-26.53
X-4.775 Y-26.951
X-4.16 Y-27.317
X-3.527 Y-27.629
X-2.878 Y-27.886
X-2.215 Y-28.089
X-1.541 Y-28.237
X-0.862 Y-28.33
X-0.18 Y-28.369
X0.501 Y-28.352
X1.177 Y-28.281
X1.845 Y-28.156
X2.522 Y-27.972
X3.217 Y-27.721
X3.892 Y-27.424
X4.553 Y-27.097
X5.203 Y-26.748
X5.84 Y-26.376
X6.459 Y-25.974
X6.647 Y-25.835
X6.69 Y-25.801
X6.729 Y-25.764
X6.766 Y-25.725
X7.233 Y-25.186
X7.336 Y-25.019
X8.03 Y-23.817
X8.104 Y-23.681
X8.51 Y-22.509
X8.626 Y-22.175
X8.652 Y-22.091
X8.665 Y-22.008
X8.882 Y-20.502
X8.891 Y-20.418
X8.889 Y-20.335
X8.817 Y-18.829
X8.812 Y-18.745
X8.795 Y-18.662
X8.43 Y-17.156
X8.406 Y-17.072
X7.986 Y-16.152
X7.757 Y-15.65
X7.696 Y-15.529
X7.664 Y-15.483
X6.77 Y-14.228
X6.74 Y-14.186
X6.702 Y-14.145
X5.521 Y-13.019
X5.46 Y-12.974
X4.158 Y-12.137
X4.087 Y-12.093
X4.015 Y-12.061
X2.534 Y-11.468
X2.509 Y-11.46
X2.342 Y-11.426
X1.004 Y-11.168
X0.836 Y-11.138
X0.669 Y-11.137
X-0.669
X-0.836 Y-11.138
X-1.004 Y-11.168
X-2.342 Y-11.426
X-2.509 Y-11.46
X-2.534 Y-11.468
X-4.015 Y-12.061
X-4.087 Y-12.093
X-4.182 Y-12.153
X-5.46 Y-12.974
X-5.521 Y-13.019
X-6.702 Y-14.145
X-6.74 Y-14.186
X-6.859 Y-14.353
X-7.664 Y-15.483
X-7.696 Y-15.529
X-7.757 Y-15.65
X-8.227 Y-16.681
X-8.244 Y-16.734
X-8.401 Y-17.446
X-8.683 Y-18.731
X-8.843 Y-19.456
X-8.849 Y-19.498
X-8.889 Y-20.335
X-8.891 Y-20.418
X-8.882 Y-20.502
X-8.665 Y-22.008
X-8.652 Y-22.091
X-8.626 Y-22.175
X-8.163 Y-23.513
X-8.104 Y-23.681
X-8.03 Y-23.817
X-7.336 Y-25.019
X-7.233 Y-25.186
X-6.19 Y-26.39
X-6.156 Y-26.428
X-6.115 Y-26.466
X-4.852 Y-27.46
X-4.795 Y-27.499
X-3.346 Y-28.246
X-3.304 Y-28.265
X-3.262 Y-28.279
X-1.83 Y-28.699
X-1.673 Y-28.742
X-1.338 Y-28.775
X-0.167 Y-28.887
X0 Y-28.902
X0.167 Y-28.887
X1.506 Y-28.759
X1.673 Y-28.742
X1.84 Y-28.697
X3.262 Y-28.279
X3.304 Y-28.265
X3.346 Y-28.246
X4.795 Y-27.499
X4.852 Y-27.46
X6.115 Y-26.466
X6.156 Y-26.428
X6.218 Y-26.357
X6.766 Y-25.725
G3 X6.742 Y-25.299 I-0.247 J0.199
G1 X6.695 Y-25.271 Z-4.995
X6.649 Y-25.245 Z-4.981
X6.607 Y-25.22 Z-4.958
X6.56 Y-25.213 Z-4.924
X6.519 Y-25.208 Z-4.883
X6.489 Y-25.211 Z-4.838
X6.467 Y-25.214 Z-4.789
X6.454 Y-25.215 Z-4.736
X6.449 Y-25.216 Z-4.683
G0 Z5
X-6.324 Y-17.472
Z-2.355
G1 Z-2.672 F1000
X-6.331 Y-17.467 Z-2.743
X-6.349 Y-17.452 Z-2.81
X-6.378 Y-17.428 Z-2.87
X-6.417 Y-17.397 Z-2.921
X-6.464 Y-17.359 Z-2.959
X-6.517 Y-17.317 Z-2.982
X-6.571 Y-17.272 Z-2.99
G3 X-8.041 Y-16.328 I-5.092 J-6.307
G1 X-8.177 Y-16.266
X-8.301 Y-16.309
X-8.405 Y-16.39
X-8.479 Y-16.499
X-8.626 Y-16.821
X-8.691 Y-16.989
X-8.744 Y-17.156
X-8.988 Y-18.16
X-9.025 Y-18.327
X-9.121 Y-18.829
X-9.132 Y-18.996
X-9.179 Y-20
X-9.181 Y-20.502
X-9.168 Y-20.669
X-9.024 Y-21.673
X-8.994 Y-21.84
X-8.93 Y-22.175
X-8.894 Y-22.342
X-8.532 Y-23.387
X-8.484 Y-23.513
X-8.267 Y-24.015
X-8.198 Y-24.143
X-7.528 Y-25.302
X-7.493 Y-25.353
X-7.026 Y-25.895
X-6.48 Y-26.525
X-6.357 Y-26.664
X-6.325 Y-26.692
X-5.261 Y-27.528
X-5.186 Y-27.585
X-4.684 Y-27.894
X-4.517 Y-27.987
X-3.513 Y-28.505
X-3.455 Y-28.532
X-3.011 Y-28.671
X-2.342 Y-28.867
X-1.764 Y-29.034
X-1.718 Y-29.044
X-0.073 Y-29.201
X0 Y-29.207
X0.073 Y-29.201
X1.718 Y-29.044
X1.764 Y-29.034
X2.345 Y-28.867
X3.011 Y-28.671
X3.455 Y-28.532
X3.513 Y-28.505
X4.517 Y-27.987
X4.684 Y-27.894
X5.186 Y-27.585
X5.261 Y-27.528
X6.325 Y-26.692
X6.357 Y-26.664
X6.626 Y-26.357
X7.205 Y-25.688
X7.493 Y-25.353
X7.528 Y-25.302
X8.198 Y-24.143
X8.267 Y-24.015
X8.484 Y-23.513
X8.532 Y-23.387
X8.894 Y-22.342
X8.93 Y-22.175
X8.994 Y-21.84
X9.024 Y-21.673
X9.168 Y-20.669
X9.181 Y-20.502
X9.179 Y-20
X9.132 Y-18.996
X9.121 Y-18.829
X9.025 Y-18.327
X8.988 Y-18.16
X8.744 Y-17.156
X8.691 Y-16.989
X8.626 Y-16.821
X8.091 Y-15.65
X7.972 Y-15.399
X7.918 Y-15.316
X7.194 Y-14.299
X7.026 Y-14.07
X6.958 Y-13.977
X6.859 Y-13.872
X5.855 Y-12.915
X5.727 Y-12.806
X5.353 Y-12.546
X5.246 Y-12.472
X4.465 Y-11.97
X4.35 Y-11.9
X4.161 Y-11.802
X4.015 Y-11.73
X2.943 Y-11.301
X2.844 Y-11.266
X2.342 Y-11.116
X2.175 Y-11.08
X1.171 Y-10.886
X1.004 Y-10.87
X0.669 Y-10.838
X0.502 Y-10.829
X-0.502
X-0.669 Y-10.838
X-1.004 Y-10.87
X-1.171 Y-10.886
X-2.175 Y-11.08
X-2.342 Y-11.116
X-2.844 Y-11.266
X-2.943 Y-11.301
X-4.015 Y-11.73
X-4.182 Y-11.814
X-4.35 Y-11.9
X-4.465 Y-11.97
X-5.246 Y-12.472
X-5.353 Y-12.546
X-5.727 Y-12.806
X-5.855 Y-12.915
X-6.859 Y-13.872
X-6.958 Y-13.977
X-7.081 Y-14.145
X-7.203 Y-14.312
X-7.918 Y-15.316
X-7.972 Y-15.399
X-8.091 Y-15.65
X-8.479 Y-16.499
G3 X-8.335 Y-16.901 I0.293 J-0.122
G1 X-8.283 Y-16.914 Z-2.985
X-8.233 Y-16.927 Z-2.971
X-8.185 Y-16.938 Z-2.949
X-8.14 Y-16.927 Z-2.916
X-8.101 Y-16.917 Z-2.876
X-8.069 Y-16.909 Z-2.828
X-8.047 Y-16.903 Z-2.776
X-8.034 Y-16.9 Z-2.72
X-8.031 Y-16.898 Z-2.673
G0 Z5
X-0.295 Y-27.131
Z-1.365
G1 Z-1.683 F1000
X-0.298 Y-27.138 Z-1.753
X-0.306 Y-27.16 Z-1.82
X-0.318 Y-27.196 Z-1.88
X-0.335 Y-27.243 Z-1.931
X-0.355 Y-27.3 Z-1.969
X-0.377 Y-27.364 Z-1.992
X-0.401 Y-27.43 Z-2
G3 X-0.799 Y-29.13 I7.647 J-2.688
G1 X-0.812 Y-29.28
X-0.734 Y-29.408
X-0.637 Y-29.522
X-0.522 Y-29.619
X-0.397 Y-29.702
X-0.252 Y-29.782
X-0.067 Y-29.864
X0.171 Y-29.947
X0.475 Y-30.027
X0.744 Y-30.076
X0.984 Y-30.099
X1.03 Y-30.102
X1.076
X1.121 Y-30.1
X1.673 Y-30.05
X1.756 Y-30.038
X2.175 Y-29.935
X2.342 Y-29.893
X2.844 Y-29.759
X3.346 Y-29.62
X3.513 Y-29.564
X4.015 Y-29.343
X4.517 Y-29.11
X4.684 Y-29.029
X5.019 Y-28.864
X5.186 Y-28.78
X6.257 Y-28.03
X6.357 Y-27.958
X6.525 Y-27.829
X6.681 Y-27.696
X6.859 Y-27.52
X7.361 Y-27.019
X7.528 Y-26.85
X7.696 Y-26.677
X7.827 Y-26.525
X7.959 Y-26.357
X8.03 Y-26.261
X8.548 Y-25.521
X8.664 Y-25.353
X8.776 Y-25.186
X8.867 Y-25.01
X9.034 Y-24.681
X9.114 Y-24.517
X9.347 Y-24.015
X9.565 Y-23.513
X9.622 Y-23.346
X9.765 Y-22.844
X9.899 Y-22.342
X9.94 Y-22.175
X10.038 Y-21.761
X10.051 Y-21.673
X10.103 Y-21.171
X10.147 Y-20.669
X10.16 Y-20.502
X10.194 Y-20
X10.171 Y-19.665
X10.159 Y-19.498
X10.145 Y-19.331
X10.086 Y-18.662
X10.056 Y-18.327
X10.038 Y-18.222
X9.893 Y-17.658
X9.624 Y-16.654
X9.568 Y-16.487
X9.337 Y-15.985
X9.103 Y-15.483
X9.022 Y-15.316
X8.855 Y-14.981
X8.77 Y-14.814
X8.03 Y-13.756
X7.946 Y-13.643
X7.509 Y-13.141
X7.345 Y-12.974
X7.011 Y-12.639
X6.859 Y-12.491
X6.357 Y-12.047
X6.254 Y-11.97
X5.521 Y-11.457
X5.353 Y-11.341
X5.186 Y-11.229
X5.002 Y-11.133
X4.676 Y-10.966
X4.517 Y-10.888
X4.015 Y-10.655
X3.513 Y-10.433
X3.346 Y-10.377
X2.844 Y-10.235
X2.342 Y-10.101
X2.008 Y-10.02
X1.768 Y-9.962
X1.673 Y-9.947
X1.171 Y-9.895
X0.669 Y-9.851
X0.502 Y-9.838
X0 Y-9.806
X-0.502 Y-9.838
X-0.669 Y-9.851
X-1.171 Y-9.895
X-1.673 Y-9.947
X-1.768 Y-9.962
X-2.175 Y-10.06
X-2.342 Y-10.101
X-2.844 Y-10.235
X-3.346 Y-10.377
X-3.513 Y-10.433
X-4.015 Y-10.655
X-4.517 Y-10.888
X-4.684 Y-10.97
X-5.019 Y-11.142
X-5.186 Y-11.229
X-5.353 Y-11.341
X-5.537 Y-11.468
X-6.254 Y-11.97
X-6.357 Y-12.047
X-6.859 Y-12.491
X-7.026 Y-12.655
X-7.361 Y-12.989
X-7.509 Y-13.141
X-7.946 Y-13.643
X-8.03 Y-13.756
X-8.77 Y-14.814
X-8.867 Y-15.004
X-9.034 Y-15.339
X-9.103 Y-15.483
X-9.369 Y-16.053
X-9.568 Y-16.487
X-9.624 Y-16.654
X-9.893 Y-17.658
X-10.038 Y-18.222
X-10.056 Y-18.327
X-10.116 Y-18.996
X-10.145 Y-19.331
X-10.159 Y-19.498
X-10.183 Y-19.833
X-10.194 Y-20
X-10.16 Y-20.502
X-10.147 Y-20.669
X-10.103 Y-21.171
X-10.051 Y-21.673
X-10.038 Y-21.761
X-9.94 Y-22.175
X-9.899 Y-22.342
X-9.765 Y-22.844
X-9.622 Y-23.346
X-9.565 Y-23.513
X-9.347 Y-24.015
X-9.114 Y-24.517
X-9.032 Y-24.684
X-8.862 Y-25.019
X-8.776 Y-25.186
X-8.664 Y-25.353
X-8.532 Y-25.544
X-8.03 Y-26.261
X-7.959 Y-26.357
X-7.827 Y-26.525
X-7.696 Y-26.677
X-7.519 Y-26.859
X-7.354 Y-27.026
X-6.851 Y-27.528
X-6.681 Y-27.696
X-6.525 Y-27.829
X-6.357 Y-27.958
X-6.257 Y-28.03
X-5.186 Y-28.78
X-5.013 Y-28.867
X-4.674 Y-29.034
X-4.517 Y-29.11
X-4.015 Y-29.343
X-3.513 Y-29.564
X-3.346 Y-29.62
X-2.844 Y-29.759
X-2.342 Y-29.893
X-1.84 Y-30.017
X-1.756 Y-30.038
X-1.673 Y-30.05
X-1.004 Y-30.11
X-0.167 Y-30.183
X0 Y-30.197
X0.167 Y-30.183
X1.121 Y-30.1
G3 X1.4 Y-29.777 I-0.039 J0.315
G1 X1.385 Y-29.724 Z-1.995
X1.371 Y-29.674 Z-1.981
X1.357 Y-29.626 Z-1.958
X1.323 Y-29.591 Z-1.922
X1.294 Y-29.561 Z-1.878
X1.271 Y-29.538 Z-1.827
X1.256 Y-29.522 Z-1.771
X1.248 Y-29.514 Z-1.711
X1.247 Y-29.513 Z-1.683
G0 Z5
X13.758 Y-6.713
Z-0.365
G1 Z-0.683 F1000
X13.751 Y-6.717 Z-0.753
X13.731 Y-6.729 Z-0.82
X13.698 Y-6.748 Z-0.88
X13.655 Y-6.774 Z-0.931
X13.603 Y-6.805 Z-0.969
X13.545 Y-6.839 Z-0.992
X13.485 Y-6.875 Z-1
G3 X12.087 Y-7.922 I4.134 J-6.972
G1 X11.981 Y-8.028
X11.947 Y-8.174
X11.936 Y-8.324
X11.943 Y-8.474
X11.965 Y-8.639
X12.008 Y-8.838
X12.083 Y-9.085
X12.294 Y-9.624
X12.618 Y-10.287
X12.977 Y-10.932
X13.353 Y-11.567
X13.717 Y-12.208
X14.047 Y-12.868
X14.358 Y-13.537
X14.655 Y-14.213
X14.901 Y-14.908
X15.115 Y-15.614
X15.311 Y-16.326
X15.468 Y-17.047
X15.581 Y-17.776
X15.668 Y-18.509
X15.734 Y-19.243
X15.743 Y-19.981
X15.721 Y-20.719
X15.68 Y-21.455
X15.594 Y-22.188
X15.465 Y-22.915
X15.314 Y-23.637
X15.137 Y-24.353
X14.908 Y-25.054
X14.651 Y-25.746
X14.375 Y-26.43
X14.056 Y-27.095
X13.701 Y-27.742
X13.327 Y-28.378
X12.926 Y-28.998
X12.483 Y-29.588
X12.018 Y-30.161
X11.54 Y-30.722
X11.02 Y-31.246
X10.476 Y-31.744
X9.918 Y-32.228
X9.337 Y-32.682
X8.728 Y-33.098
X8.104 Y-33.492
X7.469 Y-33.868
X6.808 Y-34.196
X6.133 Y-34.493
X5.45 Y-34.773
X4.753 Y-35.013
X4.042 Y-35.21
X3.325 Y-35.385
X2.603 Y-35.536
X1.871 Y-35.632
X1.136 Y-35.696
X0.4 Y-35.745
X-0.338 Y-35.743
X-1.075 Y-35.701
X-1.81 Y-35.637
X-2.541 Y-35.543
X-3.265 Y-35.398
X-3.982 Y-35.225
X-4.695 Y-35.035
X-5.392 Y-34.794
X-6.076 Y-34.517
X-6.752 Y-34.222
X-7.414 Y-33.895
X-8.052 Y-33.524
X-8.676 Y-33.131
X-9.291 Y-32.724
X-9.872 Y-32.268
X-10.43 Y-31.786
X-10.976 Y-31.29
X-11.495 Y-30.765
X-11.979 Y-30.208
X-12.445 Y-29.636
X-12.89 Y-29.047
X-13.294 Y-28.43
X-13.67 Y-27.795
X-14.03 Y-27.151
X-14.349 Y-26.486
X-14.629 Y-25.803
X-14.887 Y-25.112
X-15.12 Y-24.412
X-15.302 Y-23.697
X-15.454 Y-22.975
X-15.587 Y-22.249
X-15.672 Y-21.517
X-15.718 Y-20.78
X-15.742 Y-20.043
X-15.735 Y-19.305
X-15.675 Y-18.57
X-15.588 Y-17.837
X-15.481 Y-17.107
X-15.324 Y-16.386
X-15.13 Y-15.674
X-14.918 Y-14.967
X-14.669 Y-14.273
X-14.377 Y-13.595
X-14.06 Y-12.929
X-13.723 Y-12.273
X-13.34 Y-11.642
X-12.929 Y-11.029
X-12.503 Y-10.427
X-12.041 Y-9.852
X-11.546 Y-9.305
X-11.033 Y-8.774
X-10.501 Y-8.263
X-9.935 Y-7.79
X-9.349 Y-7.342
X-8.752 Y-6.907
X-8.128 Y-6.513
X-7.483 Y-6.155
X-6.828 Y-5.817
X-6.159 Y-5.505
X-5.47 Y-5.24
X-4.772 Y-5.004
X-4.068 Y-4.782
X-3.35 Y-4.614
X-2.623 Y-4.482
X-1.894 Y-4.371
X-1.16 Y-4.294
X-0.423 Y-4.266
X0.315 Y-4.265
X1.052 Y-4.28
X1.786 Y-4.355
X2.516 Y-4.464
X3.243 Y-4.592
X3.962 Y-4.758
X4.669 Y-4.969
X5.368 Y-5.205
X6.06 Y-5.461
X6.731 Y-5.768
X7.387 Y-6.104
X8.036 Y-6.456
X8.661 Y-6.848
X9.262 Y-7.276
X9.85 Y-7.722
X10.264 Y-8.333
X10.597 Y-8.991
X10.911 Y-9.659
X11.234 Y-10.322
X11.576 Y-10.976
X11.934 Y-11.621
X12.29 Y-12.267
X12.631 Y-12.922
X12.955 Y-13.585
X13.255 Y-14.259
X13.521 Y-14.947
X13.757 Y-15.646
X13.962 Y-16.355
X14.127 Y-17.074
X14.256 Y-17.8
X14.354 Y-18.531
X14.408 Y-19.267
X14.424 Y-20.005
X14.407 Y-20.743
X14.349 Y-21.478
X14.252 Y-22.21
X14.123 Y-22.936
X13.955 Y-23.654
X13.747 Y-24.362
X13.509 Y-25.061
X13.234 Y-25.745
X12.92 Y-26.413
X12.576 Y-27.066
X12.199 Y-27.7
X11.787 Y-28.312
X11.347 Y-28.904
X10.879 Y-29.475
X10.379 Y-30.017
X9.853 Y-30.534
X9.303 Y-31.027
X8.726 Y-31.487
X8.127 Y-31.917
X7.509 Y-32.32
X6.869 Y-32.686
X6.21 Y-33.019
X5.537 Y-33.321
X4.848 Y-33.586
X4.146 Y-33.813
X3.435 Y-34.01
X2.715 Y-34.168
X1.986 Y-34.286
X1.254 Y-34.373
X0.517 Y-34.42
X-0.221 Y-34.424
X-0.958 Y-34.393
X-1.693 Y-34.327
X-2.422 Y-34.218
X-3.146 Y-34.076
X-3.863 Y-33.899
X-4.568 Y-33.682
X-5.261 Y-33.43
X-5.942 Y-33.146
X-6.606 Y-32.824
X-7.253 Y-32.468
X-7.884 Y-32.086
X-8.49 Y-31.666
X-9.073 Y-31.214
X-9.636 Y-30.737
X-10.171 Y-30.229
X-10.679 Y-29.694
X-11.162 Y-29.136
X-11.615 Y-28.553
X-12.035 Y-27.947
X-12.429 Y-27.323
X-12.789 Y-26.679
X-13.111 Y-26.015
X-13.401 Y-25.337
X-13.658 Y-24.645
X-13.823 Y-23.926
X-13.978 Y-23.205
X-14.111 Y-22.479
X-14.21 Y-21.748
X-14.277 Y-21.013
X-14.312 Y-20.276
X-14.304 Y-19.538
X-14.259 Y-18.802
X-14.18 Y-18.068
X-14.06 Y-17.34
X-13.902 Y-16.62
X-13.711 Y-15.907
X-13.481 Y-15.206
X-13.214 Y-14.518
X-12.917 Y-13.843
X-12.583 Y-13.185
X-12.213 Y-12.546
X-11.815 Y-11.925
X-11.383 Y-11.327
X-10.918 Y-10.754
X-10.427 Y-10.203
X-9.909 Y-9.678
X-9.362 Y-9.183
X-8.793 Y-8.713
X-8.201 Y-8.273
X-7.585 Y-7.867
X-6.95 Y-7.492
X-6.297 Y-7.148
X-5.625 Y-6.843
X-4.939 Y-6.571
X-4.241 Y-6.332
X-3.531 Y-6.133
X-2.811 Y-5.971
X-2.084 Y-5.842
X-1.352 Y-5.755
X-0.616 Y-5.706
X0.122 Y-5.686
X0.859 Y-5.713
X1.594 Y-5.779
X2.325 Y-5.879
X3.05 Y-6.019
X3.765 Y-6.197
X4.473 Y-6.408
X5.168 Y-6.656
X5.848 Y-6.942
X6.514 Y-7.258
X7.163 Y-7.609
X7.791 Y-7.998
X8.367 Y-8.459
X8.84 Y-9.024
X9.244 Y-9.642
X9.612 Y-10.281
X10.637 Y-12.138
X10.987 Y-12.788
X11.325 Y-13.444
X11.643 Y-14.109
X11.935 Y-14.787
X12.196 Y-15.477
X12.424 Y-16.179
X12.615 Y-16.892
X12.769 Y-17.613
X12.883 Y-18.342
X12.955 Y-19.076
X12.987 Y-19.814
X12.976 Y-20.551
X12.922 Y-21.287
X12.827 Y-22.019
X12.691 Y-22.744
X12.515 Y-23.46
X12.299 Y-24.166
X12.043 Y-24.858
X11.748 Y-25.534
X11.416 Y-26.193
X11.045 Y-26.831
X10.639 Y-27.447
X10.199 Y-28.039
X9.725 Y-28.604
X9.22 Y-29.143
X8.686 Y-29.652
X8.124 Y-30.13
X7.537 Y-30.577
X6.925 Y-30.989
X6.289 Y-31.363
X5.634 Y-31.701
X4.959 Y-32.001
X4.269 Y-32.262
X3.566 Y-32.486
X2.851 Y-32.668
X2.127 Y-32.81
X1.397 Y-32.913
X0.661 Y-32.972
X-0.077 Y-32.988
X-0.814 Y-32.962
X-1.548 Y-32.893
X-2.278 Y-32.783
X-3 Y-32.633
X-3.713 Y-32.442
X-4.414 Y-32.212
X-5.101 Y-31.943
X-5.771 Y-31.634
X-6.424 Y-31.29
X-7.054 Y-30.906
X-7.661 Y-30.487
X-8.244 Y-30.034
X-8.799 Y-29.549
X-9.327 Y-29.033
X-9.825 Y-28.489
X-10.292 Y-27.917
X-10.726 Y-27.321
X-11.126 Y-26.701
X-11.488 Y-26.058
X-11.812 Y-25.395
X-12.087 Y-24.71
X-12.309 Y-24.007
X-12.494 Y-23.292
X-12.643 Y-22.57
X-12.757 Y-21.841
X-12.836 Y-21.107
X-12.873 Y-20.371
X-12.869 Y-19.633
X-12.825 Y-18.896
X-12.738 Y-18.164
X-12.611 Y-17.437
X-12.443 Y-16.718
X-12.233 Y-16.011
X-11.986 Y-15.316
X-11.7 Y-14.636
X-11.373 Y-13.974
X-11.009 Y-13.333
X-10.608 Y-12.713
X-10.172 Y-12.118
X-9.703 Y-11.548
X-9.202 Y-11.007
X-8.672 Y-10.494
X-8.114 Y-10.011
X-7.529 Y-9.561
X-6.918 Y-9.147
X-6.285 Y-8.768
X-5.631 Y-8.427
X-4.958 Y-8.124
X-4.269 Y-7.86
X-3.566 Y-7.636
X-2.852 Y-7.451
X-2.128 Y-7.307
X-1.398 Y-7.206
X-0.662 Y-7.144
X0.075 Y-7.128
X0.813 Y-7.154
X1.547 Y-7.223
X2.277 Y-7.334
X2.999 Y-7.486
X3.711 Y-7.677
X4.411 Y-7.91
X5.098 Y-8.181
X5.767 Y-8.492
X6.412 Y-8.85
X7.002 Y-9.292
X7.513 Y-9.825
X7.961 Y-10.411
X8.164 Y-10.719
X8.311 Y-10.953
X8.36 Y-11.032
G3 X8.774 Y-11.135 I0.264 J0.177
G1 X8.814 Y-11.098 Z-0.995
X8.853 Y-11.063 Z-0.981
X8.889 Y-11.029 Z-0.958
X8.905 Y-10.983 Z-0.922
X8.919 Y-10.943 Z-0.878
X8.929 Y-10.913 Z-0.827
X8.937 Y-10.892 Z-0.771
X8.94 Y-10.881 Z-0.711
Y-10.88 Z-0.683
G0 Z5
X-20.317 Y-43.664
Z-9.855
G1 Z-10.172 F1000
X-20.315 Y-43.656 Z-10.243
X-20.309 Y-43.634 Z-10.31
X-20.3 Y-43.597 Z-10.37
X-20.287 Y-43.548 Z-10.421
X-20.272 Y-43.49 Z-10.459
X-20.256 Y-43.425 Z-10.482
X-20.238 Y-43.357 Z-10.49
G3 X-19.99 Y-41.628 I-7.852 J2.011
G1 Y-41.478
X-20.137 Y-40.755
X-20.217 Y-40.022
X-20.259 Y-39.285
X-20.282 Y-38.548
X-20.293 Y-37.81
X-20.3 Y-37.072
X-20.303 Y-36.334
X-20.305 Y-34.859
Y-28.956
X-20.299 Y-1.473
X-20.261 Y-1.292
X-20.106 Y-0.958
X-19.858 Y-0.684
X-19.265 Y-0.246
X-18.571 Y0.005
X-17.846 Y0.143
X-17.112 Y0.217
X-16.375 Y0.257
X-15.638 Y0.278
X-14.9 Y0.289
X-14.162 Y0.295
X-13.424 Y0.298
X-11.949 Y0.3
X-10.473 Y0.301
X18.486 Y0.299
X18.669 Y0.274
X19.011 Y0.135
X19.291 Y-0.105
X19.739 Y-0.691
X19.996 Y-1.383
X20.138 Y-2.107
X20.215 Y-2.84
X20.256 Y-3.577
X20.277 Y-4.315
X20.289 Y-5.052
X20.295 Y-5.79
X20.298 Y-6.528
X20.3 Y-8.004
X20.301 Y-13.906
X20.3 Y-20.546
X20.299 Y-38.623
X20.176 Y-38.971
X19.945 Y-39.258
X19.37 Y-39.72
X18.681 Y-39.986
X17.958 Y-40.132
X17.225 Y-40.212
X16.488 Y-40.254
X15.751 Y-40.276
X15.013 Y-40.288
X14.275 Y-40.294
X13.537 Y-40.298
X12.062 Y-40.3
X6.159 Y-40.301
X-11.548 Y-40.3
X-17.082 Y-40.299
X-17.266 Y-40.295
X-17.444 Y-40.244
X-17.77 Y-40.072
X-18.039 Y-39.82
X-18.473 Y-39.223
X-18.726 Y-38.53
X-18.867 Y-37.806
X-18.945 Y-37.072
X-18.987 Y-36.336
X-19.01 Y-35.598
X-19.022 Y-34.86
X-19.028 Y-34.123
X-19.032 Y-33.385
X-19.034 Y-31.909
Y-26.744
X-19.03 Y-3.134
X-18.972 Y-2.77
X-18.812 Y-2.437
X-18.581 Y-2.15
X-18.018 Y-1.673
X-17.342 Y-1.376
X-16.626 Y-1.2
X-15.895 Y-1.099
X-15.16 Y-1.041
X-14.422 Y-1.009
X-13.685 Y-0.991
X-12.947 Y-0.981
X-12.209 Y-0.976
X-11.472 Y-0.973
X-9.996 Y-0.97
X-4.831 Y-0.969
X16.934 Y-0.971
X17.295 Y-1.049
X17.62 Y-1.224
X17.897 Y-1.467
X18.359 Y-2.042
X18.644 Y-2.723
X18.812 Y-3.441
X18.908 Y-4.173
X18.963 Y-4.909
X18.993 Y-5.646
X19.01 Y-6.383
X19.02 Y-7.121
X19.025 Y-7.859
X19.028 Y-8.597
X19.03 Y-10.072
X19.031 Y-15.975
X19.03 Y-20.402
X19.029 Y-37.003
X18.934 Y-37.359
X18.745 Y-37.676
X18.239 Y-38.213
X17.585 Y-38.554
X16.876 Y-38.759
X16.148 Y-38.878
X15.413 Y-38.945
X14.676 Y-38.984
X13.939 Y-39.005
X13.201 Y-39.017
X12.463 Y-39.023
X11.726 Y-39.027
X10.25 Y-39.03
X5.823 Y-39.031
X-14.098 Y-39.029
X-15.574
X-15.938 Y-38.971
X-16.271 Y-38.813
X-16.56 Y-38.583
X-17.042 Y-38.024
X-17.344 Y-37.351
X-17.524 Y-36.636
X-17.629 Y-35.905
X-17.689 Y-35.17
X-17.723 Y-34.433
X-17.742 Y-33.695
X-17.752 Y-32.958
X-17.758 Y-32.22
X-17.761 Y-31.482
X-17.764 Y-30.006
Y-25.58
X-17.76 Y-4.552
X-17.703 Y-4.187
X-17.559 Y-3.848
X-17.342 Y-3.549
X-16.804 Y-3.044
X-16.142 Y-2.718
X-15.432 Y-2.519
X-14.704 Y-2.401
X-13.969 Y-2.332
X-13.232 Y-2.292
X-12.495 Y-2.269
X-11.757 Y-2.256
X-11.019 Y-2.249
X-10.282 Y-2.244
X-9.544 Y-2.242
X-7.33 Y-2.24
X-5.117 Y-2.239
X15.542 Y-2.241
X15.902 Y-2.321
X16.232 Y-2.486
X16.519 Y-2.718
X17.002 Y-3.275
X17.311 Y-3.945
X17.499 Y-4.659
X17.61 Y-5.388
X17.675 Y-6.123
X17.712 Y-6.86
X17.733 Y-7.598
X17.745 Y-8.335
X17.752 Y-9.073
X17.756 Y-9.811
X17.759 Y-11.286
X17.761 Y-14.976
X17.76 Y-31.207
X17.759 Y-35.634
X17.661 Y-35.99
X17.478 Y-36.31
X16.987 Y-36.861
X16.343 Y-37.222
X15.64 Y-37.445
X14.914 Y-37.578
X14.181 Y-37.656
X13.444 Y-37.701
X12.707 Y-37.727
X11.969 Y-37.742
X11.232 Y-37.75
X10.494 Y-37.755
X9.756 Y-37.757
X8.28 Y-37.76
X2.378
X-14.223 Y-37.759
X-14.585 Y-37.69
X-14.92 Y-37.534
X-15.213 Y-37.31
X-15.707 Y-36.763
X-16.026 Y-36.097
X-16.221 Y-35.385
X-16.336 Y-34.657
X-16.404 Y-33.922
X-16.443 Y-33.185
X-16.466 Y-32.448
X-16.479 Y-31.71
X-16.486 Y-30.972
X-16.49 Y-30.234
X-16.492 Y-29.497
X-16.494 Y-27.283
Y-25.808
Y-24.503
X-16.496 Y-24.442
X-16.504 Y-24.381
X-16.517 Y-24.321
X-16.636 Y-23.848
X-16.691 Y-23.513
X-16.991 Y-21.673
X-17.007 Y-21.506
X-17.033 Y-21.171
X-17.039 Y-21.004
Y-18.996
X-17.033 Y-18.829
X-17.007 Y-18.494
X-16.991 Y-18.327
X-16.73 Y-16.722
X-16.648 Y-15.988
X-16.573 Y-15.254
X-16.534 Y-14.518
X-16.514 Y-13.78
X-16.503 Y-13.042
X-16.498 Y-12.305
X-16.495 Y-11.567
X-16.492 Y-10.091
X-16.49 Y-5.664
X-16.379 Y-5.313
X-16.191 Y-4.995
X-15.7 Y-4.444
X-15.06 Y-4.077
X-14.359 Y-3.848
X-13.634 Y-3.708
X-12.901 Y-3.625
X-12.165 Y-3.577
X-11.428 Y-3.548
X-10.69 Y-3.532
X-9.952 Y-3.522
X-9.215 Y-3.517
X-8.477 Y-3.513
X-7.001 Y-3.511
X-4.417 Y-3.51
X-4.347 Y-3.506
X-4.278 Y-3.497
X-4.211 Y-3.48
X-3.681 Y-3.327
X-3.513 Y-3.28
X-3.471 Y-3.27
X-3.346 Y-3.245
X-3.179 Y-3.222
X-1.171 Y-2.978
X-1.004 Y-2.961
X-0.669 Y-2.935
X-0.502 Y-2.928
X1.673 Y-3.015
X1.84 Y-3.023
X2.008 Y-3.033
X2.175 Y-3.055
X3.011 Y-3.224
X3.741 Y-3.336
X4.474 Y-3.419
X5.21 Y-3.463
X5.948 Y-3.485
X6.686 Y-3.497
X7.423 Y-3.503
X8.161 Y-3.507
X9.637 Y-3.509
X14.064 Y-3.511
X14.429 Y-3.561
X14.775 Y-3.69
X15.082 Y-3.893
X15.611 Y-4.408
X15.959 Y-5.059
X16.175 Y-5.764
X16.306 Y-6.49
X16.383 Y-7.224
X16.429 Y-7.96
X16.455 Y-8.698
X16.47 Y-9.435
X16.479 Y-10.173
X16.484 Y-10.911
X16.487 Y-11.649
X16.49 Y-13.124
Y-15.616
X16.493 Y-15.676
X16.5 Y-15.735
X16.512 Y-15.793
X16.73 Y-16.676
X16.803 Y-16.989
X16.841 Y-17.156
X16.872 Y-17.323
X16.919 Y-17.825
X17.053 Y-19.498
X17.087 Y-20
X17.053 Y-20.502
X16.919 Y-22.175
X16.872 Y-22.677
X16.841 Y-22.844
X16.803 Y-23.011
X16.672 Y-23.738
X16.585 Y-24.47
X16.54 Y-25.207
X16.516 Y-25.944
X16.504 Y-26.682
X16.497 Y-27.42
X16.494 Y-28.157
X16.491 Y-29.633
X16.489 Y-34.06
X16.45 Y-34.427
X16.326 Y-34.774
X16.126 Y-35.084
X15.613 Y-35.615
X14.963 Y-35.963
X14.257 Y-36.179
X13.531 Y-36.309
X12.797 Y-36.385
X12.061 Y-36.43
X11.323 Y-36.456
X10.586 Y-36.471
X9.848 Y-36.479
X9.11 Y-36.484
X8.372 Y-36.487
X6.897 Y-36.49
X4.483
X4.433 Y-36.492
X4.384 Y-36.497
X4.335 Y-36.505
X2.342 Y-36.912
X2.175 Y-36.945
X2.008 Y-36.967
X1.84 Y-36.977
X1.673 Y-36.985
X-0.502 Y-37.072
X-0.68 Y-37.064
X-1.004 Y-37.039
X-1.171 Y-37.022
X-3.179 Y-36.778
X-3.346 Y-36.75
X-3.391 Y-36.739
X-3.787 Y-36.662
X-4.52 Y-36.579
X-5.257 Y-36.537
X-5.994 Y-36.514
X-6.732 Y-36.503
X-7.47 Y-36.497
X-8.207 Y-36.493
X-9.683 Y-36.491
X-12.634 Y-36.49
X-13.003 Y-36.471
X-13.359 Y-36.376
X-13.684 Y-36.202
X-14.253 Y-35.732
X-14.632 Y-35.099
X-14.871 Y-34.401
X-15.017 Y-33.678
X-15.103 Y-32.945
X-15.154 Y-32.209
X-15.184 Y-31.472
X-15.201 Y-30.734
X-15.211 Y-29.996
X-15.217 Y-29.259
X-15.22 Y-28.521
X-15.222 Y-27.842
X-15.232 Y-27.724
X-15.26 Y-27.609
X-15.307 Y-27.5
X-15.643 Y-26.859
X-15.726 Y-26.684
X-15.785 Y-26.525
X-16.455 Y-24.517
X-16.509 Y-24.35
X-16.517 Y-24.321
X-16.636 Y-23.848
X-16.664 Y-23.681
X-16.685 Y-23.555
X-16.991 Y-21.673
X-17.007 Y-21.506
X-17.033 Y-21.171
X-17.039 Y-21.004
Y-18.996
X-17.033 Y-18.829
X-17.007 Y-18.494
X-16.991 Y-18.327
X-16.856 Y-17.497
X-16.73 Y-16.722
X-16.664 Y-16.319
X-16.636 Y-16.152
X-16.509 Y-15.65
X-16.455 Y-15.483
X-15.785 Y-13.475
X-15.726 Y-13.338
X-15.668 Y-13.2
X-15.552 Y-12.823
X-15.432 Y-12.281
X-15.332 Y-11.55
X-15.279 Y-10.814
X-15.252 Y-10.077
X-15.237 Y-9.339
X-15.229 Y-8.601
X-15.225 Y-7.863
X-15.223 Y-7.125
X-15.154 Y-6.763
X-15.003 Y-6.427
X-14.784 Y-6.129
X-14.25 Y-5.621
X-13.591 Y-5.289
X-12.883 Y-5.083
X-12.155 Y-4.958
X-11.421 Y-4.884
X-10.685 Y-4.84
X-9.947 Y-4.815
X-9.21 Y-4.8
X-8.472 Y-4.791
X-7.847 Y-4.787
X-7.74 Y-4.778
X-7.635 Y-4.754
X-7.534 Y-4.715
X-6.357 Y-4.157
X-6.25 Y-4.107
X-6.023 Y-4.01
X-5.521 Y-3.86
X-4.211 Y-3.48
X-3.681 Y-3.327
X-3.513 Y-3.28
X-3.471 Y-3.27
X-3.455 Y-3.267
X-3.346 Y-3.245
X-3.179 Y-3.222
X-1.171 Y-2.978
X-1.004 Y-2.961
X-0.669 Y-2.935
X-0.502 Y-2.928
X1.673 Y-3.015
X1.84 Y-3.023
X2.008 Y-3.033
X2.175 Y-3.055
X2.242 Y-3.068
X2.342 Y-3.088
X3.011 Y-3.224
X4.35 Y-3.498
X4.684 Y-3.57
X4.803 Y-3.605
X4.852 Y-3.62
X5.019 Y-3.68
X6.525 Y-4.251
X7.072 Y-4.428
X7.575 Y-4.547
X8.304 Y-4.659
X9.04 Y-4.716
X9.777 Y-4.747
X10.514 Y-4.763
X11.252 Y-4.771
X11.99 Y-4.775
X12.728 Y-4.778
X13.094 Y-4.823
X13.443 Y-4.942
X13.756 Y-5.137
X14.298 Y-5.638
X14.657 Y-6.282
X14.884 Y-6.985
X15.021 Y-7.71
X15.104 Y-8.443
X15.152 Y-9.179
X15.181 Y-9.916
X15.198 Y-10.654
X15.207 Y-11.392
X15.213 Y-12.093
X15.22 Y-12.193
X15.241 Y-12.292
X15.276 Y-12.386
X15.313 Y-12.472
X15.955 Y-13.977
X16.166 Y-14.479
X16.218 Y-14.647
X16.31 Y-14.981
X16.353 Y-15.148
X16.512 Y-15.793
G3 X16.667 Y-15.995 I0.308 J0.076
G2 X16.83 Y-16.249 I-0.153 J-0.278
G1 X16.846 Y-16.458
X17.276 Y-22.083
G2 X17.188 Y-22.327 I-0.317 J-0.024
G3 X16.803 Y-23.011 I1.143 J-1.095
G1 X16.73 Y-23.324
X16.353 Y-24.852
X16.31 Y-25.019
X16.218 Y-25.353
X16.166 Y-25.521
X15.955 Y-26.023
X15.741 Y-26.525
X15.63 Y-26.826
X15.513 Y-27.244
X15.393 Y-27.865
X15.31 Y-28.598
X15.267 Y-29.335
X15.245 Y-30.072
X15.233 Y-30.81
X15.227 Y-31.548
X15.223 Y-32.286
X15.221 Y-33.023
X15.116 Y-33.377
X14.935 Y-33.698
X14.453 Y-34.257
X13.817 Y-34.632
X13.118 Y-34.868
X12.395 Y-35.012
X11.662 Y-35.098
X10.926 Y-35.149
X10.189 Y-35.179
X9.451 Y-35.197
X8.713 Y-35.207
X7.923 Y-35.213
X7.796 Y-35.225
X7.672 Y-35.258
X7.556 Y-35.312
X7.528 Y-35.328
X7.194 Y-35.488
X7.026 Y-35.559
X5.019 Y-36.32
X4.852 Y-36.38
X4.803 Y-36.395
X4.684 Y-36.43
X4.335 Y-36.505
X3.565 Y-36.662
X2.342 Y-36.912
X2.175 Y-36.945
X2.008 Y-36.967
X1.84 Y-36.977
X1.673 Y-36.985
X-0.502 Y-37.072
X-0.669 Y-37.065
X-1.004 Y-37.039
X-1.171 Y-37.022
X-2.613 Y-36.846
X-3.179 Y-36.778
X-3.346 Y-36.75
X-3.391 Y-36.739
X-3.681 Y-36.667
X-3.848 Y-36.625
X-5.521 Y-36.14
X-6.023 Y-35.99
X-6.25 Y-35.893
X-6.357 Y-35.843
X-6.734 Y-35.687
X-7.089 Y-35.572
X-7.591 Y-35.453
X-8.321 Y-35.342
X-9.056 Y-35.284
X-9.794 Y-35.253
X-10.531 Y-35.237
X-11.269 Y-35.229
X-11.638 Y-35.217
X-11.998 Y-35.14
X-12.332 Y-34.982
X-12.918 Y-34.534
X-13.317 Y-33.913
X-13.571 Y-33.221
X-13.727 Y-32.499
X-13.82 Y-31.768
X-13.876 Y-31.032
X-13.909 Y-30.295
X-13.915 Y-30.074
X-13.934 Y-29.923
X-13.984 Y-29.779
X-14.063 Y-29.649
X-14.273 Y-29.369
X-14.387 Y-29.194
X-14.582 Y-28.867
X-14.677 Y-28.699
X-15.307 Y-27.5
G3 X-15.897 Y-27.61 I-0.276 J-0.157
G1 X-15.907 Y-27.68 Z-10.482
X-15.917 Y-27.746 Z-10.459
X-15.926 Y-27.805 Z-10.421
X-15.934 Y-27.855 Z-10.37
X-15.939 Y-27.893 Z-10.31
X-15.943 Y-27.916 Z-10.243
X-15.944 Y-27.924 Z-10.172
G0 Z5
X-5.594 Y-36.63
Z-9.855
G1 Z-10.172 F1000
X-5.599 Y-36.623 Z-10.243
X-5.612 Y-36.604 Z-10.31
X-5.633 Y-36.572 Z-10.37
X-5.661 Y-36.531 Z-10.421
X-5.695 Y-36.481 Z-10.459
X-5.732 Y-36.425 Z-10.482
X-5.771 Y-36.366 Z-10.49
G3 X-6.357 Y-35.843 I-1.314 J-0.882
G1 X-8.367 Y-34.889
X-8.532 Y-34.805
X-8.665 Y-34.722
X-8.793 Y-34.644
X-9.011 Y-34.534
X-9.292 Y-34.42
X-9.668 Y-34.301
X-10.387 Y-34.136
X-10.74 Y-34.026
X-11.064 Y-33.851
X-11.638 Y-33.387
X-12.033 Y-32.764
X-12.288 Y-32.072
X-12.309 Y-31.976
X-12.354 Y-31.838
X-12.425 Y-31.711
X-12.519 Y-31.601
G0 Z5
X-8.035 Y-35.618
Z-9.855
G1 Z-10.172 F1000
X-8.038 Y-35.611 Z-10.243
X-8.048 Y-35.59 Z-10.31
X-8.064 Y-35.555 Z-10.37
X-8.085 Y-35.51 Z-10.421
X-8.11 Y-35.455 Z-10.459
X-8.139 Y-35.394 Z-10.482
X-8.168 Y-35.33 Z-10.49
G3 X-8.665 Y-34.722 I-1.436 J-0.666
G1 X-10.605 Y-33.384
X-10.707 Y-33.311
X-10.83 Y-33.216
X-10.874 Y-33.179
X-11.042 Y-33.02
X-12.579 Y-31.543
X-12.715 Y-31.403
X-12.882 Y-31.22
X-14.063 Y-29.649
G3 X-14.627 Y-29.852 I-0.247 J-0.199
G1 Y-29.922 Z-10.482
X-14.626 Y-29.99 Z-10.459
X-14.625 Y-30.05 Z-10.421
Y-30.1 Z-10.37
X-14.624 Y-30.138 Z-10.31
Y-30.161 Z-10.243
Y-30.169 Z-10.172
G0 Z5
X-16.515 Y-14.099
Z-9.855
G1 Z-10.172 F1000
X-16.508 Y-14.095 Z-10.243
X-16.488 Y-14.082 Z-10.31
X-16.457 Y-14.061 Z-10.37
X-16.415 Y-14.033 Z-10.421
X-16.365 Y-13.999 Z-10.459
X-16.309 Y-13.962 Z-10.482
X-16.251 Y-13.923 Z-10.49
G3 X-15.726 Y-13.338 I-0.878 J1.316
G1 X-15.551 Y-12.974
X-15.467 Y-12.806
X-14.677 Y-11.301
X-14.625 Y-11.209
X-14.535 Y-11.03
X-14.419 Y-10.744
X-14.301 Y-10.368
X-14.178 Y-9.829
X-14.072 Y-9.099
X-14.016 Y-8.364
X-13.925 Y-8.006
X-13.761 Y-7.676
X-13.309 Y-7.093
X-12.687 Y-6.695
X-11.995 Y-6.44
X-11.274 Y-6.283
X-10.542 Y-6.188
X-10.113 Y-6.155
X-9.985 Y-6.133
X-9.862 Y-6.09
X-9.749 Y-6.026
G3 X-9.93 Y-5.454 I-0.189 J0.255
G1 X-10 Y-5.452 Z-10.482
X-10.067 Y-5.45 Z-10.459
X-10.128 Y-5.448 Z-10.421
X-10.178 Y-5.446 Z-10.37
X-10.216 Y-5.445 Z-10.31
X-10.239 Z-10.243
X-10.247 Y-5.444 Z-10.172
G0 Z5
X-15.465 Y-11.912
Z-9.855
G1 Z-10.172 F1000
X-15.458 Y-11.909 Z-10.243
X-15.438 Y-11.897 Z-10.31
X-15.405 Y-11.878 Z-10.37
X-15.361 Y-11.853 Z-10.421
X-15.309 Y-11.823 Z-10.459
X-15.251 Y-11.79 Z-10.482
X-15.189 Y-11.755 Z-10.49
G3 X-14.625 Y-11.209 I-0.785 J1.374
G1 X-14.582 Y-11.133
X-14.383 Y-10.799
X-14.273 Y-10.631
X-12.882 Y-8.78
X-12.715 Y-8.597
X-12.579 Y-8.457
X-11.011 Y-6.951
X-10.874 Y-6.828
X-10.54 Y-6.579
X-10.363 Y-6.449
X-8.867 Y-5.416
X-8.699 Y-5.303
X-8.662 Y-5.278
X-8.532 Y-5.199
X-8.198 Y-5.03
X-7.534 Y-4.715
G3 X-7.621 Y-4.122 I-0.146 J0.282
G1 X-7.69 Y-4.108 Z-10.482
X-7.756 Y-4.096 Z-10.459
X-7.815 Y-4.084 Z-10.421
X-7.864 Y-4.075 Z-10.37
X-7.901 Y-4.068 Z-10.31
X-7.925 Y-4.063 Z-10.243
X-7.932 Y-4.062 Z-10.172
G0 Z5
X5.701 Y-3.529
Z-9.855
G1 Z-10.172 F1000
X5.706 Y-3.535 Z-10.243
X5.72 Y-3.553 Z-10.31
X5.744 Y-3.583 Z-10.37
X5.775 Y-3.622 Z-10.421
X5.813 Y-3.669 Z-10.459
X5.854 Y-3.722 Z-10.482
X5.898 Y-3.777 Z-10.49
G3 X6.525 Y-4.251 I1.239 J0.985
G1 X7.026 Y-4.442
X7.194 Y-4.512
X7.528 Y-4.672
X8.699 Y-5.348
X8.908 Y-5.455
X9.186 Y-5.57
X9.551 Y-5.688
X10.069 Y-5.811
X10.798 Y-5.923
X11.533 Y-5.982
X11.895 Y-6.054
X12.235 Y-6.197
X12.538 Y-6.408
X13.058 Y-6.931
X13.404 Y-7.582
X13.622 Y-8.287
X13.755 Y-9.013
X13.835 Y-9.746
X13.841 Y-9.839
X13.86 Y-9.961
X13.898 Y-10.078
X13.955 Y-10.187
G3 X14.534 Y-10.03 I0.262 J0.179
G1 X14.538 Y-9.96 Z-10.482
X14.543 Y-9.893 Z-10.459
X14.547 Y-9.833 Z-10.421
X14.551 Y-9.783 Z-10.37
X14.553 Y-9.745 Z-10.31
X14.555 Y-9.721 Z-10.243
Y-9.713 Z-10.172
G0 Z5
X8.002 Y-4.502
Z-9.855
G1 Z-10.172 F1000
X8.006 Y-4.509 Z-10.243
X8.018 Y-4.53 Z-10.31
X8.036 Y-4.563 Z-10.37
X8.061 Y-4.607 Z-10.421
X8.09 Y-4.659 Z-10.459
X8.123 Y-4.718 Z-10.482
X8.157 Y-4.779 Z-10.49
G3 X8.699 Y-5.348 I1.381 J0.774
G1 X9.369 Y-5.734
X9.446 Y-5.78
X9.703 Y-5.949
X9.87 Y-6.062
X10.205 Y-6.335
X10.799 Y-6.773
X11.378 Y-7.231
X11.455 Y-7.332
X11.49 Y-7.374
X11.528 Y-7.413
X11.569 Y-7.45
G3 X11.964 Y-6.953 I0.194 J0.251
G1 X10.615 Y-5.851
G3 X10.205 Y-6.335 I-0.201 J-0.246
G1 X11.573 Y-7.453
X11.774 Y-7.62
X11.878 Y-7.726
X12.045 Y-7.901
X13.551 Y-9.601
X13.573 Y-9.628
X13.702 Y-9.795
X13.918 Y-10.13
X14.889 Y-11.665
X14.975 Y-11.802
X15.24 Y-12.304
X15.276 Y-12.386
G3 X15.872 Y-12.317 I0.286 J0.138
G1 X15.887 Y-12.248 Z-10.482
X15.901 Y-12.182 Z-10.459
X15.914 Y-12.123 Z-10.421
X15.925 Y-12.074 Z-10.37
X15.933 Y-12.037 Z-10.31
X15.938 Y-12.014 Z-10.243
X15.94 Y-12.007 Z-10.172
G0 Z5
X16.496 Y-25.731
Z-9.855
G1 Z-10.172 F1000
X16.49 Y-25.735 Z-10.243
X16.471 Y-25.749 Z-10.31
X16.44 Y-25.771 Z-10.37
X16.4 Y-25.801 Z-10.421
X16.351 Y-25.837 Z-10.459
X16.297 Y-25.876 Z-10.482
X16.24 Y-25.918 Z-10.49
G3 X15.741 Y-26.525 I0.934 J-1.277
G1 X15.313 Y-27.528
X15.24 Y-27.696
X14.975 Y-28.198
X14.764 Y-28.532
X14.598 Y-28.827
X14.487 Y-29.066
X14.37 Y-29.383
X14.251 Y-29.812
X14.127 Y-30.447
X14.044 Y-31.18
X14.022 Y-31.548
X13.955 Y-31.911
X13.809 Y-32.25
X13.597 Y-32.552
X13.072 Y-33.07
X12.419 Y-33.414
X11.714 Y-33.629
X10.988 Y-33.76
X10.254 Y-33.838
X10.195 Y-33.842
X10.065 Y-33.862
X9.941 Y-33.904
X9.826 Y-33.968
G3 X10.001 Y-34.542 I0.187 J-0.257
G1 X10.072 Y-34.544 Z-10.482
X10.139 Y-34.547 Z-10.459
X10.199 Y-34.549 Z-10.421
X10.249 Y-34.551 Z-10.37
X10.287 Y-34.553 Z-10.31
X10.31 Y-34.554 Z-10.243
X10.318 Z-10.172
G0 Z5
X15.637 Y-27.87
Z-9.855
G1 Z-10.172 F1000
X15.63 Y-27.873 Z-10.243
X15.609 Y-27.884 Z-10.31
X15.575 Y-27.901 Z-10.37
X15.531 Y-27.924 Z-10.421
X15.477 Y-27.951 Z-10.459
X15.417 Y-27.981 Z-10.482
X15.354 Y-28.013 Z-10.49
G3 X14.764 Y-28.532 I0.717 J-1.411
G1 X13.918 Y-29.87
X13.702 Y-30.205
X13.573 Y-30.372
X13.133 Y-30.965
X12.642 Y-31.515
X12.527 Y-31.592
X12.475 Y-31.63
X12.427 Y-31.671
X12.383 Y-31.717
G3 X12.866 Y-32.13 I0.245 J-0.202
G1 X14.049 Y-30.793
G3 X14.021 Y-30.345 I-0.238 J0.21
X13.573 Y-30.372 I-0.21 J-0.238
G1 X13.551 Y-30.399
X12.045 Y-32.099
X11.878 Y-32.274
X11.774 Y-32.38
X11.543 Y-32.572
X9.87 Y-33.938
X9.7 Y-34.053
X9.446 Y-34.22
X9.369 Y-34.266
X7.556 Y-35.312
G3 X7.69 Y-35.897 I0.168 J-0.269
G1 X7.76 Y-35.905 Z-10.482
X7.827 Y-35.912 Z-10.459
X7.887 Y-35.919 Z-10.421
X7.937 Y-35.924 Z-10.37
X7.974 Y-35.928 Z-10.31
X7.998 Y-35.931 Z-10.243
X8.005 Y-35.932 Z-10.172
G0 Z15
G28 G91 Z0
G90
G28 G91 X0 Y0
G90
M30
%
