%
(cnc_bed)
(T1  D=3.175 CR=0 - ZMIN=-42.49 - flat end mill)
G90 G94
G17
G21
G28 G91 Z0
G90

(Adaptive1)
M9
T1 M6
S5000 M3
G54
M8
G0 X-208.615 Y-108.542
Z15
Z5
Z-9.365
G1 Z-9.682 F1000
X-208.608 Y-108.537 Z-9.753
X-208.589 Y-108.524 Z-9.82
X-208.558 Y-108.502 Z-9.88
X-208.517 Y-108.473 Z-9.931
X-208.468 Y-108.438 Z-9.969
X-208.413 Y-108.399 Z-9.992
X-208.356 Y-108.358 Z-10
G3 X-207.048 Y-107.201 I-4.686 J6.614
G1 X-206.988 Y-107.13
X-206.885 Y-106.933
X-206.777 Y-106.676
X-206.765 Y-106.639
X-206.726 Y-106.426
X-206.747 Y-106.212
X-206.825 Y-106.011
X-206.834 Y-105.995
X-206.916 Y-105.828
X-206.98 Y-105.66
X-206.993 Y-105.615
X-207.026 Y-105.493
X-207.059 Y-105.325
X-207.077 Y-105.158
X-207.087 Y-104.99
Y104.99
X-207.077 Y105.158
X-207.059 Y105.325
X-207.026 Y105.493
X-206.993 Y105.615
X-206.98 Y105.66
X-206.916 Y105.828
X-206.834 Y105.995
X-206.825 Y106.011
X-206.728 Y106.163
X-206.658 Y106.263
X-206.49 Y106.461
X-206.451 Y106.498
X-206.254 Y106.666
X-206.155 Y106.733
X-205.996 Y106.833
X-205.819 Y106.919
X-205.652 Y106.982
X-205.589 Y107.001
X-205.484 Y107.028
X-205.316 Y107.061
X-205.149 Y107.078
X-204.981 Y107.087
X204.981
X205.149 Y107.078
X205.316 Y107.061
X205.484 Y107.028
X205.589 Y107.001
X205.652 Y106.982
X205.819 Y106.919
X205.996 Y106.833
X206.155 Y106.733
X206.254 Y106.666
X206.451 Y106.498
X206.49 Y106.461
X206.658 Y106.263
X206.728 Y106.163
X206.825 Y106.011
X206.834 Y105.995
X206.916 Y105.828
X206.98 Y105.66
X206.993 Y105.615
X207.026 Y105.493
X207.059 Y105.325
X207.077 Y105.158
X207.087 Y104.99
Y-104.99
X207.077 Y-105.158
X207.059 Y-105.325
X207.026 Y-105.493
X206.993 Y-105.615
X206.98 Y-105.66
X206.916 Y-105.828
X206.834 Y-105.995
X206.825 Y-106.011
X206.728 Y-106.163
X206.658 Y-106.263
X206.49 Y-106.461
X206.451 Y-106.498
X206.254 Y-106.666
X206.155 Y-106.733
X205.996 Y-106.833
X205.819 Y-106.919
X205.652 Y-106.982
X205.589 Y-107.001
X205.484 Y-107.028
X205.316 Y-107.061
X205.149 Y-107.078
X204.981 Y-107.087
X-204.981
X-205.149 Y-107.078
X-205.316 Y-107.061
X-205.484 Y-107.028
X-205.589 Y-107.001
X-205.652 Y-106.982
X-205.819 Y-106.919
X-205.996 Y-106.833
X-206.155 Y-106.733
X-206.254 Y-106.666
X-206.451 Y-106.498
X-206.49 Y-106.461
X-206.658 Y-106.263
X-206.728 Y-106.163
X-206.825 Y-106.011
G3 X-207.241 Y-105.913 I-0.262 J-0.18
G1 X-207.28 Y-105.95 Z-9.995
X-207.319 Y-105.986 Z-9.981
X-207.355 Y-106.02 Z-9.958
X-207.37 Y-106.067 Z-9.922
X-207.383 Y-106.106 Z-9.878
X-207.393 Y-106.137 Z-9.827
X-207.4 Y-106.158 Z-9.771
X-207.404 Y-106.168 Z-9.711
Y-106.17 Z-9.682
G0 Z5
X-187.26 Y-66.011
Z2.5
G3 X-187.739 Y-68.989 Z2.335 I-0.24 J-1.489 F333.3
X-187.26 Y-66.011 Z2.169 I0.24 J1.489
X-187.739 Y-68.989 Z2.004 I-0.24 J-1.489
X-187.26 Y-66.011 Z1.838 I0.24 J1.489
X-187.739 Y-68.989 Z1.673 I-0.24 J-1.489
X-187.26 Y-66.011 Z1.507 I0.24 J1.489
X-187.739 Y-68.989 Z1.342 I-0.24 J-1.489
X-187.26 Y-66.011 Z1.176 I0.24 J1.489
X-187.739 Y-68.989 Z1.011 I-0.24 J-1.489
X-187.26 Y-66.011 Z0.845 I0.24 J1.489
X-187.739 Y-68.989 Z0.68 I-0.24 J-1.489
X-187.26 Y-66.011 Z0.515 I0.24 J1.489
X-187.739 Y-68.989 Z0.349 I-0.24 J-1.489
X-187.26 Y-66.011 Z0.184 I0.24 J1.489
X-187.739 Y-68.989 Z0.018 I-0.24 J-1.489
X-187.26 Y-66.011 Z-0.147 I0.24 J1.489
X-187.739 Y-68.989 Z-0.313 I-0.24 J-1.489
X-187.26 Y-66.011 Z-0.478 I0.24 J1.489
X-187.739 Y-68.989 Z-0.644 I-0.24 J-1.489
X-187.26 Y-66.011 Z-0.809 I0.24 J1.489
X-187.739 Y-68.989 Z-0.974 I-0.24 J-1.489
X-187.26 Y-66.011 Z-1.14 I0.24 J1.489
X-187.739 Y-68.989 Z-1.305 I-0.24 J-1.489
X-187.26 Y-66.011 Z-1.471 I0.24 J1.489
X-187.739 Y-68.989 Z-1.636 I-0.24 J-1.489
X-187.26 Y-66.011 Z-1.802 I0.24 J1.489
X-187.739 Y-68.989 Z-1.967 I-0.24 J-1.489
X-187.26 Y-66.011 Z-2.133 I0.24 J1.489
X-187.739 Y-68.989 Z-2.298 I-0.24 J-1.489
X-187.26 Y-66.011 Z-2.464 I0.24 J1.489
X-187.739 Y-68.989 Z-2.629 I-0.24 J-1.489
X-187.26 Y-66.011 Z-2.794 I0.24 J1.489
X-187.739 Y-68.989 Z-2.96 I-0.24 J-1.489
X-187.26 Y-66.011 Z-3.125 I0.24 J1.489
X-187.739 Y-68.989 Z-3.291 I-0.24 J-1.489
X-187.26 Y-66.011 Z-3.456 I0.24 J1.489
X-187.739 Y-68.989 Z-3.622 I-0.24 J-1.489
X-187.26 Y-66.011 Z-3.787 I0.24 J1.489
X-187.739 Y-68.989 Z-3.953 I-0.24 J-1.489
X-187.26 Y-66.011 Z-4.118 I0.24 J1.489
X-187.739 Y-68.989 Z-4.284 I-0.24 J-1.489
X-187.26 Y-66.011 Z-4.449 I0.24 J1.489
X-187.739 Y-68.989 Z-4.614 I-0.24 J-1.489
X-187.26 Y-66.011 Z-4.78 I0.24 J1.489
X-187.739 Y-68.989 Z-4.945 I-0.24 J-1.489
X-187.26 Y-66.011 Z-5.111 I0.24 J1.489
X-187.739 Y-68.989 Z-5.276 I-0.24 J-1.489
X-187.26 Y-66.011 Z-5.442 I0.24 J1.489
X-187.739 Y-68.989 Z-5.607 I-0.24 J-1.489
X-187.26 Y-66.011 Z-5.773 I0.24 J1.489
X-187.739 Y-68.989 Z-5.938 I-0.24 J-1.489
X-187.26 Y-66.011 Z-6.103 I0.24 J1.489
X-187.739 Y-68.989 Z-6.269 I-0.24 J-1.489
X-187.26 Y-66.011 Z-6.434 I0.24 J1.489
X-187.739 Y-68.989 Z-6.6 I-0.24 J-1.489
X-187.26 Y-66.011 Z-6.765 I0.24 J1.489
X-187.739 Y-68.989 Z-6.931 I-0.24 J-1.489
X-187.26 Y-66.011 Z-7.096 I0.24 J1.489
X-187.739 Y-68.989 Z-7.262 I-0.24 J-1.489
X-187.26 Y-66.011 Z-7.427 I0.24 J1.489
X-187.739 Y-68.989 Z-7.593 I-0.24 J-1.489
X-187.26 Y-66.011 Z-7.758 I0.24 J1.489
X-187.739 Y-68.989 Z-7.923 I-0.24 J-1.489
X-187.26 Y-66.011 Z-8.089 I0.24 J1.489
X-187.739 Y-68.989 Z-8.254 I-0.24 J-1.489
X-187.26 Y-66.011 Z-8.42 I0.24 J1.489
X-187.739 Y-68.989 Z-8.585 I-0.24 J-1.489
X-187.26 Y-66.011 Z-8.751 I0.24 J1.489
X-187.739 Y-68.989 Z-8.916 I-0.24 J-1.489
X-187.26 Y-66.011 Z-9.082 I0.24 J1.489
X-187.739 Y-68.989 Z-9.247 I-0.24 J-1.489
X-187.26 Y-66.011 Z-9.413 I0.24 J1.489
X-187.739 Y-68.989 Z-9.578 I-0.24 J-1.489
X-187.26 Y-66.011 Z-9.743 I0.24 J1.489
X-187.739 Y-68.989 Z-9.909 I-0.24 J-1.489
X-185.992 Y-67.5 Z-10 I0.24 J1.489
X-189.008 I-1.508
X-185.992 I1.508
G1 X-185.972 Y-66.762 F1000
X-185.95 Y-66.673
X-185.935 Y-66.523
X-185.948 Y-66.374
X-185.983 Y-66.228
X-186.038 Y-66.089
X-186.11 Y-65.957
X-186.195 Y-65.834
X-186.293 Y-65.72
X-186.402 Y-65.617
X-186.52 Y-65.524
X-186.646 Y-65.442
X-186.778 Y-65.371
X-186.916 Y-65.311
X-187.063 Y-65.26
X-187.217 Y-65.221
X-187.377 Y-65.193
X-187.542 Y-65.179
X-187.711 Y-65.177
X-187.881 Y-65.189
X-188.053 Y-65.215
X-188.225 Y-65.256
X-188.394 Y-65.31
X-188.561 Y-65.379
X-188.722 Y-65.462
X-188.878 Y-65.558
X-189.027 Y-65.667
X-189.167 Y-65.789
X-189.298 Y-65.922
X-189.418 Y-66.065
X-189.526 Y-66.219
X-189.623 Y-66.382
X-189.706 Y-66.552
X-189.776 Y-66.729
X-189.831 Y-66.911
X-189.872 Y-67.098
X-189.898 Y-67.287
X-189.908 Y-67.479
X-189.903 Y-67.671
X-189.882 Y-67.862
X-189.846 Y-68.051
X-189.795 Y-68.237
X-189.73 Y-68.418
X-189.649 Y-68.594
X-189.555 Y-68.762
X-189.448 Y-68.923
X-189.328 Y-69.074
X-189.196 Y-69.216
X-189.053 Y-69.347
X-188.901 Y-69.465
X-188.739 Y-69.571
X-188.569 Y-69.664
X-188.392 Y-69.743
X-188.209 Y-69.807
X-188.022 Y-69.857
X-187.831 Y-69.891
X-187.638 Y-69.91
X-187.444 Y-69.914
X-187.251 Y-69.902
X-187.059 Y-69.874
X-186.87 Y-69.831
X-186.685 Y-69.773
X-186.505 Y-69.7
X-186.332 Y-69.613
X-186.166 Y-69.513
X-186.009 Y-69.399
X-185.861 Y-69.274
X-185.724 Y-69.137
X-185.598 Y-68.989
X-185.485 Y-68.831
X-185.381 Y-68.659
X-185.269 Y-68.436
X-185.122 Y-68.072
X-185.015 Y-67.729
X-184.951 Y-67.446
X-184.915 Y-67.191
X-184.91 Y-67.11
Y-67.02
X-184.92 Y-66.93
X-184.942 Y-66.843
X-184.961 Y-66.781
X-185.071 Y-66.446
X-185.161 Y-66.279
X-185.258 Y-66.111
X-185.357 Y-65.943
X-185.363 Y-65.935
X-185.531 Y-65.747
X-185.699 Y-65.561
X-185.736 Y-65.525
X-185.774 Y-65.495
X-186.08 Y-65.273
X-186.202 Y-65.193
X-186.663 Y-64.987
X-186.705 Y-64.974
X-187.04 Y-64.902
X-187.208 Y-64.868
X-187.375 Y-64.864
X-187.711
X-187.795 Y-64.868
X-187.878 Y-64.885
X-188.298 Y-64.975
X-188.381 Y-65.006
X-188.801 Y-65.193
X-188.884 Y-65.247
X-189.22 Y-65.491
X-189.282 Y-65.54
X-189.387 Y-65.656
X-189.555 Y-65.842
X-189.643 Y-65.943
X-189.723 Y-66.077
X-189.89 Y-66.367
X-189.929 Y-66.446
X-190.058 Y-66.841
X-190.091 Y-66.949
X-190.111 Y-67.116
X-190.146 Y-67.452
X-190.149 Y-67.494
X-190.147 Y-67.535
X-190.103 Y-67.954
X-190.093 Y-68.038
X-190.07 Y-68.122
X-189.934 Y-68.541
X-189.917 Y-68.583
X-189.89 Y-68.633
X-189.701 Y-68.96
X-189.652 Y-69.044
X-189.582 Y-69.127
X-189.387 Y-69.344
X-189.279 Y-69.463
X-189.22 Y-69.509
X-188.884 Y-69.753
X-188.818 Y-69.798
X-188.717 Y-69.844
X-188.381 Y-69.994
X-188.298 Y-70.025
X-187.878 Y-70.115
X-187.788 Y-70.133
X-187.711 Y-70.136
X-187.375
X-187.208 Y-70.132
X-186.872 Y-70.062
X-186.705 Y-70.026
X-186.667 Y-70.014
X-186.537 Y-69.957
X-186.202 Y-69.808
X-186.184 Y-69.798
X-186.034 Y-69.694
X-185.866 Y-69.572
X-185.722 Y-69.463
X-185.699 Y-69.439
X-185.418 Y-69.127
X-185.363 Y-69.064
X-185.299 Y-68.96
X-185.105 Y-68.625
X-185.083 Y-68.583
X-185.066 Y-68.541
X-184.93 Y-68.122
X-184.907 Y-68.038
X-184.897 Y-67.954
X-184.852 Y-67.529
X-184.851 Y-67.49
X-184.854 Y-67.452
X-184.889 Y-67.116
X-184.909 Y-66.949
X-184.942 Y-66.843
G3 X-185.317 Y-66.64 I-0.3 J-0.105
G1 X-185.365 Y-66.665 Z-9.995
X-185.412 Y-66.69 Z-9.981
X-185.455 Y-66.714 Z-9.958
X-185.483 Y-66.755 Z-9.922
X-185.505 Y-66.789 Z-9.878
X-185.523 Y-66.816 Z-9.827
X-185.536 Y-66.835 Z-9.771
X-185.542 Y-66.844 Z-9.711
Y-66.845 Z-9.682
G0 Z5
X-187.26 Y-16.011
Z2.5
G3 X-187.739 Y-18.989 Z2.335 I-0.24 J-1.489 F333.3
X-187.26 Y-16.011 Z2.169 I0.24 J1.489
X-187.739 Y-18.989 Z2.004 I-0.24 J-1.489
X-187.26 Y-16.011 Z1.838 I0.24 J1.489
X-187.739 Y-18.989 Z1.673 I-0.24 J-1.489
X-187.26 Y-16.011 Z1.507 I0.24 J1.489
X-187.739 Y-18.989 Z1.342 I-0.24 J-1.489
X-187.26 Y-16.011 Z1.176 I0.24 J1.489
X-187.739 Y-18.989 Z1.011 I-0.24 J-1.489
X-187.26 Y-16.011 Z0.845 I0.24 J1.489
X-187.739 Y-18.989 Z0.68 I-0.24 J-1.489
X-187.26 Y-16.011 Z0.515 I0.24 J1.489
X-187.739 Y-18.989 Z0.349 I-0.24 J-1.489
X-187.26 Y-16.011 Z0.184 I0.24 J1.489
X-187.739 Y-18.989 Z0.018 I-0.24 J-1.489
X-187.26 Y-16.011 Z-0.147 I0.24 J1.489
X-187.739 Y-18.989 Z-0.313 I-0.24 J-1.489
X-187.26 Y-16.011 Z-0.478 I0.24 J1.489
X-187.739 Y-18.989 Z-0.644 I-0.24 J-1.489
X-187.26 Y-16.011 Z-0.809 I0.24 J1.489
X-187.739 Y-18.989 Z-0.974 I-0.24 J-1.489
X-187.26 Y-16.011 Z-1.14 I0.24 J1.489
X-187.739 Y-18.989 Z-1.305 I-0.24 J-1.489
X-187.26 Y-16.011 Z-1.471 I0.24 J1.489
X-187.739 Y-18.989 Z-1.636 I-0.24 J-1.489
X-187.26 Y-16.011 Z-1.802 I0.24 J1.489
X-187.739 Y-18.989 Z-1.967 I-0.24 J-1.489
X-187.26 Y-16.011 Z-2.133 I0.24 J1.489
X-187.739 Y-18.989 Z-2.298 I-0.24 J-1.489
X-187.26 Y-16.011 Z-2.464 I0.24 J1.489
X-187.739 Y-18.989 Z-2.629 I-0.24 J-1.489
X-187.26 Y-16.011 Z-2.794 I0.24 J1.489
X-187.739 Y-18.989 Z-2.96 I-0.24 J-1.489
X-187.26 Y-16.011 Z-3.125 I0.24 J1.489
X-187.739 Y-18.989 Z-3.291 I-0.24 J-1.489
X-187.26 Y-16.011 Z-3.456 I0.24 J1.489
X-187.739 Y-18.989 Z-3.622 I-0.24 J-1.489
X-187.26 Y-16.011 Z-3.787 I0.24 J1.489
X-187.739 Y-18.989 Z-3.953 I-0.24 J-1.489
X-187.26 Y-16.011 Z-4.118 I0.24 J1.489
X-187.739 Y-18.989 Z-4.284 I-0.24 J-1.489
X-187.26 Y-16.011 Z-4.449 I0.24 J1.489
X-187.739 Y-18.989 Z-4.614 I-0.24 J-1.489
X-187.26 Y-16.011 Z-4.78 I0.24 J1.489
X-187.739 Y-18.989 Z-4.945 I-0.24 J-1.489
X-187.26 Y-16.011 Z-5.111 I0.24 J1.489
X-187.739 Y-18.989 Z-5.276 I-0.24 J-1.489
X-187.26 Y-16.011 Z-5.442 I0.24 J1.489
X-187.739 Y-18.989 Z-5.607 I-0.24 J-1.489
X-187.26 Y-16.011 Z-5.773 I0.24 J1.489
X-187.739 Y-18.989 Z-5.938 I-0.24 J-1.489
X-187.26 Y-16.011 Z-6.103 I0.24 J1.489
X-187.739 Y-18.989 Z-6.269 I-0.24 J-1.489
X-187.26 Y-16.011 Z-6.434 I0.24 J1.489
X-187.739 Y-18.989 Z-6.6 I-0.24 J-1.489
X-187.26 Y-16.011 Z-6.765 I0.24 J1.489
X-187.739 Y-18.989 Z-6.931 I-0.24 J-1.489
X-187.26 Y-16.011 Z-7.096 I0.24 J1.489
X-187.739 Y-18.989 Z-7.262 I-0.24 J-1.489
X-187.26 Y-16.011 Z-7.427 I0.24 J1.489
X-187.739 Y-18.989 Z-7.593 I-0.24 J-1.489
X-187.26 Y-16.011 Z-7.758 I0.24 J1.489
X-187.739 Y-18.989 Z-7.923 I-0.24 J-1.489
X-187.26 Y-16.011 Z-8.089 I0.24 J1.489
X-187.739 Y-18.989 Z-8.254 I-0.24 J-1.489
X-187.26 Y-16.011 Z-8.42 I0.24 J1.489
X-187.739 Y-18.989 Z-8.585 I-0.24 J-1.489
X-187.26 Y-16.011 Z-8.751 I0.24 J1.489
X-187.739 Y-18.989 Z-8.916 I-0.24 J-1.489
X-187.26 Y-16.011 Z-9.082 I0.24 J1.489
X-187.739 Y-18.989 Z-9.247 I-0.24 J-1.489
X-187.26 Y-16.011 Z-9.413 I0.24 J1.489
X-187.739 Y-18.989 Z-9.578 I-0.24 J-1.489
X-187.26 Y-16.011 Z-9.743 I0.24 J1.489
X-187.739 Y-18.989 Z-9.909 I-0.24 J-1.489
X-185.992 Y-17.5 Z-10 I0.24 J1.489
X-189.008 I-1.508
X-185.992 I1.508
G1 X-185.972 Y-16.763 F1000
X-185.951 Y-16.673
X-185.935 Y-16.524
X-185.948 Y-16.374
X-185.983 Y-16.229
X-186.038 Y-16.089
X-186.11 Y-15.957
X-186.195 Y-15.834
X-186.294 Y-15.721
X-186.402 Y-15.617
X-186.52 Y-15.524
X-186.646 Y-15.442
X-186.778 Y-15.371
X-186.916 Y-15.311
X-187.063 Y-15.261
X-187.217 Y-15.221
X-187.377 Y-15.194
X-187.542 Y-15.179
X-187.711 Y-15.177
X-187.882 Y-15.19
X-188.053 Y-15.216
X-188.225 Y-15.256
X-188.394 Y-15.311
X-188.561 Y-15.38
X-188.722 Y-15.462
X-188.878 Y-15.558
X-189.027 Y-15.668
X-189.167 Y-15.789
X-189.298 Y-15.922
X-189.418 Y-16.066
X-189.527 Y-16.219
X-189.623 Y-16.382
X-189.706 Y-16.552
X-189.776 Y-16.729
X-189.831 Y-16.911
X-189.872 Y-17.098
X-189.898 Y-17.288
X-189.908 Y-17.479
X-189.903 Y-17.671
X-189.882 Y-17.862
X-189.846 Y-18.051
X-189.796 Y-18.237
X-189.73 Y-18.418
X-189.65 Y-18.594
X-189.556 Y-18.763
X-189.448 Y-18.923
X-189.328 Y-19.075
X-189.196 Y-19.216
X-189.054 Y-19.347
X-188.901 Y-19.466
X-188.739 Y-19.572
X-188.569 Y-19.665
X-188.392 Y-19.743
X-188.209 Y-19.808
X-188.022 Y-19.857
X-187.831 Y-19.892
X-187.638 Y-19.911
X-187.445 Y-19.914
X-187.251 Y-19.902
X-187.059 Y-19.874
X-186.87 Y-19.831
X-186.685 Y-19.773
X-186.505 Y-19.701
X-186.332 Y-19.614
X-186.166 Y-19.513
X-186.009 Y-19.4
X-185.861 Y-19.274
X-185.724 Y-19.137
X-185.599 Y-18.989
X-185.485 Y-18.832
X-185.381 Y-18.659
X-185.27 Y-18.437
X-185.123 Y-18.072
X-185.015 Y-17.729
X-184.952 Y-17.447
X-184.915 Y-17.191
X-184.91 Y-17.108
Y-17.015
X-184.921 Y-16.923
X-184.945 Y-16.833
X-185.051 Y-16.507
X-185.08 Y-16.423
X-185.126 Y-16.339
X-185.319 Y-16.004
X-185.363 Y-15.935
X-185.45 Y-15.836
X-185.699 Y-15.561
X-185.732 Y-15.528
X-185.766 Y-15.501
X-186.034 Y-15.306
X-186.202 Y-15.192
X-186.636 Y-14.999
X-186.705 Y-14.974
X-187.04 Y-14.902
X-187.208 Y-14.868
X-187.375 Y-14.864
X-187.711
X-187.795 Y-14.868
X-187.878 Y-14.885
X-188.289 Y-14.972
X-188.326 Y-14.984
X-188.364 Y-14.999
X-188.74 Y-15.166
X-188.812 Y-15.199
X-188.884 Y-15.247
X-189.234 Y-15.501
X-189.276 Y-15.536
X-189.318 Y-15.579
X-189.555 Y-15.842
X-189.627 Y-15.923
X-189.681 Y-16.004
X-189.89 Y-16.367
X-189.926 Y-16.437
X-190.058 Y-16.842
X-190.085 Y-16.926
X-190.099 Y-17.01
X-190.135 Y-17.345
X-190.148 Y-17.512
X-190.132 Y-17.68
X-190.097 Y-18.015
X-190.091 Y-18.051
X-190.081 Y-18.087
X-189.941 Y-18.518
X-189.921 Y-18.575
X-189.89 Y-18.633
X-189.666 Y-19.021
X-189.617 Y-19.089
X-189.298 Y-19.443
X-189.22 Y-19.509
X-188.842 Y-19.783
X-188.801 Y-19.807
X-188.381 Y-19.994
X-188.295 Y-20.026
X-187.878 Y-20.115
X-187.795 Y-20.132
X-187.711 Y-20.137
X-187.375
X-187.208 Y-20.132
X-186.872 Y-20.062
X-186.704 Y-20.026
X-186.662 Y-20.013
X-186.202 Y-19.808
X-186.16 Y-19.784
X-185.799 Y-19.523
X-185.749 Y-19.486
X-185.699 Y-19.439
X-185.472 Y-19.188
X-185.363 Y-19.065
X-185.334 Y-19.021
X-185.092 Y-18.602
X-185.073 Y-18.56
X-185.059 Y-18.518
X-184.922 Y-18.099
X-184.91 Y-18.057
X-184.903 Y-18.015
X-184.86 Y-17.607
X-184.852 Y-17.512
X-184.86 Y-17.393
X-184.901 Y-17.01
X-184.915 Y-16.926
X-184.945 Y-16.833
G3 X-185.322 Y-16.634 I-0.298 J-0.109
G1 X-185.37 Y-16.66 Z-9.995
X-185.416 Y-16.686 Z-9.981
X-185.459 Y-16.709 Z-9.958
X-185.486 Y-16.751 Z-9.922
X-185.508 Y-16.786 Z-9.878
X-185.526 Y-16.813 Z-9.827
X-185.538 Y-16.832 Z-9.771
X-185.544 Y-16.841 Z-9.711
Y-16.842 Z-9.682
G0 Z5
X-187.26 Y33.989
Z2.5
G3 X-187.739 Y31.011 Z2.335 I-0.24 J-1.489 F333.3
X-187.26 Y33.989 Z2.169 I0.24 J1.489
X-187.739 Y31.011 Z2.004 I-0.24 J-1.489
X-187.26 Y33.989 Z1.838 I0.24 J1.489
X-187.739 Y31.011 Z1.673 I-0.24 J-1.489
X-187.26 Y33.989 Z1.507 I0.24 J1.489
X-187.739 Y31.011 Z1.342 I-0.24 J-1.489
X-187.26 Y33.989 Z1.176 I0.24 J1.489
X-187.739 Y31.011 Z1.011 I-0.24 J-1.489
X-187.26 Y33.989 Z0.845 I0.24 J1.489
X-187.739 Y31.011 Z0.68 I-0.24 J-1.489
X-187.26 Y33.989 Z0.515 I0.24 J1.489
X-187.739 Y31.011 Z0.349 I-0.24 J-1.489
X-187.26 Y33.989 Z0.184 I0.24 J1.489
X-187.739 Y31.011 Z0.018 I-0.24 J-1.489
X-187.26 Y33.989 Z-0.147 I0.24 J1.489
X-187.739 Y31.011 Z-0.313 I-0.24 J-1.489
X-187.26 Y33.989 Z-0.478 I0.24 J1.489
X-187.739 Y31.011 Z-0.644 I-0.24 J-1.489
X-187.26 Y33.989 Z-0.809 I0.24 J1.489
X-187.739 Y31.011 Z-0.974 I-0.24 J-1.489
X-187.26 Y33.989 Z-1.14 I0.24 J1.489
X-187.739 Y31.011 Z-1.305 I-0.24 J-1.489
X-187.26 Y33.989 Z-1.471 I0.24 J1.489
X-187.739 Y31.011 Z-1.636 I-0.24 J-1.489
X-187.26 Y33.989 Z-1.802 I0.24 J1.489
X-187.739 Y31.011 Z-1.967 I-0.24 J-1.489
X-187.26 Y33.989 Z-2.133 I0.24 J1.489
X-187.739 Y31.011 Z-2.298 I-0.24 J-1.489
X-187.26 Y33.989 Z-2.464 I0.24 J1.489
X-187.739 Y31.011 Z-2.629 I-0.24 J-1.489
X-187.26 Y33.989 Z-2.794 I0.24 J1.489
X-187.739 Y31.011 Z-2.96 I-0.24 J-1.489
X-187.26 Y33.989 Z-3.125 I0.24 J1.489
X-187.739 Y31.011 Z-3.291 I-0.24 J-1.489
X-187.26 Y33.989 Z-3.456 I0.24 J1.489
X-187.739 Y31.011 Z-3.622 I-0.24 J-1.489
X-187.26 Y33.989 Z-3.787 I0.24 J1.489
X-187.739 Y31.011 Z-3.953 I-0.24 J-1.489
X-187.26 Y33.989 Z-4.118 I0.24 J1.489
X-187.739 Y31.011 Z-4.284 I-0.24 J-1.489
X-187.26 Y33.989 Z-4.449 I0.24 J1.489
X-187.739 Y31.011 Z-4.614 I-0.24 J-1.489
X-187.26 Y33.989 Z-4.78 I0.24 J1.489
X-187.739 Y31.011 Z-4.945 I-0.24 J-1.489
X-187.26 Y33.989 Z-5.111 I0.24 J1.489
X-187.739 Y31.011 Z-5.276 I-0.24 J-1.489
X-187.26 Y33.989 Z-5.442 I0.24 J1.489
X-187.739 Y31.011 Z-5.607 I-0.24 J-1.489
X-187.26 Y33.989 Z-5.773 I0.24 J1.489
X-187.739 Y31.011 Z-5.938 I-0.24 J-1.489
X-187.26 Y33.989 Z-6.103 I0.24 J1.489
X-187.739 Y31.011 Z-6.269 I-0.24 J-1.489
X-187.26 Y33.989 Z-6.434 I0.24 J1.489
X-187.739 Y31.011 Z-6.6 I-0.24 J-1.489
X-187.26 Y33.989 Z-6.765 I0.24 J1.489
X-187.739 Y31.011 Z-6.931 I-0.24 J-1.489
X-187.26 Y33.989 Z-7.096 I0.24 J1.489
X-187.739 Y31.011 Z-7.262 I-0.24 J-1.489
X-187.26 Y33.989 Z-7.427 I0.24 J1.489
X-187.739 Y31.011 Z-7.593 I-0.24 J-1.489
X-187.26 Y33.989 Z-7.758 I0.24 J1.489
X-187.739 Y31.011 Z-7.923 I-0.24 J-1.489
X-187.26 Y33.989 Z-8.089 I0.24 J1.489
X-187.739 Y31.011 Z-8.254 I-0.24 J-1.489
X-187.26 Y33.989 Z-8.42 I0.24 J1.489
X-187.739 Y31.011 Z-8.585 I-0.24 J-1.489
X-187.26 Y33.989 Z-8.751 I0.24 J1.489
X-187.739 Y31.011 Z-8.916 I-0.24 J-1.489
X-187.26 Y33.989 Z-9.082 I0.24 J1.489
X-187.739 Y31.011 Z-9.247 I-0.24 J-1.489
X-187.26 Y33.989 Z-9.413 I0.24 J1.489
X-187.739 Y31.011 Z-9.578 I-0.24 J-1.489
X-187.26 Y33.989 Z-9.743 I0.24 J1.489
X-187.739 Y31.011 Z-9.909 I-0.24 J-1.489
X-185.991 Y32.5 Z-10 I0.24 J1.489
X-189.008 I-1.508
X-185.991 I1.508
G1 X-185.972 Y33.238 F1000
X-185.95 Y33.328
X-185.935 Y33.477
X-185.947 Y33.626
X-185.983 Y33.772
X-186.038 Y33.912
X-186.109 Y34.043
X-186.195 Y34.166
X-186.293 Y34.28
X-186.402 Y34.383
X-186.52 Y34.476
X-186.645 Y34.558
X-186.777 Y34.629
X-186.916 Y34.69
X-187.063 Y34.74
X-187.217 Y34.779
X-187.377 Y34.807
X-187.542 Y34.822
X-187.71 Y34.823
X-187.881 Y34.811
X-188.053 Y34.785
X-188.225 Y34.744
X-188.394 Y34.69
X-188.56 Y34.621
X-188.722 Y34.538
X-188.878 Y34.442
X-189.026 Y34.333
X-189.167 Y34.212
X-189.297 Y34.079
X-189.418 Y33.935
X-189.526 Y33.781
X-189.623 Y33.619
X-189.706 Y33.448
X-189.776 Y33.272
X-189.831 Y33.089
X-189.872 Y32.903
X-189.897 Y32.713
X-189.908 Y32.521
X-189.902 Y32.329
X-189.882 Y32.138
X-189.846 Y31.949
X-189.795 Y31.763
X-189.729 Y31.582
X-189.649 Y31.407
X-189.555 Y31.238
X-189.448 Y31.077
X-189.328 Y30.926
X-189.196 Y30.784
X-189.053 Y30.654
X-188.9 Y30.535
X-188.738 Y30.429
X-188.569 Y30.336
X-188.392 Y30.257
X-188.209 Y30.193
X-188.022 Y30.143
X-187.831 Y30.109
X-187.638 Y30.09
X-187.444 Y30.086
X-187.251 Y30.099
X-187.059 Y30.126
X-186.87 Y30.169
X-186.685 Y30.227
X-186.505 Y30.3
X-186.332 Y30.387
X-186.166 Y30.487
X-186.009 Y30.601
X-185.861 Y30.726
X-185.724 Y30.864
X-185.598 Y31.011
X-185.485 Y31.169
X-185.38 Y31.341
X-185.269 Y31.564
X-185.122 Y31.928
X-185.015 Y32.271
X-184.951 Y32.554
X-184.915 Y32.81
X-184.909 Y32.892
X-184.91 Y32.984
X-184.921 Y33.077
X-184.944 Y33.166
X-185.031 Y33.433
X-185.091 Y33.6
X-185.284 Y33.935
X-185.363 Y34.065
X-185.396 Y34.103
X-185.699 Y34.439
X-185.741 Y34.48
X-186.143 Y34.773
X-186.202 Y34.808
X-186.537 Y34.958
X-186.705 Y35.026
X-187.09 Y35.108
X-187.208 Y35.133
X-187.375 Y35.136
X-187.711
X-187.795 Y35.132
X-187.91 Y35.108
X-188.298 Y35.026
X-188.381 Y34.994
X-188.787 Y34.813
X-188.822 Y34.795
X-188.857 Y34.773
X-189.22 Y34.51
X-189.261 Y34.478
X-189.303 Y34.438
X-189.605 Y34.103
X-189.639 Y34.061
X-189.667 Y34.019
X-189.909 Y33.6
X-189.969 Y33.433
X-190.078 Y33.097
X-190.09 Y33.056
X-190.097 Y33.014
X-190.141 Y32.595
X-190.148 Y32.511
X-190.143 Y32.427
X-190.108 Y32.092
X-190.085 Y31.924
X-189.976 Y31.589
X-189.92 Y31.422
X-189.89 Y31.367
X-189.677 Y30.998
X-189.653 Y30.958
X-189.624 Y30.919
X-189.322 Y30.584
X-189.271 Y30.531
X-189.22 Y30.49
X-188.842 Y30.217
X-188.801 Y30.193
X-188.381 Y30.006
X-188.298 Y29.974
X-188.013 Y29.913
X-187.878 Y29.885
X-187.795 Y29.868
X-187.711 Y29.864
X-187.375
X-187.208 Y29.867
X-186.872 Y29.938
X-186.705 Y29.973
X-186.663 Y29.987
X-186.369 Y30.117
X-186.202 Y30.192
X-186.113 Y30.249
X-185.782 Y30.489
X-185.741 Y30.521
X-185.699 Y30.56
X-185.377 Y30.919
X-185.363 Y30.935
X-185.272 Y31.086
X-185.175 Y31.254
X-185.08 Y31.422
X-185.024 Y31.589
X-184.915 Y31.924
X-184.892 Y32.092
X-184.857 Y32.427
X-184.852 Y32.511
X-184.86 Y32.607
X-184.903 Y33.014
X-184.91 Y33.056
X-184.922 Y33.097
X-184.944 Y33.166
G3 X-185.322 Y33.365 I-0.298 J-0.109
G1 X-185.37 Y33.339 Z-9.995
X-185.416 Y33.314 Z-9.981
X-185.459 Y33.29 Z-9.958
X-185.486 Y33.249 Z-9.922
X-185.508 Y33.214 Z-9.878
X-185.526 Y33.186 Z-9.827
X-185.538 Y33.168 Z-9.771
X-185.544 Y33.159 Z-9.711
Y33.157 Z-9.682
G0 Z5
X-187.26 Y83.989
Z2.5
G3 X-187.74 Y81.011 Z2.335 I-0.24 J-1.489 F333.3
X-187.26 Y83.989 Z2.169 I0.24 J1.489
X-187.74 Y81.011 Z2.004 I-0.24 J-1.489
X-187.26 Y83.989 Z1.838 I0.24 J1.489
X-187.74 Y81.011 Z1.673 I-0.24 J-1.489
X-187.26 Y83.989 Z1.507 I0.24 J1.489
X-187.74 Y81.011 Z1.342 I-0.24 J-1.489
X-187.26 Y83.989 Z1.176 I0.24 J1.489
X-187.74 Y81.011 Z1.011 I-0.24 J-1.489
X-187.26 Y83.989 Z0.845 I0.24 J1.489
X-187.74 Y81.011 Z0.68 I-0.24 J-1.489
X-187.26 Y83.989 Z0.515 I0.24 J1.489
X-187.74 Y81.011 Z0.349 I-0.24 J-1.489
X-187.26 Y83.989 Z0.184 I0.24 J1.489
X-187.74 Y81.011 Z0.018 I-0.24 J-1.489
X-187.26 Y83.989 Z-0.147 I0.24 J1.489
X-187.74 Y81.011 Z-0.313 I-0.24 J-1.489
X-187.26 Y83.989 Z-0.478 I0.24 J1.489
X-187.74 Y81.011 Z-0.644 I-0.24 J-1.489
X-187.26 Y83.989 Z-0.809 I0.24 J1.489
X-187.74 Y81.011 Z-0.974 I-0.24 J-1.489
X-187.26 Y83.989 Z-1.14 I0.24 J1.489
X-187.74 Y81.011 Z-1.305 I-0.24 J-1.489
X-187.26 Y83.989 Z-1.471 I0.24 J1.489
X-187.74 Y81.011 Z-1.636 I-0.24 J-1.489
X-187.26 Y83.989 Z-1.802 I0.24 J1.489
X-187.74 Y81.011 Z-1.967 I-0.24 J-1.489
X-187.26 Y83.989 Z-2.133 I0.24 J1.489
X-187.74 Y81.011 Z-2.298 I-0.24 J-1.489
X-187.26 Y83.989 Z-2.464 I0.24 J1.489
X-187.74 Y81.011 Z-2.629 I-0.24 J-1.489
X-187.26 Y83.989 Z-2.794 I0.24 J1.489
X-187.74 Y81.011 Z-2.96 I-0.24 J-1.489
X-187.26 Y83.989 Z-3.125 I0.24 J1.489
X-187.74 Y81.011 Z-3.291 I-0.24 J-1.489
X-187.26 Y83.989 Z-3.456 I0.24 J1.489
X-187.74 Y81.011 Z-3.622 I-0.24 J-1.489
X-187.26 Y83.989 Z-3.787 I0.24 J1.489
X-187.74 Y81.011 Z-3.953 I-0.24 J-1.489
X-187.26 Y83.989 Z-4.118 I0.24 J1.489
X-187.74 Y81.011 Z-4.284 I-0.24 J-1.489
X-187.26 Y83.989 Z-4.449 I0.24 J1.489
X-187.74 Y81.011 Z-4.614 I-0.24 J-1.489
X-187.26 Y83.989 Z-4.78 I0.24 J1.489
X-187.74 Y81.011 Z-4.945 I-0.24 J-1.489
X-187.26 Y83.989 Z-5.111 I0.24 J1.489
X-187.74 Y81.011 Z-5.276 I-0.24 J-1.489
X-187.26 Y83.989 Z-5.442 I0.24 J1.489
X-187.74 Y81.011 Z-5.607 I-0.24 J-1.489
X-187.26 Y83.989 Z-5.773 I0.24 J1.489
X-187.74 Y81.011 Z-5.938 I-0.24 J-1.489
X-187.26 Y83.989 Z-6.103 I0.24 J1.489
X-187.74 Y81.011 Z-6.269 I-0.24 J-1.489
X-187.26 Y83.989 Z-6.434 I0.24 J1.489
X-187.74 Y81.011 Z-6.6 I-0.24 J-1.489
X-187.26 Y83.989 Z-6.765 I0.24 J1.489
X-187.74 Y81.011 Z-6.931 I-0.24 J-1.489
X-187.26 Y83.989 Z-7.096 I0.24 J1.489
X-187.74 Y81.011 Z-7.262 I-0.24 J-1.489
X-187.26 Y83.989 Z-7.427 I0.24 J1.489
X-187.74 Y81.011 Z-7.593 I-0.24 J-1.489
X-187.26 Y83.989 Z-7.758 I0.24 J1.489
X-187.74 Y81.011 Z-7.923 I-0.24 J-1.489
X-187.26 Y83.989 Z-8.089 I0.24 J1.489
X-187.74 Y81.011 Z-8.254 I-0.24 J-1.489
X-187.26 Y83.989 Z-8.42 I0.24 J1.489
X-187.74 Y81.011 Z-8.585 I-0.24 J-1.489
X-187.26 Y83.989 Z-8.751 I0.24 J1.489
X-187.74 Y81.011 Z-8.916 I-0.24 J-1.489
X-187.26 Y83.989 Z-9.082 I0.24 J1.489
X-187.74 Y81.011 Z-9.247 I-0.24 J-1.489
X-187.26 Y83.989 Z-9.413 I0.24 J1.489
X-187.74 Y81.011 Z-9.578 I-0.24 J-1.489
X-187.26 Y83.989 Z-9.743 I0.24 J1.489
X-187.74 Y81.011 Z-9.909 I-0.24 J-1.489
X-185.992 Y82.5 Z-10 I0.24 J1.489
X-189.008 I-1.508
X-185.992 I1.508
G1 X-185.973 Y83.237 F1000
X-185.951 Y83.327
X-185.935 Y83.476
X-185.948 Y83.625
X-185.983 Y83.771
X-186.038 Y83.911
X-186.11 Y84.043
X-186.196 Y84.166
X-186.294 Y84.279
X-186.403 Y84.383
X-186.52 Y84.475
X-186.646 Y84.557
X-186.778 Y84.628
X-186.917 Y84.689
X-187.063 Y84.739
X-187.217 Y84.779
X-187.377 Y84.806
X-187.542 Y84.821
X-187.711 Y84.822
X-187.882 Y84.81
X-188.054 Y84.784
X-188.225 Y84.744
X-188.395 Y84.689
X-188.561 Y84.62
X-188.723 Y84.537
X-188.878 Y84.441
X-189.027 Y84.332
X-189.167 Y84.211
X-189.298 Y84.078
X-189.418 Y83.934
X-189.527 Y83.78
X-189.623 Y83.618
X-189.707 Y83.448
X-189.776 Y83.271
X-189.832 Y83.088
X-189.872 Y82.902
X-189.898 Y82.712
X-189.908 Y82.521
X-189.903 Y82.329
X-189.883 Y82.137
X-189.847 Y81.948
X-189.796 Y81.763
X-189.73 Y81.581
X-189.65 Y81.406
X-189.556 Y81.237
X-189.448 Y81.076
X-189.328 Y80.925
X-189.197 Y80.783
X-189.054 Y80.653
X-188.901 Y80.534
X-188.739 Y80.428
X-188.569 Y80.335
X-188.392 Y80.256
X-188.21 Y80.192
X-188.022 Y80.142
X-187.831 Y80.108
X-187.639 Y80.089
X-187.445 Y80.086
X-187.251 Y80.098
X-187.059 Y80.125
X-186.87 Y80.168
X-186.685 Y80.226
X-186.506 Y80.299
X-186.332 Y80.386
X-186.166 Y80.486
X-186.009 Y80.6
X-185.862 Y80.726
X-185.724 Y80.863
X-185.599 Y81.011
X-185.485 Y81.168
X-185.381 Y81.341
X-185.27 Y81.563
X-185.123 Y81.928
X-185.016 Y82.271
X-184.952 Y82.553
X-184.915 Y82.809
X-184.91 Y82.89
Y82.976
X-184.92 Y83.063
X-184.94 Y83.147
X-184.957 Y83.204
X-185.066 Y83.54
X-185.082 Y83.581
X-185.104 Y83.623
X-185.249 Y83.875
X-185.347 Y84.042
X-185.363 Y84.065
X-185.531 Y84.253
X-185.699 Y84.439
X-185.731 Y84.471
X-185.764 Y84.498
X-186.131 Y84.764
X-186.166 Y84.789
X-186.202 Y84.808
X-186.621 Y84.995
X-186.663 Y85.013
X-186.705 Y85.027
X-187.04 Y85.098
X-187.208 Y85.133
X-187.375 Y85.136
X-187.711
X-187.795 Y85.132
X-187.878 Y85.115
X-188.214 Y85.044
X-188.298 Y85.026
X-188.381 Y84.994
X-188.801 Y84.807
X-188.842 Y84.783
X-189.22 Y84.51
X-189.289 Y84.452
X-189.387 Y84.344
X-189.555 Y84.158
X-189.653 Y84.042
X-189.89 Y83.633
X-189.915 Y83.586
X-189.934 Y83.54
X-190.058 Y83.159
X-190.093 Y83.037
X-190.112 Y82.869
X-190.147 Y82.534
X-190.149 Y82.492
X-190.146 Y82.45
X-190.102 Y82.031
X-190.091 Y81.947
X-190.058 Y81.841
X-189.93 Y81.448
X-189.887 Y81.361
X-189.693 Y81.026
X-189.642 Y80.942
X-189.555 Y80.842
X-189.387 Y80.656
X-189.262 Y80.523
X-189.22 Y80.49
X-188.884 Y80.247
X-188.837 Y80.214
X-188.79 Y80.188
X-188.381 Y80.006
X-188.298 Y79.974
X-188.046 Y79.92
X-187.878 Y79.885
X-187.795 Y79.868
X-187.711 Y79.864
X-187.375
X-187.208 Y79.867
X-186.872 Y79.938
X-186.705 Y79.973
X-186.646 Y79.994
X-186.202 Y80.192
X-186.034 Y80.306
X-185.866 Y80.428
X-185.737 Y80.523
X-185.699 Y80.56
X-185.431 Y80.858
X-185.363 Y80.934
X-185.307 Y81.026
X-185.113 Y81.361
X-185.071 Y81.445
X-184.935 Y81.864
X-184.909 Y81.947
X-184.898 Y82.031
X-184.853 Y82.464
X-184.851 Y82.499
X-184.853 Y82.534
X-184.888 Y82.869
X-184.907 Y83.037
X-184.94 Y83.147
G3 X-185.312 Y83.355 I-0.301 J-0.101
G1 X-185.36 Y83.33 Z-9.995
X-185.407 Y83.306 Z-9.981
X-185.451 Y83.283 Z-9.958
X-185.479 Y83.243 Z-9.922
X-185.502 Y83.208 Z-9.878
X-185.52 Y83.181 Z-9.827
X-185.533 Y83.163 Z-9.771
X-185.539 Y83.154 Z-9.711
Y83.153 Z-9.682
G0 Z5
X-137.26 Y-66.011
Z2.5
G3 X-137.74 Y-68.989 Z2.335 I-0.24 J-1.489 F333.3
X-137.26 Y-66.011 Z2.169 I0.24 J1.489
X-137.74 Y-68.989 Z2.004 I-0.24 J-1.489
X-137.26 Y-66.011 Z1.838 I0.24 J1.489
X-137.74 Y-68.989 Z1.673 I-0.24 J-1.489
X-137.26 Y-66.011 Z1.507 I0.24 J1.489
X-137.74 Y-68.989 Z1.342 I-0.24 J-1.489
X-137.26 Y-66.011 Z1.176 I0.24 J1.489
X-137.74 Y-68.989 Z1.011 I-0.24 J-1.489
X-137.26 Y-66.011 Z0.845 I0.24 J1.489
X-137.74 Y-68.989 Z0.68 I-0.24 J-1.489
X-137.26 Y-66.011 Z0.515 I0.24 J1.489
X-137.74 Y-68.989 Z0.349 I-0.24 J-1.489
X-137.26 Y-66.011 Z0.184 I0.24 J1.489
X-137.74 Y-68.989 Z0.018 I-0.24 J-1.489
X-137.26 Y-66.011 Z-0.147 I0.24 J1.489
X-137.74 Y-68.989 Z-0.313 I-0.24 J-1.489
X-137.26 Y-66.011 Z-0.478 I0.24 J1.489
X-137.74 Y-68.989 Z-0.644 I-0.24 J-1.489
X-137.26 Y-66.011 Z-0.809 I0.24 J1.489
X-137.74 Y-68.989 Z-0.974 I-0.24 J-1.489
X-137.26 Y-66.011 Z-1.14 I0.24 J1.489
X-137.74 Y-68.989 Z-1.305 I-0.24 J-1.489
X-137.26 Y-66.011 Z-1.471 I0.24 J1.489
X-137.74 Y-68.989 Z-1.636 I-0.24 J-1.489
X-137.26 Y-66.011 Z-1.802 I0.24 J1.489
X-137.74 Y-68.989 Z-1.967 I-0.24 J-1.489
X-137.26 Y-66.011 Z-2.133 I0.24 J1.489
X-137.74 Y-68.989 Z-2.298 I-0.24 J-1.489
X-137.26 Y-66.011 Z-2.464 I0.24 J1.489
X-137.74 Y-68.989 Z-2.629 I-0.24 J-1.489
X-137.26 Y-66.011 Z-2.794 I0.24 J1.489
X-137.74 Y-68.989 Z-2.96 I-0.24 J-1.489
X-137.26 Y-66.011 Z-3.125 I0.24 J1.489
X-137.74 Y-68.989 Z-3.291 I-0.24 J-1.489
X-137.26 Y-66.011 Z-3.456 I0.24 J1.489
X-137.74 Y-68.989 Z-3.622 I-0.24 J-1.489
X-137.26 Y-66.011 Z-3.787 I0.24 J1.489
X-137.74 Y-68.989 Z-3.953 I-0.24 J-1.489
X-137.26 Y-66.011 Z-4.118 I0.24 J1.489
X-137.74 Y-68.989 Z-4.284 I-0.24 J-1.489
X-137.26 Y-66.011 Z-4.449 I0.24 J1.489
X-137.74 Y-68.989 Z-4.614 I-0.24 J-1.489
X-137.26 Y-66.011 Z-4.78 I0.24 J1.489
X-137.74 Y-68.989 Z-4.945 I-0.24 J-1.489
X-137.26 Y-66.011 Z-5.111 I0.24 J1.489
X-137.74 Y-68.989 Z-5.276 I-0.24 J-1.489
X-137.26 Y-66.011 Z-5.442 I0.24 J1.489
X-137.74 Y-68.989 Z-5.607 I-0.24 J-1.489
X-137.26 Y-66.011 Z-5.773 I0.24 J1.489
X-137.74 Y-68.989 Z-5.938 I-0.24 J-1.489
X-137.26 Y-66.011 Z-6.103 I0.24 J1.489
X-137.74 Y-68.989 Z-6.269 I-0.24 J-1.489
X-137.26 Y-66.011 Z-6.434 I0.24 J1.489
X-137.74 Y-68.989 Z-6.6 I-0.24 J-1.489
X-137.26 Y-66.011 Z-6.765 I0.24 J1.489
X-137.74 Y-68.989 Z-6.931 I-0.24 J-1.489
X-137.26 Y-66.011 Z-7.096 I0.24 J1.489
X-137.74 Y-68.989 Z-7.262 I-0.24 J-1.489
X-137.26 Y-66.011 Z-7.427 I0.24 J1.489
X-137.74 Y-68.989 Z-7.593 I-0.24 J-1.489
X-137.26 Y-66.011 Z-7.758 I0.24 J1.489
X-137.74 Y-68.989 Z-7.923 I-0.24 J-1.489
X-137.26 Y-66.011 Z-8.089 I0.24 J1.489
X-137.74 Y-68.989 Z-8.254 I-0.24 J-1.489
X-137.26 Y-66.011 Z-8.42 I0.24 J1.489
X-137.74 Y-68.989 Z-8.585 I-0.24 J-1.489
X-137.26 Y-66.011 Z-8.751 I0.24 J1.489
X-137.74 Y-68.989 Z-8.916 I-0.24 J-1.489
X-137.26 Y-66.011 Z-9.082 I0.24 J1.489
X-137.74 Y-68.989 Z-9.247 I-0.24 J-1.489
X-137.26 Y-66.011 Z-9.413 I0.24 J1.489
X-137.74 Y-68.989 Z-9.578 I-0.24 J-1.489
X-137.26 Y-66.011 Z-9.743 I0.24 J1.489
X-137.74 Y-68.989 Z-9.909 I-0.24 J-1.489
X-135.992 Y-67.5 Z-10 I0.24 J1.489
X-139.008 I-1.508
X-135.992 I1.508
G1 X-135.972 Y-66.762 F1000
X-135.951 Y-66.673
X-135.935 Y-66.523
X-135.948 Y-66.374
X-135.983 Y-66.228
X-136.038 Y-66.088
X-136.11 Y-65.957
X-136.196 Y-65.834
X-136.294 Y-65.72
X-136.402 Y-65.617
X-136.52 Y-65.524
X-136.646 Y-65.442
X-136.778 Y-65.371
X-136.916 Y-65.311
X-137.063 Y-65.26
X-137.217 Y-65.221
X-137.377 Y-65.193
X-137.542 Y-65.178
X-137.711 Y-65.177
X-137.882 Y-65.189
X-138.054 Y-65.215
X-138.225 Y-65.256
X-138.394 Y-65.31
X-138.561 Y-65.379
X-138.722 Y-65.462
X-138.878 Y-65.558
X-139.027 Y-65.667
X-139.167 Y-65.788
X-139.298 Y-65.921
X-139.418 Y-66.065
X-139.527 Y-66.219
X-139.623 Y-66.381
X-139.707 Y-66.552
X-139.776 Y-66.729
X-139.832 Y-66.911
X-139.872 Y-67.098
X-139.898 Y-67.287
X-139.908 Y-67.479
X-139.903 Y-67.671
X-139.882 Y-67.862
X-139.847 Y-68.051
X-139.796 Y-68.237
X-139.73 Y-68.418
X-139.65 Y-68.593
X-139.556 Y-68.762
X-139.448 Y-68.923
X-139.328 Y-69.074
X-139.197 Y-69.216
X-139.054 Y-69.346
X-138.901 Y-69.465
X-138.739 Y-69.571
X-138.569 Y-69.664
X-138.392 Y-69.743
X-138.209 Y-69.807
X-138.022 Y-69.857
X-137.831 Y-69.891
X-137.638 Y-69.91
X-137.445 Y-69.914
X-137.251 Y-69.901
X-137.059 Y-69.874
X-136.87 Y-69.831
X-136.685 Y-69.773
X-136.505 Y-69.7
X-136.332 Y-69.613
X-136.166 Y-69.513
X-136.009 Y-69.399
X-135.861 Y-69.274
X-135.724 Y-69.136
X-135.599 Y-68.989
X-135.485 Y-68.831
X-135.381 Y-68.659
X-135.27 Y-68.436
X-135.123 Y-68.072
X-135.016 Y-67.729
X-134.952 Y-67.446
X-134.915 Y-67.19
X-134.91 Y-67.109
Y-67.019
X-134.921 Y-66.93
X-134.942 Y-66.842
X-134.961 Y-66.781
X-135.071 Y-66.446
X-135.161 Y-66.279
X-135.258 Y-66.111
X-135.357 Y-65.943
X-135.396 Y-65.896
X-135.656 Y-65.608
X-135.732 Y-65.528
X-135.9 Y-65.404
X-136.08 Y-65.273
X-136.157 Y-65.218
X-136.235 Y-65.177
X-136.654 Y-64.991
X-136.738 Y-64.967
X-137.073 Y-64.895
X-137.241 Y-64.864
X-137.576
X-137.744
X-137.786 Y-64.867
X-137.828 Y-64.874
X-138.247 Y-64.963
X-138.331 Y-64.985
X-138.415 Y-65.021
X-138.75 Y-65.171
X-138.834 Y-65.212
X-138.92 Y-65.273
X-139.151 Y-65.441
X-139.253 Y-65.516
X-139.344 Y-65.608
X-139.588 Y-65.879
X-139.642 Y-65.943
X-139.756 Y-66.135
X-139.839 Y-66.279
X-139.924 Y-66.431
X-139.93 Y-66.446
X-140.039 Y-66.781
X-140.091 Y-66.949
X-140.111 Y-67.116
X-140.146 Y-67.452
X-140.149 Y-67.494
X-140.147 Y-67.535
X-140.103 Y-67.954
X-140.091 Y-68.047
X-140.07 Y-68.122
X-139.961 Y-68.457
X-139.924 Y-68.568
X-139.895 Y-68.625
X-139.701 Y-68.96
X-139.654 Y-69.04
X-139.582 Y-69.127
X-139.421 Y-69.307
X-139.278 Y-69.463
X-139.253 Y-69.485
X-138.918 Y-69.729
X-138.818 Y-69.798
X-138.75 Y-69.829
X-138.415 Y-69.979
X-138.331 Y-70.015
X-138.247 Y-70.037
X-137.912 Y-70.108
X-137.785 Y-70.133
X-137.744 Y-70.136
X-137.409
X-137.241
X-137.214 Y-70.133
X-137.073 Y-70.105
X-136.738 Y-70.033
X-136.696 Y-70.023
X-136.654 Y-70.009
X-136.235 Y-69.823
X-136.183 Y-69.798
X-136.067 Y-69.718
X-135.9 Y-69.596
X-135.732 Y-69.473
X-135.721 Y-69.463
X-135.564 Y-69.29
X-135.396 Y-69.104
X-135.34 Y-69.032
X-135.105 Y-68.625
X-135.079 Y-68.575
X-135.061 Y-68.526
X-134.93 Y-68.122
X-134.907 Y-68.038
X-134.893 Y-67.923
X-134.853 Y-67.535
X-134.852 Y-67.494
X-134.854 Y-67.452
X-134.893 Y-67.077
X-134.909 Y-66.949
X-134.942 Y-66.842
G3 X-135.318 Y-66.639 I-0.3 J-0.105
G1 X-135.366 Y-66.665 Z-9.995
X-135.412 Y-66.69 Z-9.981
X-135.456 Y-66.713 Z-9.958
X-135.483 Y-66.754 Z-9.922
X-135.506 Y-66.789 Z-9.878
X-135.524 Y-66.816 Z-9.827
X-135.536 Y-66.834 Z-9.771
X-135.542 Y-66.844 Z-9.711
Y-66.845 Z-9.682
G0 Z5
X-137.26 Y-16.011
Z2.5
G3 X-137.74 Y-18.989 Z2.335 I-0.24 J-1.489 F333.3
X-137.26 Y-16.011 Z2.169 I0.24 J1.489
X-137.74 Y-18.989 Z2.004 I-0.24 J-1.489
X-137.26 Y-16.011 Z1.838 I0.24 J1.489
X-137.74 Y-18.989 Z1.673 I-0.24 J-1.489
X-137.26 Y-16.011 Z1.507 I0.24 J1.489
X-137.74 Y-18.989 Z1.342 I-0.24 J-1.489
X-137.26 Y-16.011 Z1.176 I0.24 J1.489
X-137.74 Y-18.989 Z1.011 I-0.24 J-1.489
X-137.26 Y-16.011 Z0.845 I0.24 J1.489
X-137.74 Y-18.989 Z0.68 I-0.24 J-1.489
X-137.26 Y-16.011 Z0.515 I0.24 J1.489
X-137.74 Y-18.989 Z0.349 I-0.24 J-1.489
X-137.26 Y-16.011 Z0.184 I0.24 J1.489
X-137.74 Y-18.989 Z0.018 I-0.24 J-1.489
X-137.26 Y-16.011 Z-0.147 I0.24 J1.489
X-137.74 Y-18.989 Z-0.313 I-0.24 J-1.489
X-137.26 Y-16.011 Z-0.478 I0.24 J1.489
X-137.74 Y-18.989 Z-0.644 I-0.24 J-1.489
X-137.26 Y-16.011 Z-0.809 I0.24 J1.489
X-137.74 Y-18.989 Z-0.974 I-0.24 J-1.489
X-137.26 Y-16.011 Z-1.14 I0.24 J1.489
X-137.74 Y-18.989 Z-1.305 I-0.24 J-1.489
X-137.26 Y-16.011 Z-1.471 I0.24 J1.489
X-137.74 Y-18.989 Z-1.636 I-0.24 J-1.489
X-137.26 Y-16.011 Z-1.802 I0.24 J1.489
X-137.74 Y-18.989 Z-1.967 I-0.24 J-1.489
X-137.26 Y-16.011 Z-2.133 I0.24 J1.489
X-137.74 Y-18.989 Z-2.298 I-0.24 J-1.489
X-137.26 Y-16.011 Z-2.464 I0.24 J1.489
X-137.74 Y-18.989 Z-2.629 I-0.24 J-1.489
X-137.26 Y-16.011 Z-2.794 I0.24 J1.489
X-137.74 Y-18.989 Z-2.96 I-0.24 J-1.489
X-137.26 Y-16.011 Z-3.125 I0.24 J1.489
X-137.74 Y-18.989 Z-3.291 I-0.24 J-1.489
X-137.26 Y-16.011 Z-3.456 I0.24 J1.489
X-137.74 Y-18.989 Z-3.622 I-0.24 J-1.489
X-137.26 Y-16.011 Z-3.787 I0.24 J1.489
X-137.74 Y-18.989 Z-3.953 I-0.24 J-1.489
X-137.26 Y-16.011 Z-4.118 I0.24 J1.489
X-137.74 Y-18.989 Z-4.284 I-0.24 J-1.489
X-137.26 Y-16.011 Z-4.449 I0.24 J1.489
X-137.74 Y-18.989 Z-4.614 I-0.24 J-1.489
X-137.26 Y-16.011 Z-4.78 I0.24 J1.489
X-137.74 Y-18.989 Z-4.945 I-0.24 J-1.489
X-137.26 Y-16.011 Z-5.111 I0.24 J1.489
X-137.74 Y-18.989 Z-5.276 I-0.24 J-1.489
X-137.26 Y-16.011 Z-5.442 I0.24 J1.489
X-137.74 Y-18.989 Z-5.607 I-0.24 J-1.489
X-137.26 Y-16.011 Z-5.773 I0.24 J1.489
X-137.74 Y-18.989 Z-5.938 I-0.24 J-1.489
X-137.26 Y-16.011 Z-6.103 I0.24 J1.489
X-137.74 Y-18.989 Z-6.269 I-0.24 J-1.489
X-137.26 Y-16.011 Z-6.434 I0.24 J1.489
X-137.74 Y-18.989 Z-6.6 I-0.24 J-1.489
X-137.26 Y-16.011 Z-6.765 I0.24 J1.489
X-137.74 Y-18.989 Z-6.931 I-0.24 J-1.489
X-137.26 Y-16.011 Z-7.096 I0.24 J1.489
X-137.74 Y-18.989 Z-7.262 I-0.24 J-1.489
X-137.26 Y-16.011 Z-7.427 I0.24 J1.489
X-137.74 Y-18.989 Z-7.593 I-0.24 J-1.489
X-137.26 Y-16.011 Z-7.758 I0.24 J1.489
X-137.74 Y-18.989 Z-7.923 I-0.24 J-1.489
X-137.26 Y-16.011 Z-8.089 I0.24 J1.489
X-137.74 Y-18.989 Z-8.254 I-0.24 J-1.489
X-137.26 Y-16.011 Z-8.42 I0.24 J1.489
X-137.74 Y-18.989 Z-8.585 I-0.24 J-1.489
X-137.26 Y-16.011 Z-8.751 I0.24 J1.489
X-137.74 Y-18.989 Z-8.916 I-0.24 J-1.489
X-137.26 Y-16.011 Z-9.082 I0.24 J1.489
X-137.74 Y-18.989 Z-9.247 I-0.24 J-1.489
X-137.26 Y-16.011 Z-9.413 I0.24 J1.489
X-137.74 Y-18.989 Z-9.578 I-0.24 J-1.489
X-137.26 Y-16.011 Z-9.743 I0.24 J1.489
X-137.74 Y-18.989 Z-9.909 I-0.24 J-1.489
X-135.992 Y-17.5 Z-10 I0.24 J1.489
X-139.008 I-1.508
X-135.992 I1.508
G1 X-135.973 Y-16.762 F1000
X-135.951 Y-16.673
X-135.935 Y-16.524
X-135.948 Y-16.374
X-135.984 Y-16.228
X-136.038 Y-16.089
X-136.11 Y-15.957
X-136.196 Y-15.834
X-136.294 Y-15.72
X-136.403 Y-15.617
X-136.52 Y-15.524
X-136.646 Y-15.442
X-136.778 Y-15.371
X-136.917 Y-15.311
X-137.063 Y-15.26
X-137.217 Y-15.221
X-137.377 Y-15.194
X-137.542 Y-15.179
X-137.711 Y-15.177
X-137.882 Y-15.189
X-138.054 Y-15.216
X-138.225 Y-15.256
X-138.395 Y-15.311
X-138.561 Y-15.379
X-138.723 Y-15.462
X-138.878 Y-15.558
X-139.027 Y-15.667
X-139.167 Y-15.789
X-139.298 Y-15.922
X-139.418 Y-16.066
X-139.527 Y-16.219
X-139.623 Y-16.382
X-139.707 Y-16.552
X-139.776 Y-16.729
X-139.832 Y-16.911
X-139.872 Y-17.098
X-139.898 Y-17.288
X-139.908 Y-17.479
X-139.903 Y-17.671
X-139.883 Y-17.862
X-139.847 Y-18.051
X-139.796 Y-18.237
X-139.73 Y-18.418
X-139.65 Y-18.594
X-139.556 Y-18.762
X-139.448 Y-18.923
X-139.328 Y-19.075
X-139.197 Y-19.216
X-139.054 Y-19.347
X-138.901 Y-19.465
X-138.739 Y-19.572
X-138.569 Y-19.664
X-138.392 Y-19.743
X-138.21 Y-19.808
X-138.022 Y-19.857
X-137.832 Y-19.892
X-137.639 Y-19.91
X-137.445 Y-19.914
X-137.251 Y-19.902
X-137.06 Y-19.874
X-136.87 Y-19.831
X-136.685 Y-19.773
X-136.506 Y-19.7
X-136.332 Y-19.614
X-136.166 Y-19.513
X-136.009 Y-19.4
X-135.862 Y-19.274
X-135.724 Y-19.137
X-135.599 Y-18.989
X-135.485 Y-18.832
X-135.381 Y-18.659
X-135.27 Y-18.437
X-135.123 Y-18.072
X-135.016 Y-17.729
X-134.952 Y-17.446
X-134.915 Y-17.191
X-134.91 Y-17.107
Y-17.014
X-134.922 Y-16.922
X-134.945 Y-16.832
X-135.061 Y-16.474
X-135.087 Y-16.407
X-135.319 Y-16.004
X-135.352 Y-15.95
X-135.396 Y-15.896
X-135.601 Y-15.669
X-135.732 Y-15.528
X-135.766 Y-15.501
X-136.151 Y-15.222
X-136.235 Y-15.177
X-136.636 Y-14.999
X-136.687 Y-14.979
X-136.738 Y-14.967
X-137.073 Y-14.895
X-137.241 Y-14.864
X-137.576
X-137.744
X-137.786 Y-14.867
X-137.828 Y-14.874
X-138.247 Y-14.963
X-138.305 Y-14.977
X-138.364 Y-14.999
X-138.75 Y-15.171
X-138.834 Y-15.212
X-138.918 Y-15.271
X-139.253 Y-15.515
X-139.274 Y-15.532
X-139.295 Y-15.553
X-139.588 Y-15.879
X-139.642 Y-15.942
X-139.681 Y-16.004
X-139.874 Y-16.339
X-139.924 Y-16.431
X-139.949 Y-16.507
X-140.058 Y-16.842
X-140.091 Y-16.954
X-140.099 Y-17.01
X-140.135 Y-17.345
X-140.148 Y-17.512
X-140.132 Y-17.68
X-140.097 Y-18.015
X-140.091 Y-18.05
X-140.05 Y-18.183
X-139.941 Y-18.518
X-139.924 Y-18.567
X-139.86 Y-18.685
X-139.666 Y-19.021
X-139.632 Y-19.071
X-139.528 Y-19.188
X-139.377 Y-19.356
X-139.253 Y-19.484
X-139.085 Y-19.607
X-138.918 Y-19.729
X-138.834 Y-19.789
X-138.75 Y-19.829
X-138.415 Y-19.979
X-138.294 Y-20.026
X-138.079 Y-20.072
X-137.828 Y-20.126
X-137.786 Y-20.133
X-137.744 Y-20.136
X-137.409 Y-20.137
X-137.241 Y-20.136
X-137.073 Y-20.105
X-136.704 Y-20.026
X-136.671 Y-20.016
X-136.637 Y-20.002
X-136.193 Y-19.804
X-136.151 Y-19.779
X-135.799 Y-19.523
X-135.732 Y-19.473
X-135.623 Y-19.356
X-135.396 Y-19.104
X-135.361 Y-19.062
X-135.334 Y-19.021
X-135.094 Y-18.606
X-135.076 Y-18.566
X-135.059 Y-18.518
X-134.922 Y-18.099
X-134.91 Y-18.057
X-134.903 Y-18.015
X-134.868 Y-17.68
X-134.851 Y-17.512
X-134.865 Y-17.345
X-134.901 Y-17.01
X-134.906 Y-16.968
X-134.915 Y-16.926
X-134.945 Y-16.832
G3 X-135.322 Y-16.633 I-0.298 J-0.109
G1 X-135.37 Y-16.66 Z-9.995
X-135.416 Y-16.685 Z-9.981
X-135.46 Y-16.709 Z-9.958
X-135.486 Y-16.75 Z-9.922
X-135.509 Y-16.785 Z-9.878
X-135.526 Y-16.812 Z-9.827
X-135.538 Y-16.831 Z-9.771
X-135.544 Y-16.84 Z-9.711
X-135.545 Y-16.841 Z-9.682
G0 Z5
X-137.26 Y33.99
Z2.5
G3 X-137.74 Y31.012 Z2.335 I-0.24 J-1.489 F333.3
X-137.26 Y33.99 Z2.169 I0.24 J1.489
X-137.74 Y31.012 Z2.004 I-0.24 J-1.489
X-137.26 Y33.99 Z1.838 I0.24 J1.489
X-137.74 Y31.012 Z1.673 I-0.24 J-1.489
X-137.26 Y33.99 Z1.507 I0.24 J1.489
X-137.74 Y31.012 Z1.342 I-0.24 J-1.489
X-137.26 Y33.99 Z1.176 I0.24 J1.489
X-137.74 Y31.012 Z1.011 I-0.24 J-1.489
X-137.26 Y33.99 Z0.845 I0.24 J1.489
X-137.74 Y31.012 Z0.68 I-0.24 J-1.489
X-137.26 Y33.99 Z0.515 I0.24 J1.489
X-137.74 Y31.012 Z0.349 I-0.24 J-1.489
X-137.26 Y33.99 Z0.184 I0.24 J1.489
X-137.74 Y31.012 Z0.018 I-0.24 J-1.489
X-137.26 Y33.99 Z-0.147 I0.24 J1.489
X-137.74 Y31.012 Z-0.313 I-0.24 J-1.489
X-137.26 Y33.99 Z-0.478 I0.24 J1.489
X-137.74 Y31.012 Z-0.644 I-0.24 J-1.489
X-137.26 Y33.99 Z-0.809 I0.24 J1.489
X-137.74 Y31.012 Z-0.974 I-0.24 J-1.489
X-137.26 Y33.99 Z-1.14 I0.24 J1.489
X-137.74 Y31.012 Z-1.305 I-0.24 J-1.489
X-137.26 Y33.99 Z-1.471 I0.24 J1.489
X-137.74 Y31.012 Z-1.636 I-0.24 J-1.489
X-137.26 Y33.99 Z-1.802 I0.24 J1.489
X-137.74 Y31.012 Z-1.967 I-0.24 J-1.489
X-137.26 Y33.99 Z-2.133 I0.24 J1.489
X-137.74 Y31.012 Z-2.298 I-0.24 J-1.489
X-137.26 Y33.99 Z-2.464 I0.24 J1.489
X-137.74 Y31.012 Z-2.629 I-0.24 J-1.489
X-137.26 Y33.99 Z-2.794 I0.24 J1.489
X-137.74 Y31.012 Z-2.96 I-0.24 J-1.489
X-137.26 Y33.99 Z-3.125 I0.24 J1.489
X-137.74 Y31.012 Z-3.291 I-0.24 J-1.489
X-137.26 Y33.99 Z-3.456 I0.24 J1.489
X-137.74 Y31.012 Z-3.622 I-0.24 J-1.489
X-137.26 Y33.99 Z-3.787 I0.24 J1.489
X-137.74 Y31.012 Z-3.953 I-0.24 J-1.489
X-137.26 Y33.99 Z-4.118 I0.24 J1.489
X-137.74 Y31.012 Z-4.284 I-0.24 J-1.489
X-137.26 Y33.99 Z-4.449 I0.24 J1.489
X-137.74 Y31.012 Z-4.614 I-0.24 J-1.489
X-137.26 Y33.99 Z-4.78 I0.24 J1.489
X-137.74 Y31.012 Z-4.945 I-0.24 J-1.489
X-137.26 Y33.99 Z-5.111 I0.24 J1.489
X-137.74 Y31.012 Z-5.276 I-0.24 J-1.489
X-137.26 Y33.99 Z-5.442 I0.24 J1.489
X-137.74 Y31.012 Z-5.607 I-0.24 J-1.489
X-137.26 Y33.99 Z-5.773 I0.24 J1.489
X-137.74 Y31.012 Z-5.938 I-0.24 J-1.489
X-137.26 Y33.99 Z-6.103 I0.24 J1.489
X-137.74 Y31.012 Z-6.269 I-0.24 J-1.489
X-137.26 Y33.99 Z-6.434 I0.24 J1.489
X-137.74 Y31.012 Z-6.6 I-0.24 J-1.489
X-137.26 Y33.99 Z-6.765 I0.24 J1.489
X-137.74 Y31.012 Z-6.931 I-0.24 J-1.489
X-137.26 Y33.99 Z-7.096 I0.24 J1.489
X-137.74 Y31.012 Z-7.262 I-0.24 J-1.489
X-137.26 Y33.99 Z-7.427 I0.24 J1.489
X-137.74 Y31.012 Z-7.593 I-0.24 J-1.489
X-137.26 Y33.99 Z-7.758 I0.24 J1.489
X-137.74 Y31.012 Z-7.923 I-0.24 J-1.489
X-137.26 Y33.99 Z-8.089 I0.24 J1.489
X-137.74 Y31.012 Z-8.254 I-0.24 J-1.489
X-137.26 Y33.99 Z-8.42 I0.24 J1.489
X-137.74 Y31.012 Z-8.585 I-0.24 J-1.489
X-137.26 Y33.99 Z-8.751 I0.24 J1.489
X-137.74 Y31.012 Z-8.916 I-0.24 J-1.489
X-137.26 Y33.99 Z-9.082 I0.24 J1.489
X-137.74 Y31.012 Z-9.247 I-0.24 J-1.489
X-137.26 Y33.99 Z-9.413 I0.24 J1.489
X-137.74 Y31.012 Z-9.578 I-0.24 J-1.489
X-137.26 Y33.99 Z-9.743 I0.24 J1.489
X-137.74 Y31.012 Z-9.909 I-0.24 J-1.489
X-135.992 Y32.501 Z-10 I0.24 J1.489
X-139.008 I-1.508
X-135.992 I1.508
G1 X-135.973 Y33.238 F1000
X-135.951 Y33.328
X-135.935 Y33.477
X-135.948 Y33.626
X-135.984 Y33.772
X-136.038 Y33.912
X-136.11 Y34.044
X-136.196 Y34.167
X-136.294 Y34.28
X-136.403 Y34.383
X-136.52 Y34.476
X-136.646 Y34.558
X-136.778 Y34.629
X-136.917 Y34.69
X-137.063 Y34.74
X-137.217 Y34.779
X-137.377 Y34.807
X-137.542 Y34.822
X-137.711 Y34.823
X-137.882 Y34.811
X-138.054 Y34.785
X-138.225 Y34.745
X-138.395 Y34.69
X-138.561 Y34.621
X-138.723 Y34.538
X-138.878 Y34.442
X-139.027 Y34.333
X-139.167 Y34.212
X-139.298 Y34.079
X-139.418 Y33.935
X-139.527 Y33.781
X-139.623 Y33.619
X-139.707 Y33.449
X-139.776 Y33.272
X-139.832 Y33.089
X-139.872 Y32.903
X-139.898 Y32.713
X-139.908 Y32.522
X-139.903 Y32.33
X-139.883 Y32.138
X-139.847 Y31.949
X-139.796 Y31.764
X-139.73 Y31.582
X-139.65 Y31.407
X-139.556 Y31.238
X-139.448 Y31.077
X-139.328 Y30.926
X-139.197 Y30.784
X-139.054 Y30.654
X-138.901 Y30.535
X-138.739 Y30.429
X-138.569 Y30.336
X-138.392 Y30.257
X-138.21 Y30.193
X-138.022 Y30.143
X-137.832 Y30.109
X-137.639 Y30.09
X-137.445 Y30.087
X-137.251 Y30.099
X-137.06 Y30.126
X-136.87 Y30.169
X-136.685 Y30.227
X-136.506 Y30.3
X-136.332 Y30.387
X-136.166 Y30.487
X-136.009 Y30.601
X-135.862 Y30.727
X-135.724 Y30.864
X-135.599 Y31.012
X-135.485 Y31.169
X-135.381 Y31.342
X-135.27 Y31.564
X-135.123 Y31.929
X-135.016 Y32.272
X-134.952 Y32.554
X-134.915 Y32.81
X-134.91 Y32.893
Y32.986
X-134.922 Y33.078
X-134.945 Y33.168
X-135.061 Y33.526
X-135.091 Y33.6
X-135.333 Y34.019
X-135.361 Y34.061
X-135.396 Y34.104
X-135.697 Y34.438
X-135.732 Y34.471
X-135.912 Y34.606
X-136.143 Y34.773
X-136.189 Y34.802
X-136.235 Y34.823
X-136.654 Y35.01
X-136.696 Y35.024
X-137.09 Y35.108
X-137.241 Y35.136
X-137.576
X-137.744
X-137.785 Y35.133
X-137.827 Y35.126
X-138.247 Y35.037
X-138.331 Y35.016
X-138.501 Y34.941
X-138.803 Y34.806
X-138.857 Y34.773
X-139.088 Y34.606
X-139.253 Y34.484
X-139.303 Y34.438
X-139.604 Y34.103
X-139.64 Y34.061
X-139.667 Y34.019
X-139.909 Y33.6
X-139.924 Y33.568
X-139.969 Y33.433
X-140.078 Y33.097
X-140.091 Y33.05
X-140.106 Y32.93
X-140.141 Y32.595
X-140.148 Y32.511
X-140.143 Y32.427
X-140.108 Y32.092
X-140.091 Y31.953
X-140.085 Y31.924
X-139.976 Y31.589
X-139.924 Y31.431
X-139.92 Y31.422
X-139.825 Y31.254
X-139.655 Y30.961
X-139.624 Y30.919
X-139.322 Y30.584
X-139.253 Y30.515
X-138.887 Y30.249
X-138.818 Y30.203
X-138.75 Y30.17
X-138.415 Y30.021
X-138.331 Y29.985
X-138.247 Y29.963
X-137.828 Y29.874
X-137.786 Y29.867
X-137.744 Y29.864
X-137.409
X-137.241
X-137.073 Y29.895
X-136.738 Y29.966
X-136.696 Y29.976
X-136.654 Y29.99
X-136.235 Y30.177
X-136.174 Y30.207
X-136.113 Y30.249
X-135.883 Y30.416
X-135.732 Y30.528
X-135.678 Y30.584
X-135.376 Y30.919
X-135.345 Y30.961
X-135.175 Y31.254
X-135.08 Y31.422
X-135.061 Y31.474
X-134.915 Y31.924
X-134.906 Y31.962
X-134.892 Y32.092
X-134.857 Y32.427
X-134.851 Y32.511
X-134.859 Y32.595
X-134.903 Y33.014
X-134.91 Y33.056
X-134.922 Y33.097
X-134.945 Y33.168
G3 X-135.322 Y33.367 I-0.298 J-0.109
G1 X-135.37 Y33.341 Z-9.995
X-135.416 Y33.316 Z-9.981
X-135.46 Y33.292 Z-9.958
X-135.486 Y33.25 Z-9.922
X-135.509 Y33.215 Z-9.878
X-135.526 Y33.188 Z-9.827
X-135.538 Y33.169 Z-9.771
X-135.544 Y33.16 Z-9.711
X-135.545 Y33.159 Z-9.682
G0 Z5
X-137.261 Y83.989
Z2.5
G3 X-137.74 Y81.011 Z2.335 I-0.24 J-1.489 F333.3
X-137.261 Y83.989 Z2.169 I0.24 J1.489
X-137.74 Y81.011 Z2.004 I-0.24 J-1.489
X-137.261 Y83.989 Z1.838 I0.24 J1.489
X-137.74 Y81.011 Z1.673 I-0.24 J-1.489
X-137.261 Y83.989 Z1.507 I0.24 J1.489
X-137.74 Y81.011 Z1.342 I-0.24 J-1.489
X-137.261 Y83.989 Z1.176 I0.24 J1.489
X-137.74 Y81.011 Z1.011 I-0.24 J-1.489
X-137.261 Y83.989 Z0.845 I0.24 J1.489
X-137.74 Y81.011 Z0.68 I-0.24 J-1.489
X-137.261 Y83.989 Z0.515 I0.24 J1.489
X-137.74 Y81.011 Z0.349 I-0.24 J-1.489
X-137.261 Y83.989 Z0.184 I0.24 J1.489
X-137.74 Y81.011 Z0.018 I-0.24 J-1.489
X-137.261 Y83.989 Z-0.147 I0.24 J1.489
X-137.74 Y81.011 Z-0.313 I-0.24 J-1.489
X-137.261 Y83.989 Z-0.478 I0.24 J1.489
X-137.74 Y81.011 Z-0.644 I-0.24 J-1.489
X-137.261 Y83.989 Z-0.809 I0.24 J1.489
X-137.74 Y81.011 Z-0.974 I-0.24 J-1.489
X-137.261 Y83.989 Z-1.14 I0.24 J1.489
X-137.74 Y81.011 Z-1.305 I-0.24 J-1.489
X-137.261 Y83.989 Z-1.471 I0.24 J1.489
X-137.74 Y81.011 Z-1.636 I-0.24 J-1.489
X-137.261 Y83.989 Z-1.802 I0.24 J1.489
X-137.74 Y81.011 Z-1.967 I-0.24 J-1.489
X-137.261 Y83.989 Z-2.133 I0.24 J1.489
X-137.74 Y81.011 Z-2.298 I-0.24 J-1.489
X-137.261 Y83.989 Z-2.464 I0.24 J1.489
X-137.74 Y81.011 Z-2.629 I-0.24 J-1.489
X-137.261 Y83.989 Z-2.794 I0.24 J1.489
X-137.74 Y81.011 Z-2.96 I-0.24 J-1.489
X-137.261 Y83.989 Z-3.125 I0.24 J1.489
X-137.74 Y81.011 Z-3.291 I-0.24 J-1.489
X-137.261 Y83.989 Z-3.456 I0.24 J1.489
X-137.74 Y81.011 Z-3.622 I-0.24 J-1.489
X-137.261 Y83.989 Z-3.787 I0.24 J1.489
X-137.74 Y81.011 Z-3.953 I-0.24 J-1.489
X-137.261 Y83.989 Z-4.118 I0.24 J1.489
X-137.74 Y81.011 Z-4.284 I-0.24 J-1.489
X-137.261 Y83.989 Z-4.449 I0.24 J1.489
X-137.74 Y81.011 Z-4.614 I-0.24 J-1.489
X-137.261 Y83.989 Z-4.78 I0.24 J1.489
X-137.74 Y81.011 Z-4.945 I-0.24 J-1.489
X-137.261 Y83.989 Z-5.111 I0.24 J1.489
X-137.74 Y81.011 Z-5.276 I-0.24 J-1.489
X-137.261 Y83.989 Z-5.442 I0.24 J1.489
X-137.74 Y81.011 Z-5.607 I-0.24 J-1.489
X-137.261 Y83.989 Z-5.773 I0.24 J1.489
X-137.74 Y81.011 Z-5.938 I-0.24 J-1.489
X-137.261 Y83.989 Z-6.103 I0.24 J1.489
X-137.74 Y81.011 Z-6.269 I-0.24 J-1.489
X-137.261 Y83.989 Z-6.434 I0.24 J1.489
X-137.74 Y81.011 Z-6.6 I-0.24 J-1.489
X-137.261 Y83.989 Z-6.765 I0.24 J1.489
X-137.74 Y81.011 Z-6.931 I-0.24 J-1.489
X-137.261 Y83.989 Z-7.096 I0.24 J1.489
X-137.74 Y81.011 Z-7.262 I-0.24 J-1.489
X-137.261 Y83.989 Z-7.427 I0.24 J1.489
X-137.74 Y81.011 Z-7.593 I-0.24 J-1.489
X-137.261 Y83.989 Z-7.758 I0.24 J1.489
X-137.74 Y81.011 Z-7.923 I-0.24 J-1.489
X-137.261 Y83.989 Z-8.089 I0.24 J1.489
X-137.74 Y81.011 Z-8.254 I-0.24 J-1.489
X-137.261 Y83.989 Z-8.42 I0.24 J1.489
X-137.74 Y81.011 Z-8.585 I-0.24 J-1.489
X-137.261 Y83.989 Z-8.751 I0.24 J1.489
X-137.74 Y81.011 Z-8.916 I-0.24 J-1.489
X-137.261 Y83.989 Z-9.082 I0.24 J1.489
X-137.74 Y81.011 Z-9.247 I-0.24 J-1.489
X-137.261 Y83.989 Z-9.413 I0.24 J1.489
X-137.74 Y81.011 Z-9.578 I-0.24 J-1.489
X-137.261 Y83.989 Z-9.743 I0.24 J1.489
X-137.74 Y81.011 Z-9.909 I-0.24 J-1.489
X-135.992 Y82.5 Z-10 I0.24 J1.489
X-139.008 I-1.508
X-135.992 I1.508
G1 X-135.973 Y83.238 F1000
X-135.951 Y83.327
X-135.936 Y83.476
X-135.948 Y83.626
X-135.984 Y83.772
X-136.038 Y83.911
X-136.11 Y84.043
X-136.196 Y84.166
X-136.294 Y84.28
X-136.403 Y84.383
X-136.52 Y84.476
X-136.646 Y84.558
X-136.778 Y84.629
X-136.917 Y84.689
X-137.063 Y84.74
X-137.217 Y84.779
X-137.377 Y84.806
X-137.542 Y84.821
X-137.711 Y84.823
X-137.882 Y84.811
X-138.054 Y84.785
X-138.225 Y84.744
X-138.395 Y84.689
X-138.561 Y84.621
X-138.723 Y84.538
X-138.878 Y84.442
X-139.027 Y84.333
X-139.167 Y84.211
X-139.298 Y84.078
X-139.418 Y83.934
X-139.527 Y83.781
X-139.623 Y83.618
X-139.707 Y83.448
X-139.776 Y83.271
X-139.832 Y83.089
X-139.872 Y82.902
X-139.898 Y82.713
X-139.908 Y82.521
X-139.903 Y82.329
X-139.883 Y82.138
X-139.847 Y81.949
X-139.796 Y81.763
X-139.73 Y81.582
X-139.65 Y81.406
X-139.556 Y81.238
X-139.448 Y81.077
X-139.329 Y80.925
X-139.197 Y80.784
X-139.054 Y80.653
X-138.901 Y80.535
X-138.739 Y80.429
X-138.569 Y80.336
X-138.392 Y80.257
X-138.21 Y80.192
X-138.022 Y80.143
X-137.832 Y80.109
X-137.639 Y80.09
X-137.445 Y80.086
X-137.251 Y80.098
X-137.06 Y80.126
X-136.87 Y80.169
X-136.685 Y80.227
X-136.506 Y80.3
X-136.332 Y80.386
X-136.166 Y80.487
X-136.009 Y80.6
X-135.862 Y80.726
X-135.725 Y80.863
X-135.599 Y81.011
X-135.486 Y81.168
X-135.381 Y81.341
X-135.27 Y81.564
X-135.123 Y81.928
X-135.016 Y82.271
X-134.952 Y82.554
X-134.915 Y82.809
X-134.91 Y82.89
Y82.977
X-134.92 Y83.064
X-134.94 Y83.149
X-134.957 Y83.204
X-135.066 Y83.54
X-135.082 Y83.581
X-135.104 Y83.623
X-135.347 Y84.042
X-135.396 Y84.104
X-135.643 Y84.377
X-135.732 Y84.472
X-135.829 Y84.545
X-136.151 Y84.778
X-136.235 Y84.823
X-136.654 Y85.01
X-136.696 Y85.024
X-136.738 Y85.034
X-137.073 Y85.105
X-137.241 Y85.136
X-137.576
X-137.744
X-137.786 Y85.133
X-137.828 Y85.126
X-138.247 Y85.037
X-138.331 Y85.015
X-138.415 Y84.979
X-138.75 Y84.83
X-138.834 Y84.788
X-138.94 Y84.713
X-139.253 Y84.485
X-139.357 Y84.377
X-139.588 Y84.121
X-139.653 Y84.042
X-139.847 Y83.707
X-139.924 Y83.568
X-139.934 Y83.54
X-140.043 Y83.204
X-140.091 Y83.048
X-140.093 Y83.037
X-140.112 Y82.869
X-140.147 Y82.534
X-140.149 Y82.492
X-140.146 Y82.45
X-140.102 Y82.031
X-140.091 Y81.952
X-140.065 Y81.864
X-139.957 Y81.529
X-139.924 Y81.432
X-139.887 Y81.361
X-139.693 Y81.026
X-139.649 Y80.952
X-139.588 Y80.879
X-139.419 Y80.691
X-139.262 Y80.523
X-139.253 Y80.515
X-138.854 Y80.225
X-138.79 Y80.188
X-138.413 Y80.02
X-138.33 Y79.984
X-138.247 Y79.963
X-137.828 Y79.874
X-137.786 Y79.867
X-137.744 Y79.864
X-137.409
X-137.241
X-137.073 Y79.895
X-136.738 Y79.966
X-136.662 Y79.987
X-136.403 Y80.102
X-136.21 Y80.188
X-136.174 Y80.206
X-136.139 Y80.23
X-135.9 Y80.404
X-135.732 Y80.527
X-135.564 Y80.71
X-135.396 Y80.896
X-135.345 Y80.961
X-135.307 Y81.026
X-135.113 Y81.361
X-135.083 Y81.418
X-135.061 Y81.474
X-134.935 Y81.864
X-134.909 Y81.947
X-134.898 Y82.031
X-134.854 Y82.45
X-134.851 Y82.492
X-134.853 Y82.534
X-134.893 Y82.923
X-134.906 Y83.037
X-134.94 Y83.149
G3 X-135.313 Y83.356 I-0.301 J-0.102
G1 X-135.361 Y83.331 Z-9.995
X-135.408 Y83.307 Z-9.981
X-135.452 Y83.284 Z-9.958
X-135.479 Y83.243 Z-9.922
X-135.503 Y83.209 Z-9.878
X-135.521 Y83.182 Z-9.827
X-135.533 Y83.164 Z-9.771
X-135.539 Y83.155 Z-9.711
X-135.54 Y83.153 Z-9.682
G0 Z5
X-87.261 Y-66.011
Z2.5
G3 X-87.74 Y-68.989 Z2.335 I-0.24 J-1.489 F333.3
X-87.261 Y-66.011 Z2.169 I0.24 J1.489
X-87.74 Y-68.989 Z2.004 I-0.24 J-1.489
X-87.261 Y-66.011 Z1.838 I0.24 J1.489
X-87.74 Y-68.989 Z1.673 I-0.24 J-1.489
X-87.261 Y-66.011 Z1.507 I0.24 J1.489
X-87.74 Y-68.989 Z1.342 I-0.24 J-1.489
X-87.261 Y-66.011 Z1.176 I0.24 J1.489
X-87.74 Y-68.989 Z1.011 I-0.24 J-1.489
X-87.261 Y-66.011 Z0.845 I0.24 J1.489
X-87.74 Y-68.989 Z0.68 I-0.24 J-1.489
X-87.261 Y-66.011 Z0.515 I0.24 J1.489
X-87.74 Y-68.989 Z0.349 I-0.24 J-1.489
X-87.261 Y-66.011 Z0.184 I0.24 J1.489
X-87.74 Y-68.989 Z0.018 I-0.24 J-1.489
X-87.261 Y-66.011 Z-0.147 I0.24 J1.489
X-87.74 Y-68.989 Z-0.313 I-0.24 J-1.489
X-87.261 Y-66.011 Z-0.478 I0.24 J1.489
X-87.74 Y-68.989 Z-0.644 I-0.24 J-1.489
X-87.261 Y-66.011 Z-0.809 I0.24 J1.489
X-87.74 Y-68.989 Z-0.974 I-0.24 J-1.489
X-87.261 Y-66.011 Z-1.14 I0.24 J1.489
X-87.74 Y-68.989 Z-1.305 I-0.24 J-1.489
X-87.261 Y-66.011 Z-1.471 I0.24 J1.489
X-87.74 Y-68.989 Z-1.636 I-0.24 J-1.489
X-87.261 Y-66.011 Z-1.802 I0.24 J1.489
X-87.74 Y-68.989 Z-1.967 I-0.24 J-1.489
X-87.261 Y-66.011 Z-2.133 I0.24 J1.489
X-87.74 Y-68.989 Z-2.298 I-0.24 J-1.489
X-87.261 Y-66.011 Z-2.464 I0.24 J1.489
X-87.74 Y-68.989 Z-2.629 I-0.24 J-1.489
X-87.261 Y-66.011 Z-2.794 I0.24 J1.489
X-87.74 Y-68.989 Z-2.96 I-0.24 J-1.489
X-87.261 Y-66.011 Z-3.125 I0.24 J1.489
X-87.74 Y-68.989 Z-3.291 I-0.24 J-1.489
X-87.261 Y-66.011 Z-3.456 I0.24 J1.489
X-87.74 Y-68.989 Z-3.622 I-0.24 J-1.489
X-87.261 Y-66.011 Z-3.787 I0.24 J1.489
X-87.74 Y-68.989 Z-3.953 I-0.24 J-1.489
X-87.261 Y-66.011 Z-4.118 I0.24 J1.489
X-87.74 Y-68.989 Z-4.284 I-0.24 J-1.489
X-87.261 Y-66.011 Z-4.449 I0.24 J1.489
X-87.74 Y-68.989 Z-4.614 I-0.24 J-1.489
X-87.261 Y-66.011 Z-4.78 I0.24 J1.489
X-87.74 Y-68.989 Z-4.945 I-0.24 J-1.489
X-87.261 Y-66.011 Z-5.111 I0.24 J1.489
X-87.74 Y-68.989 Z-5.276 I-0.24 J-1.489
X-87.261 Y-66.011 Z-5.442 I0.24 J1.489
X-87.74 Y-68.989 Z-5.607 I-0.24 J-1.489
X-87.261 Y-66.011 Z-5.773 I0.24 J1.489
X-87.74 Y-68.989 Z-5.938 I-0.24 J-1.489
X-87.261 Y-66.011 Z-6.103 I0.24 J1.489
X-87.74 Y-68.989 Z-6.269 I-0.24 J-1.489
X-87.261 Y-66.011 Z-6.434 I0.24 J1.489
X-87.74 Y-68.989 Z-6.6 I-0.24 J-1.489
X-87.261 Y-66.011 Z-6.765 I0.24 J1.489
X-87.74 Y-68.989 Z-6.931 I-0.24 J-1.489
X-87.261 Y-66.011 Z-7.096 I0.24 J1.489
X-87.74 Y-68.989 Z-7.262 I-0.24 J-1.489
X-87.261 Y-66.011 Z-7.427 I0.24 J1.489
X-87.74 Y-68.989 Z-7.593 I-0.24 J-1.489
X-87.261 Y-66.011 Z-7.758 I0.24 J1.489
X-87.74 Y-68.989 Z-7.923 I-0.24 J-1.489
X-87.261 Y-66.011 Z-8.089 I0.24 J1.489
X-87.74 Y-68.989 Z-8.254 I-0.24 J-1.489
X-87.261 Y-66.011 Z-8.42 I0.24 J1.489
X-87.74 Y-68.989 Z-8.585 I-0.24 J-1.489
X-87.261 Y-66.011 Z-8.751 I0.24 J1.489
X-87.74 Y-68.989 Z-8.916 I-0.24 J-1.489
X-87.261 Y-66.011 Z-9.082 I0.24 J1.489
X-87.74 Y-68.989 Z-9.247 I-0.24 J-1.489
X-87.261 Y-66.011 Z-9.413 I0.24 J1.489
X-87.74 Y-68.989 Z-9.578 I-0.24 J-1.489
X-87.261 Y-66.011 Z-9.743 I0.24 J1.489
X-87.74 Y-68.989 Z-9.909 I-0.24 J-1.489
X-85.992 Y-67.5 Z-10 I0.24 J1.489
X-89.008 I-1.508
X-85.992 I1.508
G1 X-85.973 Y-66.762 F1000
X-85.951 Y-66.672
X-85.936 Y-66.523
X-85.948 Y-66.374
X-85.984 Y-66.228
X-86.039 Y-66.088
X-86.11 Y-65.957
X-86.196 Y-65.834
X-86.294 Y-65.72
X-86.403 Y-65.617
X-86.521 Y-65.524
X-86.646 Y-65.442
X-86.778 Y-65.371
X-86.917 Y-65.311
X-87.064 Y-65.26
X-87.217 Y-65.221
X-87.378 Y-65.193
X-87.543 Y-65.178
X-87.711 Y-65.177
X-87.882 Y-65.189
X-88.054 Y-65.215
X-88.225 Y-65.256
X-88.395 Y-65.31
X-88.561 Y-65.379
X-88.723 Y-65.462
X-88.879 Y-65.558
X-89.027 Y-65.667
X-89.167 Y-65.788
X-89.298 Y-65.921
X-89.418 Y-66.065
X-89.527 Y-66.219
X-89.624 Y-66.381
X-89.707 Y-66.552
X-89.777 Y-66.729
X-89.832 Y-66.911
X-89.873 Y-67.098
X-89.898 Y-67.287
X-89.908 Y-67.479
X-89.903 Y-67.671
X-89.883 Y-67.862
X-89.847 Y-68.051
X-89.796 Y-68.237
X-89.73 Y-68.418
X-89.65 Y-68.593
X-89.556 Y-68.762
X-89.449 Y-68.923
X-89.329 Y-69.074
X-89.197 Y-69.216
X-89.054 Y-69.346
X-88.901 Y-69.465
X-88.739 Y-69.571
X-88.569 Y-69.664
X-88.392 Y-69.743
X-88.21 Y-69.807
X-88.022 Y-69.857
X-87.832 Y-69.891
X-87.639 Y-69.91
X-87.445 Y-69.914
X-87.252 Y-69.901
X-87.06 Y-69.874
X-86.871 Y-69.831
X-86.686 Y-69.773
X-86.506 Y-69.7
X-86.332 Y-69.613
X-86.167 Y-69.513
X-86.009 Y-69.399
X-85.862 Y-69.274
X-85.725 Y-69.136
X-85.599 Y-68.989
X-85.486 Y-68.831
X-85.381 Y-68.659
X-85.27 Y-68.436
X-85.123 Y-68.072
X-85.016 Y-67.729
X-84.952 Y-67.446
X-84.915 Y-67.19
X-84.91 Y-67.107
Y-67.014
X-84.922 Y-66.922
X-84.945 Y-66.832
X-85.071 Y-66.446
X-85.094 Y-66.395
X-85.262 Y-66.103
X-85.357 Y-65.943
X-85.43 Y-65.859
X-85.656 Y-65.608
X-85.71 Y-65.549
X-85.765 Y-65.502
X-86.1 Y-65.258
X-86.184 Y-65.202
X-86.268 Y-65.162
X-86.603 Y-65.013
X-86.687 Y-64.979
X-86.771 Y-64.959
X-87.19 Y-64.871
X-87.274 Y-64.864
X-87.609
X-87.777 Y-64.866
X-87.945 Y-64.899
X-88.28 Y-64.971
X-88.322 Y-64.982
X-88.364 Y-64.999
X-88.783 Y-65.185
X-88.817 Y-65.202
X-88.852 Y-65.223
X-89.151 Y-65.441
X-89.286 Y-65.545
X-89.454 Y-65.73
X-89.622 Y-65.916
X-89.643 Y-65.943
X-89.742 Y-66.111
X-89.839 Y-66.279
X-89.929 Y-66.446
X-90.038 Y-66.781
X-90.091 Y-66.949
X-90.111 Y-67.116
X-90.146 Y-67.452
X-90.149 Y-67.494
X-90.147 Y-67.535
X-90.103 Y-67.954
X-90.093 Y-68.038
X-90.07 Y-68.122
X-89.932 Y-68.547
X-89.915 Y-68.586
X-89.895 Y-68.625
X-89.666 Y-69.022
X-89.646 Y-69.053
X-89.622 Y-69.084
X-89.286 Y-69.455
X-89.279 Y-69.463
X-89.119 Y-69.583
X-88.951 Y-69.705
X-88.817 Y-69.798
X-88.783 Y-69.815
X-88.362 Y-70.002
X-88.321 Y-70.019
X-88.28 Y-70.029
X-87.945 Y-70.101
X-87.787 Y-70.133
X-87.777 Y-70.134
X-87.609 Y-70.136
X-87.274
X-87.215 Y-70.133
X-87.106 Y-70.112
X-86.771 Y-70.041
X-86.687 Y-70.021
X-86.603 Y-69.987
X-86.268 Y-69.838
X-86.182 Y-69.798
X-86.1 Y-69.742
X-85.765 Y-69.498
X-85.722 Y-69.463
X-85.569 Y-69.295
X-85.418 Y-69.127
X-85.348 Y-69.044
X-85.262 Y-68.897
X-85.094 Y-68.606
X-85.076 Y-68.568
X-85.063 Y-68.531
X-84.927 Y-68.111
X-84.906 Y-68.033
X-84.897 Y-67.954
X-84.853 Y-67.535
X-84.851 Y-67.494
X-84.854 Y-67.452
X-84.889 Y-67.116
X-84.909 Y-66.949
X-84.927 Y-66.889
X-84.945 Y-66.832
G3 X-85.323 Y-66.633 I-0.298 J-0.109
G1 X-85.37 Y-66.66 Z-9.995
X-85.416 Y-66.685 Z-9.981
X-85.46 Y-66.709 Z-9.958
X-85.486 Y-66.75 Z-9.922
X-85.509 Y-66.785 Z-9.878
X-85.527 Y-66.812 Z-9.827
X-85.539 Y-66.831 Z-9.771
X-85.545 Y-66.84 Z-9.711
Y-66.841 Z-9.682
G0 Z5
X-87.26 Y-16.012
Z2.5
G3 X-87.739 Y-18.989 Z2.335 I-0.24 J-1.489 F333.3
X-87.26 Y-16.012 Z2.169 I0.24 J1.489
X-87.739 Y-18.989 Z2.004 I-0.24 J-1.489
X-87.26 Y-16.012 Z1.838 I0.24 J1.489
X-87.739 Y-18.989 Z1.673 I-0.24 J-1.489
X-87.26 Y-16.012 Z1.507 I0.24 J1.489
X-87.739 Y-18.989 Z1.342 I-0.24 J-1.489
X-87.26 Y-16.012 Z1.176 I0.24 J1.489
X-87.739 Y-18.989 Z1.011 I-0.24 J-1.489
X-87.26 Y-16.012 Z0.845 I0.24 J1.489
X-87.739 Y-18.989 Z0.68 I-0.24 J-1.489
X-87.26 Y-16.012 Z0.515 I0.24 J1.489
X-87.739 Y-18.989 Z0.349 I-0.24 J-1.489
X-87.26 Y-16.012 Z0.184 I0.24 J1.489
X-87.739 Y-18.989 Z0.018 I-0.24 J-1.489
X-87.26 Y-16.012 Z-0.147 I0.24 J1.489
X-87.739 Y-18.989 Z-0.313 I-0.24 J-1.489
X-87.26 Y-16.012 Z-0.478 I0.24 J1.489
X-87.739 Y-18.989 Z-0.644 I-0.24 J-1.489
X-87.26 Y-16.012 Z-0.809 I0.24 J1.489
X-87.739 Y-18.989 Z-0.974 I-0.24 J-1.489
X-87.26 Y-16.012 Z-1.14 I0.24 J1.489
X-87.739 Y-18.989 Z-1.305 I-0.24 J-1.489
X-87.26 Y-16.012 Z-1.471 I0.24 J1.489
X-87.739 Y-18.989 Z-1.636 I-0.24 J-1.489
X-87.26 Y-16.012 Z-1.802 I0.24 J1.489
X-87.739 Y-18.989 Z-1.967 I-0.24 J-1.489
X-87.26 Y-16.012 Z-2.133 I0.24 J1.489
X-87.739 Y-18.989 Z-2.298 I-0.24 J-1.489
X-87.26 Y-16.012 Z-2.464 I0.24 J1.489
X-87.739 Y-18.989 Z-2.629 I-0.24 J-1.489
X-87.26 Y-16.012 Z-2.794 I0.24 J1.489
X-87.739 Y-18.989 Z-2.96 I-0.24 J-1.489
X-87.26 Y-16.012 Z-3.125 I0.24 J1.489
X-87.739 Y-18.989 Z-3.291 I-0.24 J-1.489
X-87.26 Y-16.012 Z-3.456 I0.24 J1.489
X-87.739 Y-18.989 Z-3.622 I-0.24 J-1.489
X-87.26 Y-16.012 Z-3.787 I0.24 J1.489
X-87.739 Y-18.989 Z-3.953 I-0.24 J-1.489
X-87.26 Y-16.012 Z-4.118 I0.24 J1.489
X-87.739 Y-18.989 Z-4.284 I-0.24 J-1.489
X-87.26 Y-16.012 Z-4.449 I0.24 J1.489
X-87.739 Y-18.989 Z-4.614 I-0.24 J-1.489
X-87.26 Y-16.012 Z-4.78 I0.24 J1.489
X-87.739 Y-18.989 Z-4.945 I-0.24 J-1.489
X-87.26 Y-16.012 Z-5.111 I0.24 J1.489
X-87.739 Y-18.989 Z-5.276 I-0.24 J-1.489
X-87.26 Y-16.012 Z-5.442 I0.24 J1.489
X-87.739 Y-18.989 Z-5.607 I-0.24 J-1.489
X-87.26 Y-16.012 Z-5.773 I0.24 J1.489
X-87.739 Y-18.989 Z-5.938 I-0.24 J-1.489
X-87.26 Y-16.012 Z-6.103 I0.24 J1.489
X-87.739 Y-18.989 Z-6.269 I-0.24 J-1.489
X-87.26 Y-16.012 Z-6.434 I0.24 J1.489
X-87.739 Y-18.989 Z-6.6 I-0.24 J-1.489
X-87.26 Y-16.012 Z-6.765 I0.24 J1.489
X-87.739 Y-18.989 Z-6.931 I-0.24 J-1.489
X-87.26 Y-16.012 Z-7.096 I0.24 J1.489
X-87.739 Y-18.989 Z-7.262 I-0.24 J-1.489
X-87.26 Y-16.012 Z-7.427 I0.24 J1.489
X-87.739 Y-18.989 Z-7.593 I-0.24 J-1.489
X-87.26 Y-16.012 Z-7.758 I0.24 J1.489
X-87.739 Y-18.989 Z-7.923 I-0.24 J-1.489
X-87.26 Y-16.012 Z-8.089 I0.24 J1.489
X-87.739 Y-18.989 Z-8.254 I-0.24 J-1.489
X-87.26 Y-16.012 Z-8.42 I0.24 J1.489
X-87.739 Y-18.989 Z-8.585 I-0.24 J-1.489
X-87.26 Y-16.012 Z-8.751 I0.24 J1.489
X-87.739 Y-18.989 Z-8.916 I-0.24 J-1.489
X-87.26 Y-16.012 Z-9.082 I0.24 J1.489
X-87.739 Y-18.989 Z-9.247 I-0.24 J-1.489
X-87.26 Y-16.012 Z-9.413 I0.24 J1.489
X-87.739 Y-18.989 Z-9.578 I-0.24 J-1.489
X-87.26 Y-16.012 Z-9.743 I0.24 J1.489
X-87.739 Y-18.989 Z-9.909 I-0.24 J-1.489
X-85.991 Y-17.5 Z-10 I0.24 J1.489
X-89.008 I-1.508
X-85.991 I1.508
G1 X-85.972 Y-16.763 F1000
X-85.95 Y-16.673
X-85.935 Y-16.524
X-85.947 Y-16.375
X-85.983 Y-16.229
X-86.038 Y-16.089
X-86.109 Y-15.957
X-86.195 Y-15.834
X-86.293 Y-15.721
X-86.402 Y-15.618
X-86.52 Y-15.525
X-86.645 Y-15.443
X-86.778 Y-15.372
X-86.916 Y-15.311
X-87.063 Y-15.261
X-87.217 Y-15.222
X-87.377 Y-15.194
X-87.542 Y-15.179
X-87.71 Y-15.178
X-87.881 Y-15.19
X-88.053 Y-15.216
X-88.225 Y-15.256
X-88.394 Y-15.311
X-88.56 Y-15.38
X-88.722 Y-15.463
X-88.878 Y-15.559
X-89.026 Y-15.668
X-89.167 Y-15.789
X-89.297 Y-15.922
X-89.418 Y-16.066
X-89.526 Y-16.22
X-89.623 Y-16.382
X-89.706 Y-16.552
X-89.776 Y-16.729
X-89.831 Y-16.912
X-89.872 Y-17.098
X-89.897 Y-17.288
X-89.908 Y-17.48
X-89.903 Y-17.671
X-89.882 Y-17.863
X-89.846 Y-18.052
X-89.795 Y-18.237
X-89.729 Y-18.419
X-89.649 Y-18.594
X-89.555 Y-18.763
X-89.448 Y-18.924
X-89.328 Y-19.075
X-89.196 Y-19.217
X-89.053 Y-19.347
X-88.901 Y-19.466
X-88.739 Y-19.572
X-88.569 Y-19.665
X-88.392 Y-19.744
X-88.209 Y-19.808
X-88.022 Y-19.858
X-87.831 Y-19.892
X-87.638 Y-19.911
X-87.444 Y-19.914
X-87.251 Y-19.902
X-87.059 Y-19.875
X-86.87 Y-19.832
X-86.685 Y-19.774
X-86.505 Y-19.701
X-86.332 Y-19.614
X-86.166 Y-19.514
X-86.009 Y-19.4
X-85.861 Y-19.274
X-85.724 Y-19.137
X-85.598 Y-18.989
X-85.485 Y-18.832
X-85.381 Y-18.659
X-85.269 Y-18.437
X-85.122 Y-18.073
X-85.015 Y-17.729
X-84.951 Y-17.447
X-84.915 Y-17.191
X-84.91 Y-17.109
Y-17.016
X-84.921 Y-16.924
X-84.944 Y-16.834
X-85.069 Y-16.45
X-85.094 Y-16.394
X-85.319 Y-16.004
X-85.366 Y-15.932
X-85.45 Y-15.836
X-85.676 Y-15.585
X-85.721 Y-15.538
X-85.766 Y-15.501
X-86.1 Y-15.258
X-86.18 Y-15.203
X-86.268 Y-15.162
X-86.636 Y-14.999
X-86.704 Y-14.975
X-86.771 Y-14.959
X-87.19 Y-14.871
X-87.274 Y-14.864
X-87.609
X-87.777 Y-14.866
X-87.945 Y-14.899
X-88.28 Y-14.971
X-88.322 Y-14.982
X-88.364 Y-14.999
X-88.783 Y-15.185
X-88.825 Y-15.207
X-88.867 Y-15.234
X-89.234 Y-15.501
X-89.286 Y-15.545
X-89.622 Y-15.916
X-89.654 Y-15.96
X-89.681 Y-16.004
X-89.874 Y-16.339
X-89.92 Y-16.423
X-89.957 Y-16.531
X-90.085 Y-16.926
X-90.099 Y-17.01
X-90.135 Y-17.345
X-90.148 Y-17.512
X-90.125 Y-17.75
X-90.097 Y-18.015
X-90.09 Y-18.057
X-90.077 Y-18.099
X-89.941 Y-18.518
X-89.927 Y-18.56
X-89.908 Y-18.602
X-89.667 Y-19.021
X-89.646 Y-19.052
X-89.622 Y-19.084
X-89.377 Y-19.356
X-89.286 Y-19.454
X-89.2 Y-19.523
X-88.867 Y-19.766
X-88.825 Y-19.793
X-88.783 Y-19.815
X-88.371 Y-19.998
X-88.333 Y-20.014
X-88.295 Y-20.026
X-87.945 Y-20.101
X-87.777 Y-20.134
X-87.609 Y-20.137
X-87.274
X-87.19 Y-20.129
X-86.771 Y-20.041
X-86.706 Y-20.026
X-86.603 Y-19.987
X-86.268 Y-19.838
X-86.184 Y-19.799
X-86.1 Y-19.742
X-85.765 Y-19.498
X-85.726 Y-19.468
X-85.688 Y-19.427
X-85.376 Y-19.081
X-85.353 Y-19.051
X-85.333 Y-19.021
X-85.094 Y-18.606
X-85.074 Y-18.562
X-85.059 Y-18.518
X-84.927 Y-18.111
X-84.912 Y-18.063
X-84.903 Y-18.015
X-84.868 Y-17.68
X-84.852 Y-17.512
X-84.865 Y-17.345
X-84.901 Y-17.01
X-84.91 Y-16.949
X-84.927 Y-16.889
X-84.944 Y-16.834
G3 X-85.322 Y-16.635 I-0.298 J-0.109
G1 X-85.37 Y-16.662 Z-9.995
X-85.416 Y-16.687 Z-9.981
X-85.459 Y-16.711 Z-9.958
X-85.486 Y-16.752 Z-9.922
X-85.508 Y-16.787 Z-9.878
X-85.526 Y-16.814 Z-9.827
X-85.538 Y-16.833 Z-9.771
X-85.544 Y-16.842 Z-9.711
Y-16.843 Z-9.682
G0 Z5
X-87.261 Y33.989
Z2.5
G3 X-87.74 Y31.011 Z2.335 I-0.24 J-1.489 F333.3
X-87.261 Y33.989 Z2.169 I0.24 J1.489
X-87.74 Y31.011 Z2.004 I-0.24 J-1.489
X-87.261 Y33.989 Z1.838 I0.24 J1.489
X-87.74 Y31.011 Z1.673 I-0.24 J-1.489
X-87.261 Y33.989 Z1.507 I0.24 J1.489
X-87.74 Y31.011 Z1.342 I-0.24 J-1.489
X-87.261 Y33.989 Z1.176 I0.24 J1.489
X-87.74 Y31.011 Z1.011 I-0.24 J-1.489
X-87.261 Y33.989 Z0.845 I0.24 J1.489
X-87.74 Y31.011 Z0.68 I-0.24 J-1.489
X-87.261 Y33.989 Z0.515 I0.24 J1.489
X-87.74 Y31.011 Z0.349 I-0.24 J-1.489
X-87.261 Y33.989 Z0.184 I0.24 J1.489
X-87.74 Y31.011 Z0.018 I-0.24 J-1.489
X-87.261 Y33.989 Z-0.147 I0.24 J1.489
X-87.74 Y31.011 Z-0.313 I-0.24 J-1.489
X-87.261 Y33.989 Z-0.478 I0.24 J1.489
X-87.74 Y31.011 Z-0.644 I-0.24 J-1.489
X-87.261 Y33.989 Z-0.809 I0.24 J1.489
X-87.74 Y31.011 Z-0.974 I-0.24 J-1.489
X-87.261 Y33.989 Z-1.14 I0.24 J1.489
X-87.74 Y31.011 Z-1.305 I-0.24 J-1.489
X-87.261 Y33.989 Z-1.471 I0.24 J1.489
X-87.74 Y31.011 Z-1.636 I-0.24 J-1.489
X-87.261 Y33.989 Z-1.802 I0.24 J1.489
X-87.74 Y31.011 Z-1.967 I-0.24 J-1.489
X-87.261 Y33.989 Z-2.133 I0.24 J1.489
X-87.74 Y31.011 Z-2.298 I-0.24 J-1.489
X-87.261 Y33.989 Z-2.464 I0.24 J1.489
X-87.74 Y31.011 Z-2.629 I-0.24 J-1.489
X-87.261 Y33.989 Z-2.794 I0.24 J1.489
X-87.74 Y31.011 Z-2.96 I-0.24 J-1.489
X-87.261 Y33.989 Z-3.125 I0.24 J1.489
X-87.74 Y31.011 Z-3.291 I-0.24 J-1.489
X-87.261 Y33.989 Z-3.456 I0.24 J1.489
X-87.74 Y31.011 Z-3.622 I-0.24 J-1.489
X-87.261 Y33.989 Z-3.787 I0.24 J1.489
X-87.74 Y31.011 Z-3.953 I-0.24 J-1.489
X-87.261 Y33.989 Z-4.118 I0.24 J1.489
X-87.74 Y31.011 Z-4.284 I-0.24 J-1.489
X-87.261 Y33.989 Z-4.449 I0.24 J1.489
X-87.74 Y31.011 Z-4.614 I-0.24 J-1.489
X-87.261 Y33.989 Z-4.78 I0.24 J1.489
X-87.74 Y31.011 Z-4.945 I-0.24 J-1.489
X-87.261 Y33.989 Z-5.111 I0.24 J1.489
X-87.74 Y31.011 Z-5.276 I-0.24 J-1.489
X-87.261 Y33.989 Z-5.442 I0.24 J1.489
X-87.74 Y31.011 Z-5.607 I-0.24 J-1.489
X-87.261 Y33.989 Z-5.773 I0.24 J1.489
X-87.74 Y31.011 Z-5.938 I-0.24 J-1.489
X-87.261 Y33.989 Z-6.103 I0.24 J1.489
X-87.74 Y31.011 Z-6.269 I-0.24 J-1.489
X-87.261 Y33.989 Z-6.434 I0.24 J1.489
X-87.74 Y31.011 Z-6.6 I-0.24 J-1.489
X-87.261 Y33.989 Z-6.765 I0.24 J1.489
X-87.74 Y31.011 Z-6.931 I-0.24 J-1.489
X-87.261 Y33.989 Z-7.096 I0.24 J1.489
X-87.74 Y31.011 Z-7.262 I-0.24 J-1.489
X-87.261 Y33.989 Z-7.427 I0.24 J1.489
X-87.74 Y31.011 Z-7.593 I-0.24 J-1.489
X-87.261 Y33.989 Z-7.758 I0.24 J1.489
X-87.74 Y31.011 Z-7.923 I-0.24 J-1.489
X-87.261 Y33.989 Z-8.089 I0.24 J1.489
X-87.74 Y31.011 Z-8.254 I-0.24 J-1.489
X-87.261 Y33.989 Z-8.42 I0.24 J1.489
X-87.74 Y31.011 Z-8.585 I-0.24 J-1.489
X-87.261 Y33.989 Z-8.751 I0.24 J1.489
X-87.74 Y31.011 Z-8.916 I-0.24 J-1.489
X-87.261 Y33.989 Z-9.082 I0.24 J1.489
X-87.74 Y31.011 Z-9.247 I-0.24 J-1.489
X-87.261 Y33.989 Z-9.413 I0.24 J1.489
X-87.74 Y31.011 Z-9.578 I-0.24 J-1.489
X-87.261 Y33.989 Z-9.743 I0.24 J1.489
X-87.74 Y31.011 Z-9.909 I-0.24 J-1.489
X-85.992 Y32.5 Z-10 I0.24 J1.489
X-89.009 I-1.508
X-85.992 I1.508
G1 X-85.973 Y33.238 F1000
X-85.951 Y33.327
X-85.936 Y33.476
X-85.948 Y33.626
X-85.984 Y33.772
X-86.039 Y33.911
X-86.11 Y34.043
X-86.196 Y34.166
X-86.294 Y34.28
X-86.403 Y34.383
X-86.521 Y34.476
X-86.646 Y34.558
X-86.778 Y34.629
X-86.917 Y34.689
X-87.064 Y34.74
X-87.218 Y34.779
X-87.378 Y34.806
X-87.543 Y34.821
X-87.711 Y34.823
X-87.882 Y34.811
X-88.054 Y34.785
X-88.226 Y34.744
X-88.395 Y34.689
X-88.561 Y34.621
X-88.723 Y34.538
X-88.879 Y34.442
X-89.027 Y34.333
X-89.168 Y34.211
X-89.298 Y34.078
X-89.419 Y33.934
X-89.527 Y33.781
X-89.624 Y33.618
X-89.707 Y33.448
X-89.777 Y33.271
X-89.832 Y33.089
X-89.873 Y32.902
X-89.898 Y32.712
X-89.909 Y32.521
X-89.904 Y32.329
X-89.883 Y32.138
X-89.847 Y31.949
X-89.796 Y31.763
X-89.73 Y31.582
X-89.65 Y31.406
X-89.556 Y31.238
X-89.449 Y31.077
X-89.329 Y30.925
X-89.197 Y30.784
X-89.054 Y30.653
X-88.901 Y30.535
X-88.74 Y30.428
X-88.57 Y30.336
X-88.393 Y30.257
X-88.21 Y30.192
X-88.023 Y30.143
X-87.832 Y30.108
X-87.639 Y30.09
X-87.445 Y30.086
X-87.252 Y30.098
X-87.06 Y30.126
X-86.871 Y30.169
X-86.686 Y30.227
X-86.506 Y30.3
X-86.333 Y30.386
X-86.167 Y30.487
X-86.01 Y30.6
X-85.862 Y30.726
X-85.725 Y30.863
X-85.599 Y31.011
X-85.486 Y31.168
X-85.382 Y31.341
X-85.27 Y31.563
X-85.123 Y31.928
X-85.016 Y32.271
X-84.952 Y32.554
X-84.916 Y32.809
X-84.91 Y32.894
Y32.986
X-84.922 Y33.079
X-84.945 Y33.169
X-85.031 Y33.433
X-85.091 Y33.6
X-85.333 Y34.019
X-85.36 Y34.061
X-85.395 Y34.103
X-85.697 Y34.438
X-85.731 Y34.471
X-85.765 Y34.498
X-86.143 Y34.773
X-86.175 Y34.794
X-86.206 Y34.81
X-86.603 Y34.987
X-86.687 Y35.022
X-86.771 Y35.041
X-87.19 Y35.13
X-87.274 Y35.136
X-87.609
X-87.777 Y35.134
X-87.911 Y35.108
X-88.28 Y35.03
X-88.322 Y35.019
X-88.364 Y35.002
X-88.783 Y34.815
X-88.82 Y34.797
X-88.857 Y34.773
X-89.119 Y34.583
X-89.286 Y34.455
X-89.303 Y34.438
X-89.622 Y34.084
X-89.65 Y34.047
X-89.673 Y34.01
X-89.909 Y33.6
X-89.957 Y33.469
X-90.078 Y33.097
X-90.09 Y33.056
X-90.097 Y33.014
X-90.141 Y32.595
X-90.148 Y32.511
X-90.143 Y32.427
X-90.108 Y32.092
X-90.084 Y31.924
X-89.957 Y31.531
X-89.92 Y31.422
X-89.789 Y31.192
X-89.68 Y31.003
X-89.655 Y30.961
X-89.622 Y30.916
X-89.322 Y30.584
X-89.286 Y30.545
X-89.117 Y30.416
X-88.887 Y30.249
X-88.835 Y30.213
X-88.783 Y30.185
X-88.364 Y29.998
X-88.322 Y29.981
X-88.28 Y29.97
X-87.945 Y29.899
X-87.777 Y29.866
X-87.609 Y29.864
X-87.274
X-87.19 Y29.87
X-86.771 Y29.959
X-86.687 Y29.979
X-86.603 Y30.013
X-86.191 Y30.197
X-86.113 Y30.249
X-85.765 Y30.502
X-85.721 Y30.537
X-85.678 Y30.584
X-85.377 Y30.919
X-85.345 Y30.961
X-85.094 Y31.395
X-85.081 Y31.422
X-85.024 Y31.589
X-84.916 Y31.924
X-84.892 Y32.092
X-84.857 Y32.427
X-84.852 Y32.511
X-84.859 Y32.595
X-84.903 Y33.014
X-84.91 Y33.056
X-84.927 Y33.112
X-84.945 Y33.169
G3 X-85.323 Y33.367 I-0.298 J-0.109
G1 X-85.37 Y33.341 Z-9.995
X-85.417 Y33.316 Z-9.981
X-85.46 Y33.292 Z-9.958
X-85.487 Y33.251 Z-9.922
X-85.509 Y33.216 Z-9.878
X-85.527 Y33.188 Z-9.827
X-85.539 Y33.17 Z-9.771
X-85.545 Y33.161 Z-9.711
Y33.159 Z-9.682
G0 Z5
X-87.261 Y83.989
Z2.5
G3 X-87.74 Y81.011 Z2.335 I-0.24 J-1.489 F333.3
X-87.261 Y83.989 Z2.169 I0.24 J1.489
X-87.74 Y81.011 Z2.004 I-0.24 J-1.489
X-87.261 Y83.989 Z1.838 I0.24 J1.489
X-87.74 Y81.011 Z1.673 I-0.24 J-1.489
X-87.261 Y83.989 Z1.507 I0.24 J1.489
X-87.74 Y81.011 Z1.342 I-0.24 J-1.489
X-87.261 Y83.989 Z1.176 I0.24 J1.489
X-87.74 Y81.011 Z1.011 I-0.24 J-1.489
X-87.261 Y83.989 Z0.845 I0.24 J1.489
X-87.74 Y81.011 Z0.68 I-0.24 J-1.489
X-87.261 Y83.989 Z0.515 I0.24 J1.489
X-87.74 Y81.011 Z0.349 I-0.24 J-1.489
X-87.261 Y83.989 Z0.184 I0.24 J1.489
X-87.74 Y81.011 Z0.018 I-0.24 J-1.489
X-87.261 Y83.989 Z-0.147 I0.24 J1.489
X-87.74 Y81.011 Z-0.313 I-0.24 J-1.489
X-87.261 Y83.989 Z-0.478 I0.24 J1.489
X-87.74 Y81.011 Z-0.644 I-0.24 J-1.489
X-87.261 Y83.989 Z-0.809 I0.24 J1.489
X-87.74 Y81.011 Z-0.974 I-0.24 J-1.489
X-87.261 Y83.989 Z-1.14 I0.24 J1.489
X-87.74 Y81.011 Z-1.305 I-0.24 J-1.489
X-87.261 Y83.989 Z-1.471 I0.24 J1.489
X-87.74 Y81.011 Z-1.636 I-0.24 J-1.489
X-87.261 Y83.989 Z-1.802 I0.24 J1.489
X-87.74 Y81.011 Z-1.967 I-0.24 J-1.489
X-87.261 Y83.989 Z-2.133 I0.24 J1.489
X-87.74 Y81.011 Z-2.298 I-0.24 J-1.489
X-87.261 Y83.989 Z-2.464 I0.24 J1.489
X-87.74 Y81.011 Z-2.629 I-0.24 J-1.489
X-87.261 Y83.989 Z-2.794 I0.24 J1.489
X-87.74 Y81.011 Z-2.96 I-0.24 J-1.489
X-87.261 Y83.989 Z-3.125 I0.24 J1.489
X-87.74 Y81.011 Z-3.291 I-0.24 J-1.489
X-87.261 Y83.989 Z-3.456 I0.24 J1.489
X-87.74 Y81.011 Z-3.622 I-0.24 J-1.489
X-87.261 Y83.989 Z-3.787 I0.24 J1.489
X-87.74 Y81.011 Z-3.953 I-0.24 J-1.489
X-87.261 Y83.989 Z-4.118 I0.24 J1.489
X-87.74 Y81.011 Z-4.284 I-0.24 J-1.489
X-87.261 Y83.989 Z-4.449 I0.24 J1.489
X-87.74 Y81.011 Z-4.614 I-0.24 J-1.489
X-87.261 Y83.989 Z-4.78 I0.24 J1.489
X-87.74 Y81.011 Z-4.945 I-0.24 J-1.489
X-87.261 Y83.989 Z-5.111 I0.24 J1.489
X-87.74 Y81.011 Z-5.276 I-0.24 J-1.489
X-87.261 Y83.989 Z-5.442 I0.24 J1.489
X-87.74 Y81.011 Z-5.607 I-0.24 J-1.489
X-87.261 Y83.989 Z-5.773 I0.24 J1.489
X-87.74 Y81.011 Z-5.938 I-0.24 J-1.489
X-87.261 Y83.989 Z-6.103 I0.24 J1.489
X-87.74 Y81.011 Z-6.269 I-0.24 J-1.489
X-87.261 Y83.989 Z-6.434 I0.24 J1.489
X-87.74 Y81.011 Z-6.6 I-0.24 J-1.489
X-87.261 Y83.989 Z-6.765 I0.24 J1.489
X-87.74 Y81.011 Z-6.931 I-0.24 J-1.489
X-87.261 Y83.989 Z-7.096 I0.24 J1.489
X-87.74 Y81.011 Z-7.262 I-0.24 J-1.489
X-87.261 Y83.989 Z-7.427 I0.24 J1.489
X-87.74 Y81.011 Z-7.593 I-0.24 J-1.489
X-87.261 Y83.989 Z-7.758 I0.24 J1.489
X-87.74 Y81.011 Z-7.923 I-0.24 J-1.489
X-87.261 Y83.989 Z-8.089 I0.24 J1.489
X-87.74 Y81.011 Z-8.254 I-0.24 J-1.489
X-87.261 Y83.989 Z-8.42 I0.24 J1.489
X-87.74 Y81.011 Z-8.585 I-0.24 J-1.489
X-87.261 Y83.989 Z-8.751 I0.24 J1.489
X-87.74 Y81.011 Z-8.916 I-0.24 J-1.489
X-87.261 Y83.989 Z-9.082 I0.24 J1.489
X-87.74 Y81.011 Z-9.247 I-0.24 J-1.489
X-87.261 Y83.989 Z-9.413 I0.24 J1.489
X-87.74 Y81.011 Z-9.578 I-0.24 J-1.489
X-87.261 Y83.989 Z-9.743 I0.24 J1.489
X-87.74 Y81.011 Z-9.909 I-0.24 J-1.489
X-85.992 Y82.5 Z-10 I0.24 J1.489
X-89.008 I-1.508
X-85.992 I1.508
G1 X-85.973 Y83.237 F1000
X-85.951 Y83.327
X-85.936 Y83.476
X-85.948 Y83.625
X-85.984 Y83.771
X-86.038 Y83.911
X-86.11 Y84.043
X-86.196 Y84.166
X-86.294 Y84.279
X-86.403 Y84.383
X-86.52 Y84.475
X-86.646 Y84.557
X-86.778 Y84.628
X-86.917 Y84.689
X-87.063 Y84.739
X-87.217 Y84.779
X-87.377 Y84.806
X-87.542 Y84.821
X-87.711 Y84.822
X-87.882 Y84.81
X-88.054 Y84.784
X-88.225 Y84.744
X-88.395 Y84.689
X-88.561 Y84.62
X-88.723 Y84.538
X-88.878 Y84.441
X-89.027 Y84.332
X-89.167 Y84.211
X-89.298 Y84.078
X-89.418 Y83.934
X-89.527 Y83.78
X-89.623 Y83.618
X-89.707 Y83.448
X-89.776 Y83.271
X-89.832 Y83.088
X-89.872 Y82.902
X-89.898 Y82.712
X-89.908 Y82.521
X-89.903 Y82.329
X-89.883 Y82.138
X-89.847 Y81.948
X-89.796 Y81.763
X-89.73 Y81.581
X-89.65 Y81.406
X-89.556 Y81.237
X-89.448 Y81.077
X-89.329 Y80.925
X-89.197 Y80.783
X-89.054 Y80.653
X-88.901 Y80.534
X-88.739 Y80.428
X-88.569 Y80.335
X-88.392 Y80.256
X-88.21 Y80.192
X-88.022 Y80.142
X-87.832 Y80.108
X-87.639 Y80.089
X-87.445 Y80.086
X-87.251 Y80.098
X-87.06 Y80.125
X-86.87 Y80.168
X-86.685 Y80.226
X-86.506 Y80.299
X-86.332 Y80.386
X-86.167 Y80.486
X-86.009 Y80.6
X-85.862 Y80.726
X-85.725 Y80.863
X-85.599 Y81.011
X-85.486 Y81.168
X-85.381 Y81.341
X-85.27 Y81.563
X-85.123 Y81.928
X-85.016 Y82.271
X-84.952 Y82.553
X-84.915 Y82.809
X-84.91 Y82.893
Y82.985
X-84.922 Y83.078
X-84.945 Y83.168
X-85.066 Y83.54
X-85.094 Y83.605
X-85.262 Y83.897
X-85.347 Y84.042
X-85.43 Y84.141
X-85.704 Y84.445
X-85.735 Y84.475
X-85.765 Y84.498
X-86.1 Y84.742
X-86.184 Y84.799
X-86.268 Y84.838
X-86.603 Y84.987
X-86.687 Y85.021
X-86.771 Y85.041
X-87.19 Y85.13
X-87.274 Y85.136
X-87.609
X-87.777 Y85.134
X-87.945 Y85.101
X-88.28 Y85.03
X-88.322 Y85.019
X-88.364 Y85.002
X-88.783 Y84.815
X-88.822 Y84.795
X-88.862 Y84.77
X-89.171 Y84.545
X-89.286 Y84.455
X-89.357 Y84.377
X-89.622 Y84.084
X-89.653 Y84.042
X-89.789 Y83.808
X-89.896 Y83.623
X-89.917 Y83.581
X-89.934 Y83.54
X-90.043 Y83.204
X-90.093 Y83.037
X-90.112 Y82.869
X-90.147 Y82.534
X-90.149 Y82.492
X-90.146 Y82.45
X-90.102 Y82.031
X-90.09 Y81.947
X-90.065 Y81.864
X-89.928 Y81.445
X-89.887 Y81.361
X-89.661 Y80.971
X-89.622 Y80.916
X-89.286 Y80.545
X-89.263 Y80.523
X-88.87 Y80.237
X-88.83 Y80.209
X-88.783 Y80.185
X-88.347 Y79.991
X-88.314 Y79.979
X-88.28 Y79.97
X-87.945 Y79.899
X-87.777 Y79.866
X-87.609 Y79.864
X-87.274
X-87.19 Y79.87
X-86.771 Y79.959
X-86.687 Y79.979
X-86.603 Y80.013
X-86.21 Y80.188
X-86.155 Y80.218
X-85.765 Y80.502
X-85.738 Y80.523
X-85.582 Y80.691
X-85.43 Y80.859
X-85.358 Y80.942
X-85.307 Y81.026
X-85.094 Y81.394
X-85.078 Y81.428
X-85.066 Y81.461
X-84.927 Y81.888
X-84.907 Y81.96
X-84.898 Y82.031
X-84.854 Y82.45
X-84.851 Y82.492
X-84.853 Y82.534
X-84.888 Y82.869
X-84.907 Y83.037
X-84.927 Y83.112
X-84.945 Y83.168
G3 X-85.322 Y83.366 I-0.298 J-0.109
G1 X-85.37 Y83.34 Z-9.995
X-85.416 Y83.315 Z-9.981
X-85.46 Y83.291 Z-9.958
X-85.486 Y83.25 Z-9.922
X-85.509 Y83.215 Z-9.878
X-85.526 Y83.187 Z-9.827
X-85.538 Y83.169 Z-9.771
X-85.544 Y83.16 Z-9.711
X-85.545 Y83.158 Z-9.682
G0 Z5
X-37.26 Y-66.011
Z2.5
G3 X-37.74 Y-68.989 Z2.335 I-0.24 J-1.489 F333.3
X-37.26 Y-66.011 Z2.169 I0.24 J1.489
X-37.74 Y-68.989 Z2.004 I-0.24 J-1.489
X-37.26 Y-66.011 Z1.838 I0.24 J1.489
X-37.74 Y-68.989 Z1.673 I-0.24 J-1.489
X-37.26 Y-66.011 Z1.507 I0.24 J1.489
X-37.74 Y-68.989 Z1.342 I-0.24 J-1.489
X-37.26 Y-66.011 Z1.176 I0.24 J1.489
X-37.74 Y-68.989 Z1.011 I-0.24 J-1.489
X-37.26 Y-66.011 Z0.845 I0.24 J1.489
X-37.74 Y-68.989 Z0.68 I-0.24 J-1.489
X-37.26 Y-66.011 Z0.515 I0.24 J1.489
X-37.74 Y-68.989 Z0.349 I-0.24 J-1.489
X-37.26 Y-66.011 Z0.184 I0.24 J1.489
X-37.74 Y-68.989 Z0.018 I-0.24 J-1.489
X-37.26 Y-66.011 Z-0.147 I0.24 J1.489
X-37.74 Y-68.989 Z-0.313 I-0.24 J-1.489
X-37.26 Y-66.011 Z-0.478 I0.24 J1.489
X-37.74 Y-68.989 Z-0.644 I-0.24 J-1.489
X-37.26 Y-66.011 Z-0.809 I0.24 J1.489
X-37.74 Y-68.989 Z-0.974 I-0.24 J-1.489
X-37.26 Y-66.011 Z-1.14 I0.24 J1.489
X-37.74 Y-68.989 Z-1.305 I-0.24 J-1.489
X-37.26 Y-66.011 Z-1.471 I0.24 J1.489
X-37.74 Y-68.989 Z-1.636 I-0.24 J-1.489
X-37.26 Y-66.011 Z-1.802 I0.24 J1.489
X-37.74 Y-68.989 Z-1.967 I-0.24 J-1.489
X-37.26 Y-66.011 Z-2.133 I0.24 J1.489
X-37.74 Y-68.989 Z-2.298 I-0.24 J-1.489
X-37.26 Y-66.011 Z-2.464 I0.24 J1.489
X-37.74 Y-68.989 Z-2.629 I-0.24 J-1.489
X-37.26 Y-66.011 Z-2.794 I0.24 J1.489
X-37.74 Y-68.989 Z-2.96 I-0.24 J-1.489
X-37.26 Y-66.011 Z-3.125 I0.24 J1.489
X-37.74 Y-68.989 Z-3.291 I-0.24 J-1.489
X-37.26 Y-66.011 Z-3.456 I0.24 J1.489
X-37.74 Y-68.989 Z-3.622 I-0.24 J-1.489
X-37.26 Y-66.011 Z-3.787 I0.24 J1.489
X-37.74 Y-68.989 Z-3.953 I-0.24 J-1.489
X-37.26 Y-66.011 Z-4.118 I0.24 J1.489
X-37.74 Y-68.989 Z-4.284 I-0.24 J-1.489
X-37.26 Y-66.011 Z-4.449 I0.24 J1.489
X-37.74 Y-68.989 Z-4.614 I-0.24 J-1.489
X-37.26 Y-66.011 Z-4.78 I0.24 J1.489
X-37.74 Y-68.989 Z-4.945 I-0.24 J-1.489
X-37.26 Y-66.011 Z-5.111 I0.24 J1.489
X-37.74 Y-68.989 Z-5.276 I-0.24 J-1.489
X-37.26 Y-66.011 Z-5.442 I0.24 J1.489
X-37.74 Y-68.989 Z-5.607 I-0.24 J-1.489
X-37.26 Y-66.011 Z-5.773 I0.24 J1.489
X-37.74 Y-68.989 Z-5.938 I-0.24 J-1.489
X-37.26 Y-66.011 Z-6.103 I0.24 J1.489
X-37.74 Y-68.989 Z-6.269 I-0.24 J-1.489
X-37.26 Y-66.011 Z-6.434 I0.24 J1.489
X-37.74 Y-68.989 Z-6.6 I-0.24 J-1.489
X-37.26 Y-66.011 Z-6.765 I0.24 J1.489
X-37.74 Y-68.989 Z-6.931 I-0.24 J-1.489
X-37.26 Y-66.011 Z-7.096 I0.24 J1.489
X-37.74 Y-68.989 Z-7.262 I-0.24 J-1.489
X-37.26 Y-66.011 Z-7.427 I0.24 J1.489
X-37.74 Y-68.989 Z-7.593 I-0.24 J-1.489
X-37.26 Y-66.011 Z-7.758 I0.24 J1.489
X-37.74 Y-68.989 Z-7.923 I-0.24 J-1.489
X-37.26 Y-66.011 Z-8.089 I0.24 J1.489
X-37.74 Y-68.989 Z-8.254 I-0.24 J-1.489
X-37.26 Y-66.011 Z-8.42 I0.24 J1.489
X-37.74 Y-68.989 Z-8.585 I-0.24 J-1.489
X-37.26 Y-66.011 Z-8.751 I0.24 J1.489
X-37.74 Y-68.989 Z-8.916 I-0.24 J-1.489
X-37.26 Y-66.011 Z-9.082 I0.24 J1.489
X-37.74 Y-68.989 Z-9.247 I-0.24 J-1.489
X-37.26 Y-66.011 Z-9.413 I0.24 J1.489
X-37.74 Y-68.989 Z-9.578 I-0.24 J-1.489
X-37.26 Y-66.011 Z-9.743 I0.24 J1.489
X-37.74 Y-68.989 Z-9.909 I-0.24 J-1.489
X-35.992 Y-67.5 Z-10 I0.24 J1.489
X-39.008 I-1.508
X-35.992 I1.508
G1 X-35.973 Y-66.763 F1000
X-35.951 Y-66.673
X-35.935 Y-66.524
X-35.948 Y-66.374
X-35.983 Y-66.229
X-36.038 Y-66.089
X-36.11 Y-65.957
X-36.196 Y-65.834
X-36.294 Y-65.721
X-36.402 Y-65.617
X-36.52 Y-65.525
X-36.646 Y-65.443
X-36.778 Y-65.371
X-36.916 Y-65.311
X-37.063 Y-65.261
X-37.217 Y-65.221
X-37.377 Y-65.194
X-37.542 Y-65.179
X-37.711 Y-65.177
X-37.882 Y-65.19
X-38.054 Y-65.216
X-38.225 Y-65.256
X-38.395 Y-65.311
X-38.561 Y-65.38
X-38.723 Y-65.462
X-38.878 Y-65.558
X-39.027 Y-65.668
X-39.167 Y-65.789
X-39.298 Y-65.922
X-39.418 Y-66.066
X-39.527 Y-66.219
X-39.623 Y-66.382
X-39.707 Y-66.552
X-39.776 Y-66.729
X-39.832 Y-66.911
X-39.872 Y-67.098
X-39.898 Y-67.288
X-39.908 Y-67.479
X-39.903 Y-67.671
X-39.882 Y-67.862
X-39.847 Y-68.051
X-39.796 Y-68.237
X-39.73 Y-68.419
X-39.65 Y-68.594
X-39.556 Y-68.763
X-39.448 Y-68.923
X-39.328 Y-69.075
X-39.197 Y-69.216
X-39.054 Y-69.347
X-38.901 Y-69.466
X-38.739 Y-69.572
X-38.569 Y-69.665
X-38.392 Y-69.743
X-38.209 Y-69.808
X-38.022 Y-69.857
X-37.831 Y-69.892
X-37.639 Y-69.911
X-37.445 Y-69.914
X-37.251 Y-69.902
X-37.059 Y-69.874
X-36.87 Y-69.831
X-36.685 Y-69.773
X-36.506 Y-69.701
X-36.332 Y-69.614
X-36.166 Y-69.513
X-36.009 Y-69.4
X-35.861 Y-69.274
X-35.724 Y-69.137
X-35.599 Y-68.989
X-35.485 Y-68.832
X-35.381 Y-68.659
X-35.27 Y-68.437
X-35.123 Y-68.072
X-35.016 Y-67.729
X-34.952 Y-67.447
X-34.915 Y-67.191
X-34.91 Y-67.11
Y-67.02
X-34.921 Y-66.93
X-34.942 Y-66.843
X-34.962 Y-66.781
X-35.071 Y-66.446
X-35.128 Y-66.336
X-35.295 Y-66.046
X-35.357 Y-65.943
X-35.463 Y-65.822
X-35.656 Y-65.608
X-35.727 Y-65.532
X-35.798 Y-65.478
X-36.134 Y-65.234
X-36.176 Y-65.206
X-36.218 Y-65.185
X-36.637 Y-64.998
X-36.679 Y-64.982
X-36.721 Y-64.97
X-37.14 Y-64.881
X-37.224 Y-64.865
X-37.307 Y-64.864
X-37.727
X-37.768 Y-64.865
X-37.81 Y-64.871
X-38.146 Y-64.942
X-38.313 Y-64.979
X-38.481 Y-65.051
X-38.649 Y-65.125
X-38.816 Y-65.202
X-38.92 Y-65.273
X-39.236 Y-65.502
X-39.278 Y-65.537
X-39.319 Y-65.581
X-39.495 Y-65.776
X-39.642 Y-65.943
X-39.655 Y-65.961
X-39.839 Y-66.279
X-39.929 Y-66.446
X-40.038 Y-66.781
X-40.091 Y-66.949
X-40.111 Y-67.116
X-40.146 Y-67.452
X-40.149 Y-67.494
X-40.147 Y-67.535
X-40.103 Y-67.954
X-40.093 Y-68.038
X-40.07 Y-68.122
X-39.934 Y-68.541
X-39.917 Y-68.583
X-39.895 Y-68.625
X-39.655 Y-69.04
X-39.582 Y-69.127
X-39.319 Y-69.419
X-39.278 Y-69.463
X-39.152 Y-69.559
X-38.984 Y-69.68
X-38.816 Y-69.798
X-38.649 Y-69.875
X-38.445 Y-69.965
X-38.313 Y-70.021
X-38.146 Y-70.058
X-37.81 Y-70.129
X-37.79 Y-70.133
X-37.643 Y-70.136
X-37.307
X-37.211 Y-70.133
X-37.14 Y-70.119
X-36.721 Y-70.03
X-36.679 Y-70.018
X-36.637 Y-70.002
X-36.301 Y-69.852
X-36.182 Y-69.798
X-36.134 Y-69.766
X-35.798 Y-69.522
X-35.721 Y-69.463
X-35.569 Y-69.295
X-35.418 Y-69.127
X-35.349 Y-69.044
X-35.295 Y-68.954
X-35.105 Y-68.625
X-35.083 Y-68.583
X-35.066 Y-68.541
X-34.93 Y-68.122
X-34.907 Y-68.038
X-34.897 Y-67.954
X-34.853 Y-67.535
X-34.851 Y-67.494
X-34.854 Y-67.452
X-34.889 Y-67.116
X-34.909 Y-66.949
X-34.942 Y-66.843
G3 X-35.318 Y-66.64 I-0.3 J-0.105
G1 X-35.366 Y-66.665 Z-9.995
X-35.412 Y-66.69 Z-9.981
X-35.456 Y-66.713 Z-9.958
X-35.483 Y-66.754 Z-9.922
X-35.506 Y-66.789 Z-9.878
X-35.524 Y-66.816 Z-9.827
X-35.536 Y-66.835 Z-9.771
X-35.542 Y-66.844 Z-9.711
Y-66.845 Z-9.682
G0 Z5
X-37.26 Y-16.011
Z2.5
G3 X-37.739 Y-18.989 Z2.335 I-0.24 J-1.489 F333.3
X-37.26 Y-16.011 Z2.169 I0.24 J1.489
X-37.739 Y-18.989 Z2.004 I-0.24 J-1.489
X-37.26 Y-16.011 Z1.838 I0.24 J1.489
X-37.739 Y-18.989 Z1.673 I-0.24 J-1.489
X-37.26 Y-16.011 Z1.507 I0.24 J1.489
X-37.739 Y-18.989 Z1.342 I-0.24 J-1.489
X-37.26 Y-16.011 Z1.176 I0.24 J1.489
X-37.739 Y-18.989 Z1.011 I-0.24 J-1.489
X-37.26 Y-16.011 Z0.845 I0.24 J1.489
X-37.739 Y-18.989 Z0.68 I-0.24 J-1.489
X-37.26 Y-16.011 Z0.515 I0.24 J1.489
X-37.739 Y-18.989 Z0.349 I-0.24 J-1.489
X-37.26 Y-16.011 Z0.184 I0.24 J1.489
X-37.739 Y-18.989 Z0.018 I-0.24 J-1.489
X-37.26 Y-16.011 Z-0.147 I0.24 J1.489
X-37.739 Y-18.989 Z-0.313 I-0.24 J-1.489
X-37.26 Y-16.011 Z-0.478 I0.24 J1.489
X-37.739 Y-18.989 Z-0.644 I-0.24 J-1.489
X-37.26 Y-16.011 Z-0.809 I0.24 J1.489
X-37.739 Y-18.989 Z-0.974 I-0.24 J-1.489
X-37.26 Y-16.011 Z-1.14 I0.24 J1.489
X-37.739 Y-18.989 Z-1.305 I-0.24 J-1.489
X-37.26 Y-16.011 Z-1.471 I0.24 J1.489
X-37.739 Y-18.989 Z-1.636 I-0.24 J-1.489
X-37.26 Y-16.011 Z-1.802 I0.24 J1.489
X-37.739 Y-18.989 Z-1.967 I-0.24 J-1.489
X-37.26 Y-16.011 Z-2.133 I0.24 J1.489
X-37.739 Y-18.989 Z-2.298 I-0.24 J-1.489
X-37.26 Y-16.011 Z-2.464 I0.24 J1.489
X-37.739 Y-18.989 Z-2.629 I-0.24 J-1.489
X-37.26 Y-16.011 Z-2.794 I0.24 J1.489
X-37.739 Y-18.989 Z-2.96 I-0.24 J-1.489
X-37.26 Y-16.011 Z-3.125 I0.24 J1.489
X-37.739 Y-18.989 Z-3.291 I-0.24 J-1.489
X-37.26 Y-16.011 Z-3.456 I0.24 J1.489
X-37.739 Y-18.989 Z-3.622 I-0.24 J-1.489
X-37.26 Y-16.011 Z-3.787 I0.24 J1.489
X-37.739 Y-18.989 Z-3.953 I-0.24 J-1.489
X-37.26 Y-16.011 Z-4.118 I0.24 J1.489
X-37.739 Y-18.989 Z-4.284 I-0.24 J-1.489
X-37.26 Y-16.011 Z-4.449 I0.24 J1.489
X-37.739 Y-18.989 Z-4.614 I-0.24 J-1.489
X-37.26 Y-16.011 Z-4.78 I0.24 J1.489
X-37.739 Y-18.989 Z-4.945 I-0.24 J-1.489
X-37.26 Y-16.011 Z-5.111 I0.24 J1.489
X-37.739 Y-18.989 Z-5.276 I-0.24 J-1.489
X-37.26 Y-16.011 Z-5.442 I0.24 J1.489
X-37.739 Y-18.989 Z-5.607 I-0.24 J-1.489
X-37.26 Y-16.011 Z-5.773 I0.24 J1.489
X-37.739 Y-18.989 Z-5.938 I-0.24 J-1.489
X-37.26 Y-16.011 Z-6.103 I0.24 J1.489
X-37.739 Y-18.989 Z-6.269 I-0.24 J-1.489
X-37.26 Y-16.011 Z-6.434 I0.24 J1.489
X-37.739 Y-18.989 Z-6.6 I-0.24 J-1.489
X-37.26 Y-16.011 Z-6.765 I0.24 J1.489
X-37.739 Y-18.989 Z-6.931 I-0.24 J-1.489
X-37.26 Y-16.011 Z-7.096 I0.24 J1.489
X-37.739 Y-18.989 Z-7.262 I-0.24 J-1.489
X-37.26 Y-16.011 Z-7.427 I0.24 J1.489
X-37.739 Y-18.989 Z-7.593 I-0.24 J-1.489
X-37.26 Y-16.011 Z-7.758 I0.24 J1.489
X-37.739 Y-18.989 Z-7.923 I-0.24 J-1.489
X-37.26 Y-16.011 Z-8.089 I0.24 J1.489
X-37.739 Y-18.989 Z-8.254 I-0.24 J-1.489
X-37.26 Y-16.011 Z-8.42 I0.24 J1.489
X-37.739 Y-18.989 Z-8.585 I-0.24 J-1.489
X-37.26 Y-16.011 Z-8.751 I0.24 J1.489
X-37.739 Y-18.989 Z-8.916 I-0.24 J-1.489
X-37.26 Y-16.011 Z-9.082 I0.24 J1.489
X-37.739 Y-18.989 Z-9.247 I-0.24 J-1.489
X-37.26 Y-16.011 Z-9.413 I0.24 J1.489
X-37.739 Y-18.989 Z-9.578 I-0.24 J-1.489
X-37.26 Y-16.011 Z-9.743 I0.24 J1.489
X-37.739 Y-18.989 Z-9.909 I-0.24 J-1.489
X-35.991 Y-17.5 Z-10 I0.24 J1.489
X-39.008 I-1.508
X-35.991 I1.508
G1 X-35.972 Y-16.763 F1000
X-35.95 Y-16.673
X-35.935 Y-16.524
X-35.948 Y-16.374
X-35.983 Y-16.229
X-36.038 Y-16.089
X-36.109 Y-15.957
X-36.195 Y-15.834
X-36.293 Y-15.721
X-36.402 Y-15.617
X-36.52 Y-15.525
X-36.646 Y-15.443
X-36.778 Y-15.371
X-36.916 Y-15.311
X-37.063 Y-15.261
X-37.217 Y-15.221
X-37.377 Y-15.194
X-37.542 Y-15.179
X-37.71 Y-15.177
X-37.881 Y-15.19
X-38.053 Y-15.216
X-38.225 Y-15.256
X-38.394 Y-15.311
X-38.56 Y-15.38
X-38.722 Y-15.462
X-38.878 Y-15.559
X-39.026 Y-15.668
X-39.167 Y-15.789
X-39.297 Y-15.922
X-39.418 Y-16.066
X-39.526 Y-16.22
X-39.623 Y-16.382
X-39.706 Y-16.552
X-39.776 Y-16.729
X-39.831 Y-16.912
X-39.872 Y-17.098
X-39.897 Y-17.288
X-39.908 Y-17.479
X-39.903 Y-17.671
X-39.882 Y-17.862
X-39.846 Y-18.051
X-39.795 Y-18.237
X-39.73 Y-18.419
X-39.649 Y-18.594
X-39.555 Y-18.763
X-39.448 Y-18.923
X-39.328 Y-19.075
X-39.196 Y-19.216
X-39.053 Y-19.347
X-38.901 Y-19.466
X-38.739 Y-19.572
X-38.569 Y-19.665
X-38.392 Y-19.743
X-38.209 Y-19.808
X-38.022 Y-19.857
X-37.831 Y-19.892
X-37.638 Y-19.911
X-37.444 Y-19.914
X-37.251 Y-19.902
X-37.059 Y-19.874
X-36.87 Y-19.831
X-36.685 Y-19.773
X-36.505 Y-19.701
X-36.332 Y-19.614
X-36.166 Y-19.513
X-36.009 Y-19.4
X-35.861 Y-19.274
X-35.724 Y-19.137
X-35.598 Y-18.989
X-35.485 Y-18.832
X-35.381 Y-18.659
X-35.269 Y-18.437
X-35.122 Y-18.072
X-35.015 Y-17.729
X-34.951 Y-17.447
X-34.915 Y-17.191
X-34.91 Y-17.109
Y-17.016
X-34.921 Y-16.924
X-34.944 Y-16.834
X-35.051 Y-16.507
X-35.08 Y-16.423
X-35.128 Y-16.336
X-35.344 Y-15.962
X-35.375 Y-15.92
X-35.698 Y-15.561
X-35.732 Y-15.528
X-35.766 Y-15.501
X-36.134 Y-15.234
X-36.165 Y-15.212
X-36.197 Y-15.195
X-36.637 Y-14.998
X-36.679 Y-14.982
X-36.721 Y-14.97
X-37.14 Y-14.881
X-37.224 Y-14.865
X-37.307 Y-14.864
X-37.727
X-37.768 Y-14.865
X-37.81 Y-14.871
X-38.146 Y-14.942
X-38.313 Y-14.979
X-38.364 Y-14.999
X-38.74 Y-15.166
X-38.816 Y-15.202
X-39.004 Y-15.334
X-39.234 Y-15.501
X-39.277 Y-15.537
X-39.319 Y-15.581
X-39.55 Y-15.836
X-39.655 Y-15.96
X-39.874 Y-16.339
X-39.92 Y-16.423
X-39.949 Y-16.507
X-40.085 Y-16.926
X-40.099 Y-17.01
X-40.135 Y-17.345
X-40.148 Y-17.512
X-40.132 Y-17.68
X-40.097 Y-18.015
X-40.089 Y-18.057
X-40.077 Y-18.099
X-39.941 Y-18.518
X-39.908 Y-18.602
X-39.666 Y-19.021
X-39.655 Y-19.039
X-39.528 Y-19.188
X-39.319 Y-19.419
X-39.26 Y-19.479
X-39.152 Y-19.559
X-38.97 Y-19.691
X-38.816 Y-19.799
X-38.649 Y-19.875
X-38.481 Y-19.949
X-38.313 Y-20.021
X-38.296 Y-20.026
X-37.81 Y-20.129
X-37.768 Y-20.135
X-37.727 Y-20.137
X-37.307
X-37.224 Y-20.135
X-37.14 Y-20.119
X-36.705 Y-20.026
X-36.637 Y-20.002
X-36.218 Y-19.815
X-36.176 Y-19.794
X-36.134 Y-19.766
X-35.798 Y-19.522
X-35.714 Y-19.455
X-35.623 Y-19.356
X-35.392 Y-19.099
X-35.359 Y-19.06
X-35.334 Y-19.021
X-35.128 Y-18.664
X-35.087 Y-18.591
X-35.059 Y-18.518
X-34.923 Y-18.099
X-34.91 Y-18.057
X-34.903 Y-18.015
X-34.868 Y-17.68
X-34.852 Y-17.512
X-34.865 Y-17.345
X-34.906 Y-16.968
X-34.915 Y-16.926
X-34.944 Y-16.834
G3 X-35.322 Y-16.635 I-0.298 J-0.109
G1 X-35.37 Y-16.661 Z-9.995
X-35.416 Y-16.687 Z-9.981
X-35.459 Y-16.71 Z-9.958
X-35.486 Y-16.752 Z-9.922
X-35.508 Y-16.787 Z-9.878
X-35.526 Y-16.814 Z-9.827
X-35.538 Y-16.833 Z-9.771
X-35.544 Y-16.842 Z-9.711
Y-16.843 Z-9.682
G0 Z5
X-37.26 Y33.989
Z2.5
G3 X-37.739 Y31.011 Z2.335 I-0.24 J-1.489 F333.3
X-37.26 Y33.989 Z2.169 I0.24 J1.489
X-37.739 Y31.011 Z2.004 I-0.24 J-1.489
X-37.26 Y33.989 Z1.838 I0.24 J1.489
X-37.739 Y31.011 Z1.673 I-0.24 J-1.489
X-37.26 Y33.989 Z1.507 I0.24 J1.489
X-37.739 Y31.011 Z1.342 I-0.24 J-1.489
X-37.26 Y33.989 Z1.176 I0.24 J1.489
X-37.739 Y31.011 Z1.011 I-0.24 J-1.489
X-37.26 Y33.989 Z0.845 I0.24 J1.489
X-37.739 Y31.011 Z0.68 I-0.24 J-1.489
X-37.26 Y33.989 Z0.515 I0.24 J1.489
X-37.739 Y31.011 Z0.349 I-0.24 J-1.489
X-37.26 Y33.989 Z0.184 I0.24 J1.489
X-37.739 Y31.011 Z0.018 I-0.24 J-1.489
X-37.26 Y33.989 Z-0.147 I0.24 J1.489
X-37.739 Y31.011 Z-0.313 I-0.24 J-1.489
X-37.26 Y33.989 Z-0.478 I0.24 J1.489
X-37.739 Y31.011 Z-0.644 I-0.24 J-1.489
X-37.26 Y33.989 Z-0.809 I0.24 J1.489
X-37.739 Y31.011 Z-0.974 I-0.24 J-1.489
X-37.26 Y33.989 Z-1.14 I0.24 J1.489
X-37.739 Y31.011 Z-1.305 I-0.24 J-1.489
X-37.26 Y33.989 Z-1.471 I0.24 J1.489
X-37.739 Y31.011 Z-1.636 I-0.24 J-1.489
X-37.26 Y33.989 Z-1.802 I0.24 J1.489
X-37.739 Y31.011 Z-1.967 I-0.24 J-1.489
X-37.26 Y33.989 Z-2.133 I0.24 J1.489
X-37.739 Y31.011 Z-2.298 I-0.24 J-1.489
X-37.26 Y33.989 Z-2.464 I0.24 J1.489
X-37.739 Y31.011 Z-2.629 I-0.24 J-1.489
X-37.26 Y33.989 Z-2.794 I0.24 J1.489
X-37.739 Y31.011 Z-2.96 I-0.24 J-1.489
X-37.26 Y33.989 Z-3.125 I0.24 J1.489
X-37.739 Y31.011 Z-3.291 I-0.24 J-1.489
X-37.26 Y33.989 Z-3.456 I0.24 J1.489
X-37.739 Y31.011 Z-3.622 I-0.24 J-1.489
X-37.26 Y33.989 Z-3.787 I0.24 J1.489
X-37.739 Y31.011 Z-3.953 I-0.24 J-1.489
X-37.26 Y33.989 Z-4.118 I0.24 J1.489
X-37.739 Y31.011 Z-4.284 I-0.24 J-1.489
X-37.26 Y33.989 Z-4.449 I0.24 J1.489
X-37.739 Y31.011 Z-4.614 I-0.24 J-1.489
X-37.26 Y33.989 Z-4.78 I0.24 J1.489
X-37.739 Y31.011 Z-4.945 I-0.24 J-1.489
X-37.26 Y33.989 Z-5.111 I0.24 J1.489
X-37.739 Y31.011 Z-5.276 I-0.24 J-1.489
X-37.26 Y33.989 Z-5.442 I0.24 J1.489
X-37.739 Y31.011 Z-5.607 I-0.24 J-1.489
X-37.26 Y33.989 Z-5.773 I0.24 J1.489
X-37.739 Y31.011 Z-5.938 I-0.24 J-1.489
X-37.26 Y33.989 Z-6.103 I0.24 J1.489
X-37.739 Y31.011 Z-6.269 I-0.24 J-1.489
X-37.26 Y33.989 Z-6.434 I0.24 J1.489
X-37.739 Y31.011 Z-6.6 I-0.24 J-1.489
X-37.26 Y33.989 Z-6.765 I0.24 J1.489
X-37.739 Y31.011 Z-6.931 I-0.24 J-1.489
X-37.26 Y33.989 Z-7.096 I0.24 J1.489
X-37.739 Y31.011 Z-7.262 I-0.24 J-1.489
X-37.26 Y33.989 Z-7.427 I0.24 J1.489
X-37.739 Y31.011 Z-7.593 I-0.24 J-1.489
X-37.26 Y33.989 Z-7.758 I0.24 J1.489
X-37.739 Y31.011 Z-7.923 I-0.24 J-1.489
X-37.26 Y33.989 Z-8.089 I0.24 J1.489
X-37.739 Y31.011 Z-8.254 I-0.24 J-1.489
X-37.26 Y33.989 Z-8.42 I0.24 J1.489
X-37.739 Y31.011 Z-8.585 I-0.24 J-1.489
X-37.26 Y33.989 Z-8.751 I0.24 J1.489
X-37.739 Y31.011 Z-8.916 I-0.24 J-1.489
X-37.26 Y33.989 Z-9.082 I0.24 J1.489
X-37.739 Y31.011 Z-9.247 I-0.24 J-1.489
X-37.26 Y33.989 Z-9.413 I0.24 J1.489
X-37.739 Y31.011 Z-9.578 I-0.24 J-1.489
X-37.26 Y33.989 Z-9.743 I0.24 J1.489
X-37.739 Y31.011 Z-9.909 I-0.24 J-1.489
X-35.992 Y32.5 Z-10 I0.24 J1.489
X-39.008 I-1.508
X-35.992 I1.508
G1 X-35.972 Y33.237 F1000
X-35.951 Y33.327
X-35.935 Y33.476
X-35.948 Y33.626
X-35.983 Y33.771
X-36.038 Y33.911
X-36.11 Y34.043
X-36.195 Y34.166
X-36.294 Y34.279
X-36.402 Y34.383
X-36.52 Y34.476
X-36.646 Y34.558
X-36.778 Y34.629
X-36.916 Y34.689
X-37.063 Y34.739
X-37.217 Y34.779
X-37.377 Y34.806
X-37.542 Y34.821
X-37.711 Y34.823
X-37.882 Y34.811
X-38.053 Y34.784
X-38.225 Y34.744
X-38.394 Y34.689
X-38.561 Y34.62
X-38.722 Y34.538
X-38.878 Y34.442
X-39.027 Y34.333
X-39.167 Y34.211
X-39.298 Y34.078
X-39.418 Y33.934
X-39.527 Y33.781
X-39.623 Y33.618
X-39.706 Y33.448
X-39.776 Y33.271
X-39.831 Y33.089
X-39.872 Y32.902
X-39.898 Y32.712
X-39.908 Y32.521
X-39.903 Y32.329
X-39.882 Y32.138
X-39.846 Y31.949
X-39.795 Y31.763
X-39.73 Y31.582
X-39.65 Y31.406
X-39.555 Y31.237
X-39.448 Y31.077
X-39.328 Y30.925
X-39.196 Y30.784
X-39.054 Y30.653
X-38.901 Y30.534
X-38.739 Y30.428
X-38.569 Y30.336
X-38.392 Y30.257
X-38.209 Y30.192
X-38.022 Y30.143
X-37.831 Y30.108
X-37.638 Y30.089
X-37.445 Y30.086
X-37.251 Y30.098
X-37.059 Y30.126
X-36.87 Y30.169
X-36.685 Y30.227
X-36.505 Y30.299
X-36.332 Y30.386
X-36.166 Y30.487
X-36.009 Y30.6
X-35.861 Y30.726
X-35.724 Y30.863
X-35.599 Y31.011
X-35.485 Y31.168
X-35.381 Y31.341
X-35.27 Y31.563
X-35.123 Y31.928
X-35.015 Y32.271
X-34.951 Y32.553
X-34.915 Y32.809
X-34.91 Y32.892
Y32.985
X-34.921 Y33.077
X-34.945 Y33.167
X-35.031 Y33.433
X-35.091 Y33.6
X-35.338 Y34.029
X-35.363 Y34.066
X-35.395 Y34.103
X-35.697 Y34.438
X-35.748 Y34.485
X-36.143 Y34.773
X-36.183 Y34.799
X-36.222 Y34.817
X-36.637 Y35.002
X-36.679 Y35.019
X-36.721 Y35.03
X-37.14 Y35.119
X-37.224 Y35.135
X-37.307 Y35.136
X-37.727
X-37.768 Y35.135
X-37.81 Y35.13
X-38.146 Y35.058
X-38.313 Y35.021
X-38.501 Y34.941
X-38.649 Y34.875
X-38.816 Y34.798
X-38.857 Y34.773
X-39.227 Y34.504
X-39.265 Y34.475
X-39.302 Y34.438
X-39.605 Y34.103
X-39.655 Y34.039
X-39.716 Y33.935
X-39.909 Y33.6
X-39.969 Y33.433
X-40.078 Y33.097
X-40.09 Y33.056
X-40.097 Y33.014
X-40.141 Y32.595
X-40.148 Y32.511
X-40.143 Y32.427
X-40.108 Y32.092
X-40.084 Y31.924
X-39.976 Y31.589
X-39.919 Y31.422
X-39.822 Y31.25
X-39.655 Y30.96
X-39.624 Y30.919
X-39.319 Y30.581
X-39.278 Y30.536
X-39.236 Y30.502
X-38.887 Y30.249
X-38.816 Y30.201
X-38.481 Y30.05
X-38.313 Y29.979
X-38.146 Y29.942
X-37.81 Y29.87
X-37.768 Y29.865
X-37.727 Y29.864
X-37.307
X-37.224 Y29.865
X-37.14 Y29.881
X-36.721 Y29.97
X-36.679 Y29.982
X-36.637 Y29.998
X-36.218 Y30.185
X-36.176 Y30.205
X-36.134 Y30.234
X-35.798 Y30.477
X-35.738 Y30.522
X-35.678 Y30.584
X-35.376 Y30.919
X-35.351 Y30.951
X-35.332 Y30.982
X-35.128 Y31.336
X-35.08 Y31.422
X-35.024 Y31.589
X-34.915 Y31.924
X-34.892 Y32.092
X-34.857 Y32.427
X-34.851 Y32.511
X-34.859 Y32.595
X-34.903 Y33.014
X-34.91 Y33.056
X-34.922 Y33.097
X-34.945 Y33.167
G3 X-35.322 Y33.365 I-0.298 J-0.109
G1 X-35.37 Y33.339 Z-9.995
X-35.416 Y33.314 Z-9.981
