%
(cnc_bed_2)
(T1  D=3.175 CR=0 - ZMIN=-4.498 - flat end mill)
G90 G94
G17
G21
G28 G91 Z0
G90

(Adaptive1)
M9
T1 M6
S5000 M3
G54
G0 X31.275 Y-126.62
Z15
Z5
Z2.5
G3 X33.725 Y-128.38 Z2.335 I1.225 J-0.88 F333.3
X31.275 Y-126.62 Z2.169 I-1.225 J0.88
X33.725 Y-128.38 Z2.004 I1.225 J-0.88
X31.275 Y-126.62 Z1.838 I-1.225 J0.88
X33.725 Y-128.38 Z1.673 I1.225 J-0.88
X31.276 Y-126.62 Z1.507 I-1.225 J0.88
X33.725 Y-128.38 Z1.342 I1.225 J-0.88
X31.276 Y-126.62 Z1.176 I-1.225 J0.88
X33.725 Y-128.38 Z1.011 I1.225 J-0.88
X31.276 Y-126.62 Z0.845 I-1.225 J0.88
X33.725 Y-128.38 Z0.68 I1.225 J-0.88
X31.276 Y-126.62 Z0.515 I-1.225 J0.88
X33.725 Y-128.38 Z0.349 I1.225 J-0.88
X31.276 Y-126.62 Z0.184 I-1.225 J0.88
X33.725 Y-128.38 Z0.018 I1.225 J-0.88
X31.276 Y-126.62 Z-0.147 I-1.225 J0.88
X33.725 Y-128.38 Z-0.313 I1.225 J-0.88
X31.276 Y-126.62 Z-0.478 I-1.225 J0.88
X33.725 Y-128.38 Z-0.644 I1.225 J-0.88
X31.276 Y-126.62 Z-0.809 I-1.225 J0.88
X33.725 Y-128.38 Z-0.974 I1.225 J-0.88
X31.276 Y-126.62 Z-1.14 I-1.225 J0.88
X33.725 Y-128.38 Z-1.305 I1.225 J-0.88
X31.276 Y-126.62 Z-1.471 I-1.225 J0.88
X33.725 Y-128.38 Z-1.636 I1.225 J-0.88
X31.276 Y-126.62 Z-1.802 I-1.225 J0.88
X33.725 Y-128.38 Z-1.967 I1.225 J-0.88
X34.008 Y-127.5 Z-2 I-1.225 J0.88
X30.992 I-1.508
X34.008 I1.508
G1 X34.028 Y-126.762 F1000
X34.05 Y-126.673
X34.065 Y-126.523
X34.052 Y-126.374
X34.017 Y-126.228
X33.962 Y-126.089
X33.891 Y-125.957
X33.805 Y-125.834
X33.707 Y-125.72
X33.598 Y-125.617
X33.48 Y-125.524
X33.354 Y-125.442
X33.222 Y-125.371
X33.084 Y-125.311
X32.937 Y-125.26
X32.783 Y-125.221
X32.623 Y-125.193
X32.458 Y-125.179
X32.289 Y-125.177
X32.119 Y-125.189
X31.947 Y-125.215
X31.775 Y-125.256
X31.606 Y-125.31
X31.44 Y-125.379
X31.278 Y-125.462
X31.122 Y-125.558
X30.974 Y-125.667
X30.833 Y-125.789
X30.703 Y-125.922
X30.582 Y-126.065
X30.474 Y-126.219
X30.377 Y-126.382
X30.294 Y-126.552
X30.224 Y-126.729
X30.169 Y-126.911
X30.128 Y-127.098
X30.103 Y-127.287
X30.092 Y-127.479
X30.097 Y-127.671
X30.118 Y-127.862
X30.154 Y-128.051
X30.205 Y-128.237
X30.27 Y-128.418
X30.351 Y-128.594
X30.445 Y-128.762
X30.552 Y-128.923
X30.672 Y-129.074
X30.804 Y-129.216
X30.947 Y-129.347
X31.099 Y-129.465
X31.261 Y-129.571
X31.431 Y-129.664
X31.608 Y-129.743
X31.791 Y-129.807
X31.978 Y-129.857
X32.169 Y-129.891
X32.362 Y-129.91
X32.556 Y-129.914
X32.749 Y-129.902
X32.941 Y-129.874
X33.13 Y-129.831
X33.315 Y-129.773
X33.495 Y-129.7
X33.668 Y-129.613
X33.834 Y-129.513
X33.991 Y-129.399
X34.139 Y-129.274
X34.276 Y-129.137
X34.402 Y-128.989
X34.515 Y-128.831
X34.619 Y-128.659
X34.731 Y-128.436
X34.878 Y-128.072
X34.985 Y-127.729
X35.049 Y-127.446
X35.085 Y-127.191
X35.1 Y-126.953
X35.096 Y-126.73
X35.075 Y-126.517
X35.037 Y-126.31
X34.984 Y-126.108
X34.914 Y-125.911
X34.829 Y-125.72
X34.729 Y-125.537
X34.614 Y-125.362
X34.484 Y-125.196
X34.34 Y-125.039
X34.182 Y-124.892
X34.011 Y-124.756
X33.826 Y-124.633
X33.63 Y-124.524
X33.422 Y-124.429
X33.204 Y-124.35
X32.977 Y-124.288
X32.743 Y-124.244
X32.503 Y-124.219
X32.259 Y-124.212
X32.013 Y-124.226
X31.766 Y-124.259
X31.52 Y-124.313
X31.278 Y-124.387
X31.04 Y-124.481
X30.809 Y-124.594
X30.586 Y-124.726
X30.374 Y-124.877
X30.173 Y-125.046
X29.985 Y-125.231
X29.812 Y-125.431
X29.654 Y-125.645
X29.514 Y-125.873
X29.393 Y-126.111
X29.29 Y-126.36
X29.207 Y-126.616
X29.146 Y-126.879
X29.105 Y-127.147
X29.086 Y-127.418
X29.089 Y-127.69
X29.113 Y-127.961
X29.16 Y-128.23
X29.228 Y-128.494
X29.317 Y-128.752
X29.426 Y-129.003
X29.556 Y-129.244
X29.704 Y-129.474
X29.87 Y-129.692
X30.054 Y-129.896
X30.253 Y-130.084
X30.467 Y-130.256
X30.695 Y-130.411
X30.934 Y-130.546
X31.183 Y-130.662
X31.44 Y-130.758
X31.705 Y-130.832
X31.975 Y-130.886
X32.248 Y-130.917
X32.523 Y-130.926
X32.797 Y-130.914
X33.07 Y-130.879
X33.34 Y-130.822
X33.603 Y-130.744
X33.86 Y-130.645
X34.108 Y-130.526
X34.346 Y-130.388
X34.572 Y-130.23
X34.785 Y-130.054
X34.992 Y-129.854
X35.206 Y-129.611
X35.408 Y-129.34
X35.594 Y-129.043
X35.759 Y-128.727
X35.896 Y-128.402
X36.004 Y-128.075
X36.083 Y-127.751
X36.124 Y-127.492
X36.132 Y-127.428
X36.134 Y-127.363
X36.13 Y-127.298
X36.082 Y-126.844
X36.06 Y-126.709
X35.887 Y-126.174
X35.829 Y-126.006
X35.725 Y-125.824
X35.467 Y-125.378
X35.437 Y-125.336
X34.985 Y-124.833
X34.936 Y-124.784
X34.887 Y-124.746
X34.384 Y-124.381
X34.307 Y-124.331
X34.216 Y-124.29
X33.713 Y-124.066
X33.63 Y-124.03
X33.546 Y-124.01
X33.043 Y-123.903
X32.875 Y-123.87
X32.707 Y-123.869
X32.205
X32.121 Y-123.871
X32.037 Y-123.886
X31.522 Y-123.996
X31.366 Y-124.032
X31.199 Y-124.105
X30.693 Y-124.331
X30.528 Y-124.445
X30.109 Y-124.749
X30.067 Y-124.782
X30.025 Y-124.823
X29.563 Y-125.336
X29.522 Y-125.395
X29.187 Y-125.976
X29.172 Y-126.006
X29.113 Y-126.174
X28.95 Y-126.677
X28.928 Y-126.76
X28.901 Y-127.012
X28.865 Y-127.347
X28.852 Y-127.484
Y-127.514
X28.868 Y-127.682
X28.921 Y-128.185
X28.933 Y-128.268
X28.959 Y-128.352
X29.15 Y-128.938
X29.165 Y-128.98
X29.187 Y-129.024
X29.522 Y-129.605
X29.551 Y-129.649
X29.588 Y-129.692
X30.025 Y-130.177
X30.042 Y-130.195
X30.193 Y-130.312
X30.528 Y-130.555
X30.696 Y-130.671
X31.199 Y-130.895
X31.366 Y-130.969
X31.534 Y-131.007
X32.037 Y-131.114
X32.121 Y-131.129
X32.205 Y-131.131
X32.707
X32.875 Y-131.13
X33.043 Y-131.097
X33.546 Y-130.99
X33.63 Y-130.969
X33.713 Y-130.934
X34.245 Y-130.698
X34.314 Y-130.665
X34.384 Y-130.619
X34.887 Y-130.254
X34.958 Y-130.195
X35.222 Y-129.903
X35.412 Y-129.692
X35.447 Y-129.651
X35.475 Y-129.609
X35.814 Y-129.022
X35.835 Y-128.98
X35.85 Y-128.938
X36.06 Y-128.291
X36.073 Y-128.238
X36.132 Y-127.682
X36.148 Y-127.514
X36.135 Y-127.347
X36.13 Y-127.298
G3 X35.802 Y-127.025 I-0.314 J-0.044
G1 X35.75 Y-127.04 Z-1.995
X35.699 Y-127.056 Z-1.981
X35.652 Y-127.07 Z-1.958
X35.617 Y-127.105 Z-1.922
X35.588 Y-127.134 Z-1.878
X35.565 Y-127.157 Z-1.827
X35.549 Y-127.173 Z-1.771
X35.542 Y-127.181 Z-1.711
X35.541 Y-127.182 Z-1.683
G0 Z5
X31.274 Y-76.62
Z2.5
G3 X33.724 Y-78.38 Z2.335 I1.225 J-0.88 F333.3
X31.274 Y-76.62 Z2.169 I-1.225 J0.88
X33.724 Y-78.38 Z2.004 I1.225 J-0.88
X31.274 Y-76.62 Z1.838 I-1.225 J0.88
X33.724 Y-78.38 Z1.673 I1.225 J-0.88
X31.274 Y-76.62 Z1.507 I-1.225 J0.88
X33.724 Y-78.38 Z1.342 I1.225 J-0.88
X31.274 Y-76.62 Z1.176 I-1.225 J0.88
X33.724 Y-78.38 Z1.011 I1.225 J-0.88
X31.274 Y-76.62 Z0.845 I-1.225 J0.88
X33.724 Y-78.38 Z0.68 I1.225 J-0.88
X31.274 Y-76.62 Z0.515 I-1.225 J0.88
X33.724 Y-78.38 Z0.349 I1.225 J-0.88
X31.274 Y-76.62 Z0.184 I-1.225 J0.88
X33.724 Y-78.38 Z0.018 I1.225 J-0.88
X31.274 Y-76.62 Z-0.147 I-1.225 J0.88
X33.724 Y-78.38 Z-0.313 I1.225 J-0.88
X31.274 Y-76.62 Z-0.478 I-1.225 J0.88
X33.724 Y-78.38 Z-0.644 I1.225 J-0.88
X31.274 Y-76.62 Z-0.809 I-1.225 J0.88
X33.724 Y-78.38 Z-0.974 I1.225 J-0.88
X31.274 Y-76.62 Z-1.14 I-1.225 J0.88
X33.724 Y-78.38 Z-1.305 I1.225 J-0.88
X31.274 Y-76.62 Z-1.471 I-1.225 J0.88
X33.724 Y-78.38 Z-1.636 I1.225 J-0.88
X31.274 Y-76.62 Z-1.802 I-1.225 J0.88
X33.724 Y-78.38 Z-1.967 I1.225 J-0.88
X34.007 Y-77.5 Z-2 I-1.225 J0.88
X30.991 I-1.508
X34.007 I1.508
G1 X34.027 Y-76.763 F1000
X34.048 Y-76.673
X34.064 Y-76.524
X34.051 Y-76.374
X34.016 Y-76.228
X33.961 Y-76.089
X33.889 Y-75.957
X33.804 Y-75.834
X33.705 Y-75.721
X33.597 Y-75.617
X33.479 Y-75.524
X33.353 Y-75.442
X33.221 Y-75.371
X33.083 Y-75.311
X32.936 Y-75.261
X32.782 Y-75.221
X32.622 Y-75.194
X32.457 Y-75.179
X32.288 Y-75.177
X32.117 Y-75.189
X31.945 Y-75.216
X31.774 Y-75.256
X31.605 Y-75.311
X31.438 Y-75.38
X31.277 Y-75.462
X31.121 Y-75.558
X30.972 Y-75.667
X30.832 Y-75.789
X30.701 Y-75.922
X30.581 Y-76.066
X30.472 Y-76.219
X30.376 Y-76.382
X30.292 Y-76.552
X30.223 Y-76.729
X30.167 Y-76.911
X30.127 Y-77.098
X30.101 Y-77.288
X30.091 Y-77.479
X30.096 Y-77.671
X30.117 Y-77.862
X30.153 Y-78.051
X30.203 Y-78.237
X30.269 Y-78.418
X30.349 Y-78.594
X30.443 Y-78.763
X30.551 Y-78.923
X30.671 Y-79.075
X30.803 Y-79.216
X30.945 Y-79.347
X31.098 Y-79.466
X31.26 Y-79.572
X31.43 Y-79.664
X31.607 Y-79.743
X31.79 Y-79.808
X31.977 Y-79.857
X32.168 Y-79.892
X32.361 Y-79.911
X32.554 Y-79.914
X32.748 Y-79.902
X32.94 Y-79.874
X33.129 Y-79.831
X33.314 Y-79.773
X33.494 Y-79.701
X33.667 Y-79.614
X33.833 Y-79.513
X33.99 Y-79.4
X34.138 Y-79.274
X34.275 Y-79.137
X34.4 Y-78.989
X34.514 Y-78.832
X34.618 Y-78.659
X34.729 Y-78.437
X34.876 Y-78.072
X34.984 Y-77.729
X35.047 Y-77.447
X35.084 Y-77.191
X35.099 Y-76.954
X35.095 Y-76.731
X35.074 Y-76.518
X35.036 Y-76.31
X34.982 Y-76.108
X34.913 Y-75.911
X34.828 Y-75.721
X34.728 Y-75.538
X34.613 Y-75.363
X34.483 Y-75.196
X34.339 Y-75.039
X34.181 Y-74.892
X34.009 Y-74.756
X33.825 Y-74.634
X33.628 Y-74.524
X33.421 Y-74.429
X33.203 Y-74.351
X32.976 Y-74.289
X32.742 Y-74.244
X32.502 Y-74.219
X32.258 Y-74.213
X32.012 Y-74.226
X31.765 Y-74.259
X31.519 Y-74.313
X31.277 Y-74.387
X31.039 Y-74.481
X30.808 Y-74.594
X30.585 Y-74.727
X30.372 Y-74.878
X30.171 Y-75.046
X29.984 Y-75.231
X29.81 Y-75.431
X29.653 Y-75.646
X29.513 Y-75.873
X29.391 Y-76.112
X29.289 Y-76.36
X29.206 Y-76.617
X29.144 Y-76.88
X29.104 Y-77.148
X29.085 Y-77.418
X29.088 Y-77.69
X29.112 Y-77.961
X29.159 Y-78.23
X29.226 Y-78.494
X29.315 Y-78.753
X29.425 Y-79.003
X29.554 Y-79.244
X29.703 Y-79.475
X29.869 Y-79.692
X30.053 Y-79.896
X30.252 Y-80.085
X30.466 Y-80.257
X30.693 Y-80.411
X30.932 Y-80.546
X31.181 Y-80.662
X31.439 Y-80.758
X31.704 Y-80.833
X31.973 Y-80.886
X32.247 Y-80.917
X32.521 Y-80.927
X32.796 Y-80.914
X33.069 Y-80.879
X33.338 Y-80.823
X33.602 Y-80.745
X33.859 Y-80.646
X34.107 Y-80.527
X34.345 Y-80.388
X34.57 Y-80.23
X34.784 Y-80.055
X34.99 Y-79.855
X35.205 Y-79.611
X35.407 Y-79.34
X35.593 Y-79.043
X35.758 Y-78.727
X35.895 Y-78.402
X36.003 Y-78.075
X36.082 Y-77.752
X36.124 Y-77.488
X36.131 Y-77.423
X36.133 Y-77.358
X36.129 Y-77.293
X36.089 Y-76.914
X36.07 Y-76.746
X36.06 Y-76.709
X35.855 Y-76.076
X35.822 Y-75.992
X35.484 Y-75.406
X35.443 Y-75.344
X35.39 Y-75.283
X34.967 Y-74.814
X34.927 Y-74.776
X34.342 Y-74.351
X34.3 Y-74.327
X33.713 Y-74.065
X33.629 Y-74.03
X33.546 Y-74.01
X33.016 Y-73.898
X32.875 Y-73.87
X32.707 Y-73.869
X32.205
X32.121 Y-73.871
X32.037 Y-73.886
X31.534 Y-73.993
X31.366 Y-74.031
X31.287 Y-74.065
X30.863 Y-74.254
X30.696 Y-74.33
X30.589 Y-74.4
X30.128 Y-74.735
X30.077 Y-74.774
X30.025 Y-74.823
X29.58 Y-75.317
X29.548 Y-75.356
X29.516 Y-75.406
X29.187 Y-75.976
X29.162 Y-76.026
X29.145 Y-76.076
X28.982 Y-76.578
X28.93 Y-76.746
X28.911 Y-76.914
X28.852 Y-77.478
Y-77.522
X28.911 Y-78.086
X28.93 Y-78.254
X28.982 Y-78.422
X29.145 Y-78.924
X29.162 Y-78.974
X29.187 Y-79.024
X29.522 Y-79.605
X29.548 Y-79.644
X29.58 Y-79.683
X30.025 Y-80.177
X30.077 Y-80.226
X30.128 Y-80.265
X30.589 Y-80.6
X30.696 Y-80.67
X31.031 Y-80.821
X31.287 Y-80.935
X31.366 Y-80.969
X31.534 Y-81.007
X32.037 Y-81.114
X32.121 Y-81.129
X32.205 Y-81.131
X32.707
X32.875 Y-81.13
X33.043 Y-81.097
X33.546 Y-80.99
X33.629 Y-80.97
X33.713 Y-80.934
X34.3 Y-80.673
X34.342 Y-80.649
X34.927 Y-80.224
X34.967 Y-80.186
X35.39 Y-79.717
X35.443 Y-79.656
X35.484 Y-79.594
X35.822 Y-79.008
X35.855 Y-78.924
X36.06 Y-78.292
X36.07 Y-78.254
X36.089 Y-78.086
X36.142 Y-77.584
X36.149 Y-77.5
X36.142 Y-77.416
X36.129 Y-77.293
G3 X35.801 Y-77.02 I-0.314 J-0.044
G1 X35.749 Y-77.036 Z-1.995
X35.699 Y-77.051 Z-1.981
X35.651 Y-77.065 Z-1.958
X35.617 Y-77.1 Z-1.922
X35.587 Y-77.13 Z-1.878
X35.565 Y-77.153 Z-1.827
X35.549 Y-77.169 Z-1.771
X35.541 Y-77.176 Z-1.711
X35.54 Y-77.178 Z-1.683
G0 Z5
X31.275 Y-26.62
Z2.5
G3 X33.725 Y-28.38 Z2.335 I1.225 J-0.88 F333.3
X31.275 Y-26.62 Z2.169 I-1.225 J0.88
X33.725 Y-28.38 Z2.004 I1.225 J-0.88
X31.275 Y-26.62 Z1.838 I-1.225 J0.88
X33.725 Y-28.38 Z1.673 I1.225 J-0.88
X31.275 Y-26.62 Z1.507 I-1.225 J0.88
X33.725 Y-28.38 Z1.342 I1.225 J-0.88
X31.275 Y-26.62 Z1.176 I-1.225 J0.88
X33.725 Y-28.38 Z1.011 I1.225 J-0.88
X31.275 Y-26.62 Z0.845 I-1.225 J0.88
X33.725 Y-28.38 Z0.68 I1.225 J-0.88
X31.275 Y-26.62 Z0.515 I-1.225 J0.88
X33.725 Y-28.38 Z0.349 I1.225 J-0.88
X31.275 Y-26.62 Z0.184 I-1.225 J0.88
X33.725 Y-28.38 Z0.018 I1.225 J-0.88
X31.275 Y-26.62 Z-0.147 I-1.225 J0.88
X33.725 Y-28.38 Z-0.313 I1.225 J-0.88
X31.275 Y-26.62 Z-0.478 I-1.225 J0.88
X33.725 Y-28.38 Z-0.644 I1.225 J-0.88
X31.275 Y-26.62 Z-0.809 I-1.225 J0.88
X33.725 Y-28.38 Z-0.974 I1.225 J-0.88
X31.275 Y-26.62 Z-1.14 I-1.225 J0.88
X33.725 Y-28.38 Z-1.305 I1.225 J-0.88
X31.275 Y-26.62 Z-1.471 I-1.225 J0.88
X33.725 Y-28.38 Z-1.636 I1.225 J-0.88
X31.275 Y-26.62 Z-1.802 I-1.225 J0.88
X33.725 Y-28.38 Z-1.967 I1.225 J-0.88
X34.008 Y-27.5 Z-2 I-1.225 J0.88
X30.992 I-1.508
X34.008 I1.508
G1 X34.028 Y-26.763 F1000
X34.049 Y-26.673
X34.065 Y-26.524
X34.052 Y-26.374
X34.017 Y-26.229
X33.962 Y-26.089
X33.89 Y-25.957
X33.805 Y-25.834
X33.706 Y-25.721
X33.598 Y-25.617
X33.48 Y-25.524
X33.354 Y-25.442
X33.222 Y-25.371
X33.084 Y-25.311
X32.937 Y-25.261
X32.783 Y-25.221
X32.623 Y-25.194
X32.458 Y-25.179
X32.289 Y-25.177
X32.118 Y-25.19
X31.946 Y-25.216
X31.775 Y-25.256
X31.606 Y-25.311
X31.439 Y-25.38
X31.278 Y-25.462
X31.122 Y-25.558
X30.973 Y-25.668
X30.833 Y-25.789
X30.702 Y-25.922
X30.582 Y-26.066
X30.473 Y-26.219
X30.377 Y-26.382
X30.293 Y-26.552
X30.224 Y-26.729
X30.168 Y-26.911
X30.128 Y-27.098
X30.102 Y-27.288
X30.092 Y-27.479
X30.097 Y-27.671
X30.118 Y-27.862
X30.154 Y-28.051
X30.204 Y-28.237
X30.27 Y-28.418
X30.35 Y-28.594
X30.444 Y-28.763
X30.552 Y-28.923
X30.672 Y-29.075
X30.804 Y-29.216
X30.946 Y-29.347
X31.099 Y-29.466
X31.261 Y-29.572
X31.431 Y-29.665
X31.608 Y-29.743
X31.791 Y-29.808
X31.978 Y-29.857
X32.169 Y-29.892
X32.362 Y-29.911
X32.555 Y-29.914
X32.749 Y-29.902
X32.941 Y-29.874
X33.13 Y-29.831
X33.315 Y-29.773
X33.495 Y-29.701
X33.668 Y-29.614
X33.834 Y-29.513
X33.991 Y-29.4
X34.139 Y-29.274
X34.276 Y-29.137
X34.401 Y-28.989
X34.515 Y-28.832
X34.619 Y-28.659
X34.73 Y-28.437
X34.877 Y-28.072
X34.985 Y-27.729
X35.048 Y-27.447
X35.085 Y-27.191
X35.1 Y-26.954
X35.096 Y-26.731
X35.075 Y-26.518
X35.037 Y-26.311
X34.983 Y-26.108
X34.914 Y-25.911
X34.829 Y-25.721
X34.729 Y-25.538
X34.614 Y-25.363
X34.484 Y-25.196
X34.34 Y-25.039
X34.182 Y-24.892
X34.01 Y-24.757
X33.826 Y-24.634
X33.629 Y-24.524
X33.422 Y-24.429
X33.204 Y-24.351
X32.977 Y-24.289
X32.743 Y-24.244
X32.503 Y-24.219
X32.259 Y-24.213
X32.013 Y-24.226
X31.766 Y-24.26
X31.52 Y-24.313
X31.278 Y-24.387
X31.04 Y-24.481
X30.809 Y-24.594
X30.586 Y-24.727
X30.373 Y-24.878
X30.172 Y-25.046
X29.985 Y-25.231
X29.811 Y-25.431
X29.654 Y-25.646
X29.514 Y-25.873
X29.392 Y-26.112
X29.29 Y-26.36
X29.207 Y-26.617
X29.145 Y-26.88
X29.105 Y-27.148
X29.086 Y-27.418
X29.089 Y-27.69
X29.113 Y-27.961
X29.16 Y-28.23
X29.227 Y-28.494
X29.316 Y-28.753
X29.426 Y-29.003
X29.555 Y-29.245
X29.704 Y-29.475
X29.87 Y-29.693
X30.054 Y-29.896
X30.253 Y-30.085
X30.467 Y-30.257
X30.694 Y-30.411
X30.933 Y-30.547
X31.182 Y-30.662
X31.44 Y-30.758
X31.705 Y-30.833
X31.974 Y-30.886
X32.248 Y-30.917
X32.522 Y-30.927
X32.797 Y-30.914
X33.07 Y-30.879
X33.339 Y-30.823
X33.603 Y-30.745
X33.86 Y-30.646
X34.108 Y-30.527
X34.346 Y-30.388
X34.571 Y-30.231
X34.785 Y-30.055
X34.991 Y-29.855
X35.206 Y-29.611
X35.408 Y-29.34
X35.594 Y-29.043
X35.759 Y-28.727
X35.896 Y-28.402
X36.004 Y-28.076
X36.083 Y-27.752
X36.124 Y-27.492
X36.132 Y-27.427
X36.134 Y-27.362
X36.13 Y-27.297
X36.073 Y-26.762
X36.06 Y-26.709
X35.85 Y-26.062
X35.835 Y-26.02
X35.814 Y-25.978
X35.475 Y-25.391
X35.447 Y-25.349
X35.412 Y-25.308
X35.055 Y-24.911
X34.958 Y-24.805
X34.887 Y-24.746
X34.384 Y-24.381
X34.314 Y-24.335
X34.216 Y-24.29
X33.713 Y-24.066
X33.63 Y-24.031
X33.546 Y-24.01
X33.043 Y-23.903
X32.875 Y-23.87
X32.707 Y-23.869
X32.205
X32.121 Y-23.871
X32.037 Y-23.886
X31.534 Y-23.993
X31.366 Y-24.031
X31.131 Y-24.135
X30.696 Y-24.329
X30.528 Y-24.445
X30.193 Y-24.688
X30.042 Y-24.805
X30.025 Y-24.823
X29.588 Y-25.308
X29.551 Y-25.351
X29.522 Y-25.395
X29.186 Y-25.978
X29.165 Y-26.02
X29.15 Y-26.062
X28.959 Y-26.648
X28.933 Y-26.732
X28.921 Y-26.815
X28.868 Y-27.318
X28.852 Y-27.486
Y-27.516
X28.883 Y-27.821
X28.918 Y-28.156
X28.928 Y-28.24
X28.95 Y-28.323
X29.113 Y-28.826
X29.172 Y-28.994
X29.187 Y-29.024
X29.522 Y-29.605
X29.563 Y-29.664
X30.025 Y-30.177
X30.067 Y-30.218
X30.109 Y-30.251
X30.528 Y-30.555
X30.696 Y-30.671
X31.199 Y-30.895
X31.366 Y-30.968
X31.534 Y-31.007
X32.037 Y-31.114
X32.121 Y-31.129
X32.205 Y-31.131
X32.707
X32.875 Y-31.13
X33.043 Y-31.097
X33.546 Y-30.99
X33.63 Y-30.97
X33.713 Y-30.934
X34.216 Y-30.71
X34.307 Y-30.669
X34.384 Y-30.619
X34.887 Y-30.254
X34.936 Y-30.216
X34.985 Y-30.167
X35.437 Y-29.664
X35.467 Y-29.622
X35.734 Y-29.161
X35.829 Y-28.994
X35.893 Y-28.808
X36.06 Y-28.291
X36.082 Y-28.156
X36.135 Y-27.653
X36.148 Y-27.486
X36.13 Y-27.297
G3 X35.802 Y-27.024 I-0.314 J-0.044
G1 X35.75 Y-27.04 Z-1.995
X35.699 Y-27.055 Z-1.981
X35.652 Y-27.069 Z-1.958
X35.617 Y-27.104 Z-1.922
X35.588 Y-27.134 Z-1.878
X35.565 Y-27.157 Z-1.827
X35.549 Y-27.172 Z-1.771
X35.542 Y-27.18 Z-1.711
X35.541 Y-27.181 Z-1.683
G0 Z5
X81.275 Y-126.621
Z2.5
G3 X83.725 Y-128.381 Z2.335 I1.225 J-0.88 F333.3
X81.275 Y-126.621 Z2.169 I-1.225 J0.88
X83.725 Y-128.381 Z2.004 I1.225 J-0.88
X81.275 Y-126.621 Z1.838 I-1.225 J0.88
X83.725 Y-128.381 Z1.673 I1.225 J-0.88
X81.275 Y-126.621 Z1.507 I-1.225 J0.88
X83.725 Y-128.381 Z1.342 I1.225 J-0.88
X81.275 Y-126.621 Z1.176 I-1.225 J0.88
X83.725 Y-128.381 Z1.011 I1.225 J-0.88
X81.275 Y-126.621 Z0.845 I-1.225 J0.88
X83.725 Y-128.381 Z0.68 I1.225 J-0.88
X81.275 Y-126.621 Z0.515 I-1.225 J0.88
X83.725 Y-128.381 Z0.349 I1.225 J-0.88
X81.275 Y-126.621 Z0.184 I-1.225 J0.88
X83.725 Y-128.381 Z0.018 I1.225 J-0.88
X81.275 Y-126.621 Z-0.147 I-1.225 J0.88
X83.725 Y-128.381 Z-0.313 I1.225 J-0.88
X81.275 Y-126.621 Z-0.478 I-1.225 J0.88
X83.725 Y-128.381 Z-0.644 I1.225 J-0.88
X81.275 Y-126.621 Z-0.809 I-1.225 J0.88
X83.725 Y-128.381 Z-0.974 I1.225 J-0.88
X81.275 Y-126.621 Z-1.14 I-1.225 J0.88
X83.725 Y-128.381 Z-1.305 I1.225 J-0.88
X81.275 Y-126.621 Z-1.471 I-1.225 J0.88
X83.725 Y-128.381 Z-1.636 I1.225 J-0.88
X81.275 Y-126.621 Z-1.802 I-1.225 J0.88
X83.725 Y-128.381 Z-1.967 I1.225 J-0.88
X84.008 Y-127.501 Z-2 I-1.225 J0.88
X80.992 I-1.508
X84.008 I1.508
G1 X84.027 Y-126.763 F1000
X84.049 Y-126.674
X84.065 Y-126.524
X84.052 Y-126.375
X84.017 Y-126.229
X83.962 Y-126.09
X83.89 Y-125.958
X83.804 Y-125.835
X83.706 Y-125.721
X83.598 Y-125.618
X83.48 Y-125.525
X83.354 Y-125.443
X83.222 Y-125.372
X83.084 Y-125.312
X82.937 Y-125.261
X82.783 Y-125.222
X82.623 Y-125.194
X82.458 Y-125.18
X82.289 Y-125.178
X82.118 Y-125.19
X81.946 Y-125.216
X81.775 Y-125.257
X81.605 Y-125.311
X81.439 Y-125.38
X81.278 Y-125.463
X81.122 Y-125.559
X80.973 Y-125.668
X80.833 Y-125.79
X80.702 Y-125.923
X80.582 Y-126.066
X80.473 Y-126.22
X80.377 Y-126.382
X80.293 Y-126.553
X80.224 Y-126.73
X80.168 Y-126.912
X80.128 Y-127.099
X80.102 Y-127.288
X80.092 Y-127.48
X80.097 Y-127.672
X80.118 Y-127.863
X80.153 Y-128.052
X80.204 Y-128.238
X80.27 Y-128.419
X80.35 Y-128.595
X80.444 Y-128.763
X80.552 Y-128.924
X80.672 Y-129.075
X80.803 Y-129.217
X80.946 Y-129.348
X81.099 Y-129.466
X81.261 Y-129.572
X81.431 Y-129.665
X81.608 Y-129.744
X81.791 Y-129.808
X81.978 Y-129.858
X82.169 Y-129.892
X82.361 Y-129.911
X82.555 Y-129.915
X82.749 Y-129.903
X82.941 Y-129.875
X83.13 Y-129.832
X83.315 Y-129.774
X83.494 Y-129.701
X83.668 Y-129.614
X83.834 Y-129.514
X83.991 Y-129.4
X84.139 Y-129.275
X84.276 Y-129.137
X84.401 Y-128.99
X84.515 Y-128.832
X84.619 Y-128.66
X84.73 Y-128.437
X84.877 Y-128.073
X84.984 Y-127.73
X85.048 Y-127.447
X85.085 Y-127.192
X85.1 Y-126.954
X85.096 Y-126.731
X85.074 Y-126.518
X85.037 Y-126.311
X84.983 Y-126.109
X84.914 Y-125.912
X84.828 Y-125.721
X84.728 Y-125.538
X84.614 Y-125.363
X84.484 Y-125.197
X84.34 Y-125.04
X84.182 Y-124.893
X84.01 Y-124.757
X83.826 Y-124.634
X83.629 Y-124.525
X83.421 Y-124.43
X83.204 Y-124.351
X82.977 Y-124.289
X82.743 Y-124.245
X82.503 Y-124.219
X82.259 Y-124.213
X82.013 Y-124.227
X81.766 Y-124.26
X81.52 Y-124.314
X81.277 Y-124.388
X81.04 Y-124.482
X80.809 Y-124.595
X80.586 Y-124.727
X80.373 Y-124.878
X80.172 Y-125.047
X79.984 Y-125.232
X79.811 Y-125.432
X79.654 Y-125.646
X79.514 Y-125.874
X79.392 Y-126.112
X79.29 Y-126.361
X79.207 Y-126.617
X79.145 Y-126.88
X79.105 Y-127.148
X79.086 Y-127.419
X79.088 Y-127.691
X79.113 Y-127.962
X79.159 Y-128.231
X79.227 Y-128.495
X79.316 Y-128.753
X79.426 Y-129.004
X79.555 Y-129.245
X79.704 Y-129.475
X79.87 Y-129.693
X80.054 Y-129.897
X80.253 Y-130.085
X80.467 Y-130.257
X80.694 Y-130.411
X80.933 Y-130.547
X81.182 Y-130.663
X81.44 Y-130.759
X81.705 Y-130.833
X81.974 Y-130.887
X82.247 Y-130.918
X82.522 Y-130.927
X82.797 Y-130.915
X83.07 Y-130.88
X83.339 Y-130.823
X83.603 Y-130.745
X83.86 Y-130.646
X84.108 Y-130.527
X84.346 Y-130.389
X84.571 Y-130.231
X84.785 Y-130.055
X84.991 Y-129.855
X85.206 Y-129.612
X85.407 Y-129.341
X85.594 Y-129.044
X85.758 Y-128.728
X85.896 Y-128.403
X86.004 Y-128.076
X86.083 Y-127.752
X86.124 Y-127.491
X86.132 Y-127.427
X86.134 Y-127.362
X86.13 Y-127.297
X86.082 Y-126.844
X86.073 Y-126.76
X86.05 Y-126.677
X85.852 Y-126.065
X85.828 Y-126.006
X85.734 Y-125.839
X85.461 Y-125.368
X85.437 Y-125.336
X84.985 Y-124.833
X84.95 Y-124.796
X84.915 Y-124.767
X84.51 Y-124.472
X84.343 Y-124.352
X84.307 Y-124.331
X84.007 Y-124.197
X83.672 Y-124.047
X83.63 Y-124.03
X83.588 Y-124.019
X82.918 Y-123.877
X82.876 Y-123.87
X82.834 Y-123.869
X82.163
X82.121 Y-123.871
X82.08 Y-123.877
X81.409 Y-124.02
X81.367 Y-124.031
X81.325 Y-124.048
X80.822 Y-124.272
X80.693 Y-124.331
X80.655 Y-124.353
X80.083 Y-124.768
X80.015 Y-124.833
X79.562 Y-125.336
X79.481 Y-125.467
X79.266 Y-125.839
X79.172 Y-126.006
X79.146 Y-126.073
X78.95 Y-126.677
X78.927 Y-126.76
X78.865 Y-127.347
X78.852 Y-127.514
X78.868 Y-127.682
X78.921 Y-128.185
X78.934 Y-128.268
X78.959 Y-128.352
X79.146 Y-128.927
X79.162 Y-128.974
X79.186 Y-129.022
X79.527 Y-129.613
X79.554 Y-129.653
X79.588 Y-129.692
X80.041 Y-130.195
X80.068 Y-130.221
X80.152 Y-130.282
X80.655 Y-130.647
X80.755 Y-130.698
X81.325 Y-130.952
X81.367 Y-130.969
X81.409 Y-130.98
X82.08 Y-131.123
X82.121 Y-131.129
X82.163 Y-131.131
X82.834
X82.876 Y-131.13
X82.918 Y-131.123
X83.588 Y-130.981
X83.63 Y-130.97
X83.672 Y-130.953
X84.294 Y-130.676
X84.318 Y-130.664
X84.343 Y-130.649
X84.846 Y-130.284
X84.959 Y-130.195
X85.412 Y-129.692
X85.445 Y-129.654
X85.472 Y-129.615
X85.814 Y-129.022
X85.836 Y-128.979
X85.852 Y-128.935
X86.041 Y-128.352
X86.067 Y-128.268
X86.079 Y-128.185
X86.132 Y-127.682
X86.148 Y-127.514
X86.135 Y-127.347
X86.13 Y-127.297
G3 X85.802 Y-127.024 I-0.314 J-0.044
G1 X85.75 Y-127.039 Z-1.995
X85.699 Y-127.055 Z-1.981
X85.652 Y-127.069 Z-1.958
X85.617 Y-127.104 Z-1.922
X85.588 Y-127.133 Z-1.878
X85.565 Y-127.156 Z-1.827
X85.549 Y-127.172 Z-1.771
X85.542 Y-127.18 Z-1.711
X85.541 Y-127.181 Z-1.683
G0 Z5
X81.275 Y-76.62
Z2.5
G3 X83.725 Y-78.38 Z2.335 I1.225 J-0.88 F333.3
X81.275 Y-76.62 Z2.169 I-1.225 J0.88
X83.725 Y-78.38 Z2.004 I1.225 J-0.88
X81.275 Y-76.62 Z1.838 I-1.225 J0.88
X83.725 Y-78.38 Z1.673 I1.225 J-0.88
X81.275 Y-76.62 Z1.507 I-1.225 J0.88
X83.725 Y-78.38 Z1.342 I1.225 J-0.88
X81.275 Y-76.62 Z1.176 I-1.225 J0.88
X83.725 Y-78.38 Z1.011 I1.225 J-0.88
X81.275 Y-76.62 Z0.845 I-1.225 J0.88
X83.725 Y-78.38 Z0.68 I1.225 J-0.88
X81.275 Y-76.62 Z0.515 I-1.225 J0.88
X83.725 Y-78.38 Z0.349 I1.225 J-0.88
X81.275 Y-76.62 Z0.184 I-1.225 J0.88
X83.725 Y-78.38 Z0.018 I1.225 J-0.88
X81.275 Y-76.62 Z-0.147 I-1.225 J0.88
X83.725 Y-78.38 Z-0.313 I1.225 J-0.88
X81.275 Y-76.62 Z-0.478 I-1.225 J0.88
X83.725 Y-78.38 Z-0.644 I1.225 J-0.88
X81.275 Y-76.62 Z-0.809 I-1.225 J0.88
X83.725 Y-78.38 Z-0.974 I1.225 J-0.88
X81.275 Y-76.62 Z-1.14 I-1.225 J0.88
X83.725 Y-78.38 Z-1.305 I1.225 J-0.88
X81.275 Y-76.62 Z-1.471 I-1.225 J0.88
X83.725 Y-78.38 Z-1.636 I1.225 J-0.88
X81.275 Y-76.62 Z-1.802 I-1.225 J0.88
X83.725 Y-78.38 Z-1.967 I1.225 J-0.88
X84.008 Y-77.5 Z-2 I-1.225 J0.88
X80.992 I-1.508
X84.008 I1.508
G1 X84.027 Y-76.763 F1000
X84.049 Y-76.673
X84.065 Y-76.524
X84.052 Y-76.374
X84.017 Y-76.229
X83.962 Y-76.089
X83.89 Y-75.957
X83.804 Y-75.834
X83.706 Y-75.721
X83.598 Y-75.617
X83.48 Y-75.524
X83.354 Y-75.442
X83.222 Y-75.371
X83.084 Y-75.311
X82.937 Y-75.261
X82.783 Y-75.221
X82.623 Y-75.194
X82.458 Y-75.179
X82.289 Y-75.177
X82.118 Y-75.189
X81.946 Y-75.216
X81.775 Y-75.256
X81.605 Y-75.311
X81.439 Y-75.38
X81.278 Y-75.462
X81.122 Y-75.558
X80.973 Y-75.668
X80.833 Y-75.789
X80.702 Y-75.922
X80.582 Y-76.066
X80.473 Y-76.219
X80.377 Y-76.382
X80.293 Y-76.552
X80.224 Y-76.729
X80.168 Y-76.911
X80.128 Y-77.098
X80.102 Y-77.288
X80.092 Y-77.479
X80.097 Y-77.671
X80.118 Y-77.862
X80.153 Y-78.051
X80.204 Y-78.237
X80.27 Y-78.418
X80.35 Y-78.594
X80.444 Y-78.763
X80.552 Y-78.923
X80.672 Y-79.075
X80.803 Y-79.216
X80.946 Y-79.347
X81.099 Y-79.466
X81.261 Y-79.572
X81.431 Y-79.665
X81.608 Y-79.743
X81.791 Y-79.808
X81.978 Y-79.857
X82.169 Y-79.892
X82.361 Y-79.911
X82.555 Y-79.914
X82.749 Y-79.902
X82.941 Y-79.874
X83.13 Y-79.831
X83.315 Y-79.773
X83.494 Y-79.701
X83.668 Y-79.614
X83.834 Y-79.513
X83.991 Y-79.4
X84.139 Y-79.274
X84.276 Y-79.137
X84.401 Y-78.989
X84.515 Y-78.832
X84.619 Y-78.659
X84.73 Y-78.437
X84.877 Y-78.072
X84.984 Y-77.729
X85.048 Y-77.447
X85.085 Y-77.191
X85.1 Y-76.954
X85.096 Y-76.731
X85.074 Y-76.518
X85.037 Y-76.311
X84.983 Y-76.108
X84.914 Y-75.911
X84.828 Y-75.721
X84.728 Y-75.538
X84.614 Y-75.363
X84.484 Y-75.196
X84.34 Y-75.039
X84.182 Y-74.892
X84.01 Y-74.757
X83.826 Y-74.634
X83.629 Y-74.524
X83.421 Y-74.429
X83.204 Y-74.351
X82.977 Y-74.289
X82.743 Y-74.244
X82.503 Y-74.219
X82.259 Y-74.213
X82.013 Y-74.226
X81.766 Y-74.26
X81.52 Y-74.313
X81.277 Y-74.387
X81.04 Y-74.481
X80.809 Y-74.594
X80.586 Y-74.727
X80.373 Y-74.878
X80.172 Y-75.046
X79.984 Y-75.231
X79.811 Y-75.431
X79.654 Y-75.646
X79.514 Y-75.873
X79.392 Y-76.112
X79.29 Y-76.36
X79.207 Y-76.617
X79.145 Y-76.88
X79.105 Y-77.148
X79.086 Y-77.418
X79.088 Y-77.69
X79.113 Y-77.961
X79.159 Y-78.23
X79.227 Y-78.494
X79.316 Y-78.753
X79.426 Y-79.003
X79.555 Y-79.245
X79.704 Y-79.475
X79.87 Y-79.693
X80.054 Y-79.896
X80.253 Y-80.085
X80.467 Y-80.257
X80.694 Y-80.411
X80.933 Y-80.546
X81.182 Y-80.662
X81.44 Y-80.758
X81.705 Y-80.833
X81.974 Y-80.886
X82.247 Y-80.917
X82.522 Y-80.927
X82.797 Y-80.914
X83.07 Y-80.879
X83.339 Y-80.823
X83.603 Y-80.745
X83.86 Y-80.646
X84.108 Y-80.527
X84.346 Y-80.388
X84.571 Y-80.231
X84.785 Y-80.055
X84.991 Y-79.855
X85.205 Y-79.611
X85.407 Y-79.34
X85.594 Y-79.043
X85.758 Y-78.727
X85.896 Y-78.402
X86.004 Y-78.076
X86.083 Y-77.752
X86.124 Y-77.491
X86.132 Y-77.426
X86.134 Y-77.361
X86.13 Y-77.296
X86.089 Y-76.914
X86.07 Y-76.746
X86.018 Y-76.578
X85.852 Y-76.065
X85.837 Y-76.026
X85.819 Y-75.987
X85.483 Y-75.406
X85.458 Y-75.364
X85.425 Y-75.322
X85.013 Y-74.865
X84.943 Y-74.79
X84.872 Y-74.735
X84.411 Y-74.4
X84.343 Y-74.352
X84.175 Y-74.271
X83.672 Y-74.047
X83.63 Y-74.03
X83.588 Y-74.019
X82.918 Y-73.877
X82.876 Y-73.87
X82.834 Y-73.869
X82.163
X82.121 Y-73.871
X82.08 Y-73.877
X81.409 Y-74.02
X81.367 Y-74.031
X81.325 Y-74.048
X80.696 Y-74.329
X80.655 Y-74.353
X80.127 Y-74.735
X80.056 Y-74.792
X79.984 Y-74.868
X79.574 Y-75.323
X79.542 Y-75.364
X79.516 Y-75.406
X79.179 Y-75.991
X79.16 Y-76.032
X79.145 Y-76.076
X78.978 Y-76.59
X78.93 Y-76.746
X78.911 Y-76.914
X78.858 Y-77.416
X78.851 Y-77.5
X78.858 Y-77.584
X78.911 Y-78.086
X78.93 Y-78.254
X78.982 Y-78.422
X79.146 Y-78.927
X79.16 Y-78.968
X79.179 Y-79.009
X79.516 Y-79.594
X79.542 Y-79.636
X79.574 Y-79.677
X79.984 Y-80.133
X80.056 Y-80.208
X80.127 Y-80.265
X80.655 Y-80.647
X80.696 Y-80.671
X81.325 Y-80.952
X81.367 Y-80.969
X81.409 Y-80.98
X82.08 Y-81.123
X82.121 Y-81.129
X82.163 Y-81.131
X82.834
X82.876 Y-81.13
X82.918 Y-81.123
X83.588 Y-80.981
X83.63 Y-80.97
X83.672 Y-80.953
X84.175 Y-80.729
X84.343 Y-80.648
X84.51 Y-80.528
X84.872 Y-80.265
X84.943 Y-80.21
X85.013 Y-80.135
X85.425 Y-79.678
X85.458 Y-79.636
X85.483 Y-79.594
X85.819 Y-79.013
X85.837 Y-78.974
X85.855 Y-78.924
X86.019 Y-78.419
X86.07 Y-78.254
X86.089 Y-78.086
X86.142 Y-77.584
X86.149 Y-77.5
X86.142 Y-77.416
X86.13 Y-77.296
G3 X85.802 Y-77.023 I-0.314 J-0.044
G1 X85.75 Y-77.039 Z-1.995
X85.699 Y-77.054 Z-1.981
X85.652 Y-77.068 Z-1.958
X85.617 Y-77.103 Z-1.922
X85.588 Y-77.133 Z-1.878
X85.565 Y-77.156 Z-1.827
X85.549 Y-77.172 Z-1.771
X85.542 Y-77.179 Z-1.711
X85.541 Y-77.181 Z-1.683
G0 Z5
X81.275 Y-26.62
Z2.5
G3 X83.725 Y-28.38 Z2.335 I1.225 J-0.88 F333.3
X81.275 Y-26.62 Z2.169 I-1.225 J0.88
X83.725 Y-28.38 Z2.004 I1.225 J-0.88
X81.275 Y-26.62 Z1.838 I-1.225 J0.88
X83.725 Y-28.38 Z1.673 I1.225 J-0.88
X81.275 Y-26.62 Z1.507 I-1.225 J0.88
X83.725 Y-28.38 Z1.342 I1.225 J-0.88
X81.275 Y-26.62 Z1.176 I-1.225 J0.88
X83.725 Y-28.38 Z1.011 I1.225 J-0.88
X81.275 Y-26.62 Z0.845 I-1.225 J0.88
X83.725 Y-28.38 Z0.68 I1.225 J-0.88
X81.275 Y-26.62 Z0.515 I-1.225 J0.88
X83.725 Y-28.38 Z0.349 I1.225 J-0.88
X81.275 Y-26.62 Z0.184 I-1.225 J0.88
X83.725 Y-28.38 Z0.018 I1.225 J-0.88
X81.275 Y-26.62 Z-0.147 I-1.225 J0.88
X83.725 Y-28.38 Z-0.313 I1.225 J-0.88
X81.275 Y-26.62 Z-0.478 I-1.225 J0.88
X83.725 Y-28.38 Z-0.644 I1.225 J-0.88
X81.275 Y-26.62 Z-0.809 I-1.225 J0.88
X83.725 Y-28.38 Z-0.974 I1.225 J-0.88
X81.275 Y-26.62 Z-1.14 I-1.225 J0.88
X83.725 Y-28.38 Z-1.305 I1.225 J-0.88
X81.275 Y-26.62 Z-1.471 I-1.225 J0.88
X83.725 Y-28.38 Z-1.636 I1.225 J-0.88
X81.275 Y-26.62 Z-1.802 I-1.225 J0.88
X83.725 Y-28.38 Z-1.967 I1.225 J-0.88
X84.008 Y-27.5 Z-2 I-1.225 J0.88
X80.992 I-1.508
X84.008 I1.508
G1 X84.028 Y-26.762 F1000
X84.049 Y-26.673
X84.065 Y-26.523
X84.052 Y-26.374
X84.017 Y-26.228
X83.962 Y-26.089
X83.89 Y-25.957
X83.805 Y-25.834
X83.706 Y-25.72
X83.598 Y-25.617
X83.48 Y-25.524
X83.354 Y-25.442
X83.222 Y-25.371
X83.084 Y-25.311
X82.937 Y-25.26
X82.783 Y-25.221
X82.623 Y-25.193
X82.458 Y-25.179
X82.289 Y-25.177
X82.118 Y-25.189
X81.947 Y-25.215
X81.775 Y-25.256
X81.606 Y-25.31
X81.439 Y-25.379
X81.278 Y-25.462
X81.122 Y-25.558
X80.973 Y-25.667
X80.833 Y-25.789
X80.702 Y-25.922
X80.582 Y-26.065
X80.473 Y-26.219
X80.377 Y-26.382
X80.294 Y-26.552
X80.224 Y-26.729
X80.169 Y-26.911
X80.128 Y-27.098
X80.102 Y-27.287
X80.092 Y-27.479
X80.097 Y-27.671
X80.118 Y-27.862
X80.154 Y-28.051
X80.205 Y-28.237
X80.27 Y-28.418
X80.35 Y-28.594
X80.445 Y-28.762
X80.552 Y-28.923
X80.672 Y-29.075
X80.804 Y-29.216
X80.946 Y-29.347
X81.099 Y-29.465
X81.261 Y-29.571
X81.431 Y-29.664
X81.608 Y-29.743
X81.791 Y-29.807
X81.978 Y-29.857
X82.169 Y-29.891
X82.362 Y-29.91
X82.555 Y-29.914
X82.749 Y-29.902
X82.941 Y-29.874
X83.13 Y-29.831
X83.315 Y-29.773
X83.495 Y-29.7
X83.668 Y-29.613
X83.834 Y-29.513
X83.991 Y-29.399
X84.139 Y-29.274
X84.276 Y-29.137
X84.401 Y-28.989
X84.515 Y-28.831
X84.619 Y-28.659
X84.73 Y-28.436
X84.877 Y-28.072
X84.985 Y-27.729
X85.049 Y-27.446
X85.085 Y-27.191
X85.1 Y-26.954
X85.096 Y-26.73
X85.075 Y-26.517
X85.037 Y-26.31
X84.983 Y-26.108
X84.914 Y-25.911
X84.829 Y-25.72
X84.729 Y-25.537
X84.614 Y-25.362
X84.484 Y-25.196
X84.34 Y-25.039
X84.182 Y-24.892
X84.011 Y-24.756
X83.826 Y-24.633
X83.63 Y-24.524
X83.422 Y-24.429
X83.204 Y-24.35
X82.977 Y-24.288
X82.743 Y-24.244
X82.503 Y-24.219
X82.259 Y-24.212
X82.013 Y-24.226
X81.766 Y-24.259
X81.52 Y-24.313
X81.278 Y-24.387
X81.04 Y-24.481
X80.809 Y-24.594
X80.586 Y-24.726
X80.373 Y-24.877
X80.172 Y-25.046
X79.985 Y-25.231
X79.811 Y-25.431
X79.654 Y-25.645
X79.514 Y-25.873
X79.392 Y-26.111
X79.29 Y-26.36
X79.207 Y-26.616
X79.145 Y-26.88
X79.105 Y-27.147
X79.086 Y-27.418
X79.089 Y-27.69
X79.113 Y-27.961
X79.16 Y-28.23
X79.227 Y-28.494
X79.316 Y-28.752
X79.426 Y-29.003
X79.555 Y-29.244
X79.704 Y-29.474
X79.87 Y-29.692
X80.054 Y-29.896
X80.253 Y-30.084
X80.467 Y-30.256
X80.694 Y-30.411
X80.933 Y-30.546
X81.182 Y-30.662
X81.44 Y-30.758
X81.705 Y-30.832
X81.974 Y-30.886
X82.248 Y-30.917
X82.523 Y-30.926
X82.797 Y-30.914
X83.07 Y-30.879
X83.339 Y-30.822
X83.603 Y-30.744
X83.86 Y-30.645
X84.108 Y-30.526
X84.346 Y-30.388
X84.572 Y-30.23
X84.785 Y-30.054
X84.992 Y-29.854
X85.206 Y-29.611
X85.408 Y-29.34
X85.594 Y-29.043
X85.759 Y-28.727
X85.896 Y-28.402
X86.004 Y-28.075
X86.083 Y-27.752
X86.124 Y-27.491
X86.132 Y-27.427
X86.134 Y-27.362
X86.13 Y-27.297
X86.079 Y-26.815
X86.067 Y-26.732
X86.019 Y-26.581
X85.852 Y-26.065
X85.836 Y-26.021
X85.814 Y-25.978
X85.472 Y-25.385
X85.445 Y-25.346
X85.412 Y-25.308
X84.959 Y-24.805
X84.846 Y-24.716
X84.343 Y-24.351
X84.318 Y-24.336
X84.294 Y-24.324
X83.672 Y-24.047
X83.63 Y-24.03
X83.588 Y-24.019
X82.918 Y-23.877
X82.876 Y-23.87
X82.834 Y-23.869
X82.163
X82.121 Y-23.871
X82.08 Y-23.877
X81.409 Y-24.02
X81.367 Y-24.031
X81.325 Y-24.048
X80.755 Y-24.302
X80.655 Y-24.353
X80.096 Y-24.758
X80.068 Y-24.779
X80.041 Y-24.805
X79.588 Y-25.308
X79.554 Y-25.347
X79.527 Y-25.387
X79.186 Y-25.978
X79.162 Y-26.026
X79.146 Y-26.073
X78.959 Y-26.648
X78.934 Y-26.732
X78.921 Y-26.815
X78.868 Y-27.318
X78.852 Y-27.486
X78.865 Y-27.653
X78.927 Y-28.24
X78.95 Y-28.323
X79.146 Y-28.927
X79.172 Y-28.994
X79.266 Y-29.161
X79.481 Y-29.533
X79.562 Y-29.664
X80.015 Y-30.167
X80.083 Y-30.232
X80.655 Y-30.647
X80.693 Y-30.669
X81.157 Y-30.877
X81.325 Y-30.952
X81.367 Y-30.969
X81.409 Y-30.98
X82.08 Y-31.123
X82.121 Y-31.129
X82.163 Y-31.131
X82.834
X82.876 Y-31.13
X82.918 Y-31.123
X83.588 Y-30.981
X83.63 Y-30.97
X83.672 Y-30.953
X84.175 Y-30.729
X84.307 Y-30.669
X84.343 Y-30.648
X84.846 Y-30.284
X84.915 Y-30.233
X84.95 Y-30.204
X85.013 Y-30.135
X85.437 Y-29.664
X85.461 Y-29.632
X85.734 Y-29.161
X85.828 Y-28.994
X85.852 Y-28.935
X86.05 Y-28.323
X86.073 Y-28.24
X86.1 Y-27.988
X86.135 Y-27.653
X86.148 Y-27.486
X86.13 Y-27.297
G3 X85.802 Y-27.024 I-0.314 J-0.044
G1 X85.75 Y-27.039 Z-1.995
X85.699 Y-27.055 Z-1.981
X85.652 Y-27.069 Z-1.958
X85.617 Y-27.104 Z-1.922
X85.588 Y-27.133 Z-1.878
X85.565 Y-27.156 Z-1.827
X85.549 Y-27.172 Z-1.771
X85.542 Y-27.18 Z-1.711
X85.541 Y-27.181 Z-1.683
G0 Z5
X131.274 Y-126.62
Z2.5
G3 X133.724 Y-128.38 Z2.335 I1.225 J-0.88 F333.3
X131.274 Y-126.62 Z2.169 I-1.225 J0.88
X133.724 Y-128.38 Z2.004 I1.225 J-0.88
X131.274 Y-126.62 Z1.838 I-1.225 J0.88
X133.724 Y-128.38 Z1.673 I1.225 J-0.88
X131.274 Y-126.62 Z1.507 I-1.225 J0.88
X133.724 Y-128.38 Z1.342 I1.225 J-0.88
X131.274 Y-126.62 Z1.176 I-1.225 J0.88
X133.724 Y-128.38 Z1.011 I1.225 J-0.88
X131.274 Y-126.62 Z0.845 I-1.225 J0.88
X133.724 Y-128.38 Z0.68 I1.225 J-0.88
X131.274 Y-126.62 Z0.515 I-1.225 J0.88
X133.724 Y-128.38 Z0.349 I1.225 J-0.88
X131.274 Y-126.62 Z0.184 I-1.225 J0.88
X133.724 Y-128.38 Z0.018 I1.225 J-0.88
X131.274 Y-126.62 Z-0.147 I-1.225 J0.88
X133.724 Y-128.38 Z-0.313 I1.225 J-0.88
X131.274 Y-126.62 Z-0.478 I-1.225 J0.88
X133.724 Y-128.38 Z-0.644 I1.225 J-0.88
X131.274 Y-126.62 Z-0.809 I-1.225 J0.88
X133.724 Y-128.38 Z-0.974 I1.225 J-0.88
X131.274 Y-126.62 Z-1.14 I-1.225 J0.88
X133.724 Y-128.38 Z-1.305 I1.225 J-0.88
X131.274 Y-126.62 Z-1.471 I-1.225 J0.88
X133.724 Y-128.38 Z-1.636 I1.225 J-0.88
X131.274 Y-126.62 Z-1.802 I-1.225 J0.88
X133.724 Y-128.38 Z-1.967 I1.225 J-0.88
X134.007 Y-127.5 Z-2 I-1.225 J0.88
X130.991 I-1.508
X134.007 I1.508
G1 X134.026 Y-126.762 F1000
X134.048 Y-126.673
X134.064 Y-126.523
X134.051 Y-126.374
X134.016 Y-126.228
X133.961 Y-126.089
X133.889 Y-125.957
X133.803 Y-125.834
X133.705 Y-125.72
X133.596 Y-125.617
X133.479 Y-125.524
X133.353 Y-125.442
X133.221 Y-125.371
X133.082 Y-125.311
X132.936 Y-125.26
X132.782 Y-125.221
X132.622 Y-125.193
X132.457 Y-125.179
X132.288 Y-125.177
X132.117 Y-125.189
X131.945 Y-125.215
X131.774 Y-125.256
X131.604 Y-125.31
X131.438 Y-125.379
X131.276 Y-125.462
X131.121 Y-125.558
X130.972 Y-125.667
X130.832 Y-125.789
X130.701 Y-125.922
X130.581 Y-126.065
X130.472 Y-126.219
X130.376 Y-126.382
X130.292 Y-126.552
X130.223 Y-126.729
X130.167 Y-126.911
X130.127 Y-127.098
X130.101 Y-127.287
X130.091 Y-127.479
X130.096 Y-127.671
X130.116 Y-127.862
X130.152 Y-128.051
X130.203 Y-128.237
X130.269 Y-128.418
X130.349 Y-128.594
X130.443 Y-128.762
X130.551 Y-128.923
X130.671 Y-129.075
X130.802 Y-129.216
X130.945 Y-129.347
X131.098 Y-129.465
X131.26 Y-129.571
X131.43 Y-129.664
X131.607 Y-129.743
X131.789 Y-129.807
X131.977 Y-129.857
X132.167 Y-129.891
X132.36 Y-129.91
X132.554 Y-129.914
X132.748 Y-129.902
X132.94 Y-129.874
X133.129 Y-129.831
X133.314 Y-129.773
X133.493 Y-129.7
X133.667 Y-129.614
X133.833 Y-129.513
X133.99 Y-129.4
X134.137 Y-129.274
X134.275 Y-129.137
X134.4 Y-128.989
X134.514 Y-128.831
X134.618 Y-128.659
X134.729 Y-128.436
X134.876 Y-128.072
X134.983 Y-127.729
X135.047 Y-127.446
X135.084 Y-127.191
X135.099 Y-126.954
X135.094 Y-126.73
X135.073 Y-126.517
X135.036 Y-126.31
X134.982 Y-126.108
X134.912 Y-125.911
X134.827 Y-125.72
X134.727 Y-125.538
X134.612 Y-125.363
X134.483 Y-125.196
X134.339 Y-125.039
X134.181 Y-124.892
X134.009 Y-124.756
X133.825 Y-124.633
X133.628 Y-124.524
X133.42 Y-124.429
X133.202 Y-124.35
X132.976 Y-124.288
X132.742 Y-124.244
X132.502 Y-124.219
X132.258 Y-124.212
X132.012 Y-124.226
X131.765 Y-124.259
X131.519 Y-124.313
X131.276 Y-124.387
X131.039 Y-124.481
X130.808 Y-124.594
X130.585 Y-124.727
X130.372 Y-124.877
X130.171 Y-125.046
X129.983 Y-125.231
X129.81 Y-125.431
X129.653 Y-125.645
X129.513 Y-125.873
X129.391 Y-126.111
X129.289 Y-126.36
X129.206 Y-126.617
X129.144 Y-126.88
X129.104 Y-127.147
X129.085 Y-127.418
X129.087 Y-127.69
X129.112 Y-127.961
X129.158 Y-128.23
X129.226 Y-128.494
X129.315 Y-128.752
X129.425 Y-129.003
X129.554 Y-129.244
X129.703 Y-129.475
X129.869 Y-129.692
X130.053 Y-129.896
X130.252 Y-130.084
X130.466 Y-130.256
X130.693 Y-130.411
X130.932 Y-130.546
X131.181 Y-130.662
X131.439 Y-130.758
X131.703 Y-130.832
X131.973 Y-130.886
X132.246 Y-130.917
X132.521 Y-130.926
X132.796 Y-130.914
X133.069 Y-130.879
X133.338 Y-130.822
X133.602 Y-130.744
X133.859 Y-130.646
X134.107 Y-130.526
X134.344 Y-130.388
X134.57 Y-130.23
X134.784 Y-130.054
X134.99 Y-129.854
X135.204 Y-129.611
X135.406 Y-129.34
X135.593 Y-129.043
X135.757 Y-128.727
X135.895 Y-128.402
X136.003 Y-128.075
X136.081 Y-127.752
X136.124 Y-127.487
X136.131 Y-127.422
X136.133 Y-127.357
X136.129 Y-127.292
X136.082 Y-126.844
X136.073 Y-126.76
X136.05 Y-126.677
X135.887 Y-126.174
X135.828 Y-126.006
X135.81 Y-125.972
X135.475 Y-125.391
X135.437 Y-125.336
X134.972 Y-124.819
X134.93 Y-124.778
X134.804 Y-124.686
X134.469 Y-124.443
X134.307 Y-124.331
X133.933 Y-124.163
X133.799 Y-124.104
X133.631 Y-124.031
X133.463 Y-123.993
X132.96 Y-123.886
X132.877 Y-123.87
X132.793 Y-123.869
X132.29
X132.122 Y-123.871
X131.954 Y-123.904
X131.452 Y-124.011
X131.368 Y-124.032
X131.284 Y-124.067
X130.781 Y-124.291
X130.693 Y-124.331
X130.613 Y-124.383
X130.11 Y-124.748
X130.063 Y-124.784
X130.015 Y-124.833
X129.563 Y-125.336
X129.533 Y-125.378
X129.266 Y-125.839
X129.171 Y-126.006
X129.104 Y-126.2
X128.95 Y-126.677
X128.937 Y-126.718
X128.918 Y-126.844
X128.865 Y-127.347
X128.852 Y-127.514
X128.868 Y-127.682
X128.926 Y-128.234
X128.937 Y-128.283
X129.15 Y-128.938
X129.165 Y-128.98
X129.186 Y-129.022
X129.525 Y-129.609
X129.553 Y-129.651
X129.588 Y-129.692
X130.041 Y-130.195
X130.076 Y-130.226
X130.613 Y-130.617
X130.684 Y-130.665
X130.781 Y-130.709
X131.284 Y-130.933
X131.368 Y-130.969
X131.452 Y-130.989
X131.954 Y-131.096
X132.122 Y-131.129
X132.29 Y-131.131
X132.793
X132.877 Y-131.13
X132.96 Y-131.114
X133.463 Y-131.007
X133.631 Y-130.969
X133.868 Y-130.865
X134.302 Y-130.672
X134.469 Y-130.557
X134.804 Y-130.314
X134.959 Y-130.195
X135.412 Y-129.692
X135.447 Y-129.651
X135.475 Y-129.609
X135.814 Y-129.022
X135.835 Y-128.98
X135.85 Y-128.938
X136.041 Y-128.352
X136.067 Y-128.268
X136.079 Y-128.185
X136.146 Y-127.551
X136.148 Y-127.514
X136.146 Y-127.449
X136.129 Y-127.292
G3 X135.801 Y-127.019 I-0.314 J-0.044
G1 X135.749 Y-127.035 Z-1.995
X135.699 Y-127.05 Z-1.981
X135.651 Y-127.064 Z-1.958
X135.617 Y-127.099 Z-1.922
X135.587 Y-127.129 Z-1.878
X135.565 Y-127.152 Z-1.827
X135.549 Y-127.167 Z-1.771
X135.541 Y-127.175 Z-1.711
X135.54 Y-127.176 Z-1.683
G0 Z5
X131.275 Y-76.62
Z2.5
G3 X133.725 Y-78.38 Z2.335 I1.225 J-0.88 F333.3
X131.275 Y-76.62 Z2.169 I-1.225 J0.88
X133.725 Y-78.38 Z2.004 I1.225 J-0.88
X131.275 Y-76.62 Z1.838 I-1.225 J0.88
X133.725 Y-78.38 Z1.673 I1.225 J-0.88
X131.275 Y-76.62 Z1.507 I-1.225 J0.88
X133.725 Y-78.38 Z1.342 I1.225 J-0.88
X131.275 Y-76.62 Z1.176 I-1.225 J0.88
X133.725 Y-78.38 Z1.011 I1.225 J-0.88
X131.275 Y-76.62 Z0.845 I-1.225 J0.88
X133.725 Y-78.38 Z0.68 I1.225 J-0.88
X131.275 Y-76.62 Z0.515 I-1.225 J0.88
X133.725 Y-78.38 Z0.349 I1.225 J-0.88
X131.275 Y-76.62 Z0.184 I-1.225 J0.88
X133.725 Y-78.38 Z0.018 I1.225 J-0.88
X131.275 Y-76.62 Z-0.147 I-1.225 J0.88
X133.725 Y-78.38 Z-0.313 I1.225 J-0.88
X131.275 Y-76.62 Z-0.478 I-1.225 J0.88
X133.725 Y-78.38 Z-0.644 I1.225 J-0.88
X131.275 Y-76.62 Z-0.809 I-1.225 J0.88
X133.725 Y-78.38 Z-0.974 I1.225 J-0.88
X131.275 Y-76.62 Z-1.14 I-1.225 J0.88
X133.725 Y-78.38 Z-1.305 I1.225 J-0.88
X131.275 Y-76.62 Z-1.471 I-1.225 J0.88
X133.725 Y-78.38 Z-1.636 I1.225 J-0.88
X131.275 Y-76.62 Z-1.802 I-1.225 J0.88
X133.725 Y-78.38 Z-1.967 I1.225 J-0.88
X134.008 Y-77.5 Z-2 I-1.225 J0.88
X130.992 I-1.508
X134.008 I1.508
G1 X134.027 Y-76.763 F1000
X134.049 Y-76.673
X134.064 Y-76.524
X134.052 Y-76.374
X134.016 Y-76.229
X133.961 Y-76.089
X133.89 Y-75.957
X133.804 Y-75.834
X133.706 Y-75.721
X133.597 Y-75.617
X133.479 Y-75.524
X133.354 Y-75.442
X133.222 Y-75.371
X133.083 Y-75.311
X132.936 Y-75.261
X132.782 Y-75.221
X132.622 Y-75.194
X132.457 Y-75.179
X132.289 Y-75.177
X132.118 Y-75.189
X131.946 Y-75.216
X131.775 Y-75.256
X131.605 Y-75.311
X131.439 Y-75.38
X131.277 Y-75.462
X131.121 Y-75.558
X130.973 Y-75.667
X130.833 Y-75.789
X130.702 Y-75.922
X130.582 Y-76.066
X130.473 Y-76.219
X130.376 Y-76.382
X130.293 Y-76.552
X130.223 Y-76.729
X130.168 Y-76.911
X130.127 Y-77.098
X130.102 Y-77.288
X130.092 Y-77.479
X130.097 Y-77.671
X130.117 Y-77.862
X130.153 Y-78.051
X130.204 Y-78.237
X130.27 Y-78.418
X130.35 Y-78.594
X130.444 Y-78.763
X130.551 Y-78.923
X130.671 Y-79.075
X130.803 Y-79.216
X130.946 Y-79.347
X131.099 Y-79.466
X131.261 Y-79.572
X131.431 Y-79.665
X131.607 Y-79.743
X131.79 Y-79.808
X131.977 Y-79.857
X132.168 Y-79.892
X132.361 Y-79.911
X132.555 Y-79.914
X132.748 Y-79.902
X132.94 Y-79.874
X133.129 Y-79.831
X133.314 Y-79.773
X133.494 Y-79.701
X133.667 Y-79.614
X133.833 Y-79.513
X133.991 Y-79.4
X134.138 Y-79.274
X134.275 Y-79.137
X134.401 Y-78.989
X134.514 Y-78.832
X134.619 Y-78.659
X134.73 Y-78.437
X134.877 Y-78.072
X134.984 Y-77.729
X135.048 Y-77.447
X135.085 Y-77.191
X135.099 Y-76.954
X135.095 Y-76.731
X135.074 Y-76.518
X135.037 Y-76.311
X134.983 Y-76.108
X134.913 Y-75.911
X134.828 Y-75.721
X134.728 Y-75.538
X134.613 Y-75.363
X134.484 Y-75.196
X134.34 Y-75.039
X134.181 Y-74.892
X134.01 Y-74.757
X133.826 Y-74.634
X133.629 Y-74.524
X133.421 Y-74.429
X133.203 Y-74.351
X132.976 Y-74.289
X132.742 Y-74.244
X132.503 Y-74.219
X132.259 Y-74.213
X132.012 Y-74.226
X131.765 Y-74.26
X131.52 Y-74.313
X131.277 Y-74.387
X131.039 Y-74.481
X130.808 Y-74.594
X130.586 Y-74.727
X130.373 Y-74.878
X130.172 Y-75.046
X129.984 Y-75.231
X129.811 Y-75.431
X129.654 Y-75.646
X129.514 Y-75.873
X129.392 Y-76.112
X129.289 Y-76.36
X129.207 Y-76.617
X129.145 Y-76.88
X129.104 Y-77.148
X129.085 Y-77.418
X129.088 Y-77.69
X129.113 Y-77.961
X129.159 Y-78.23
X129.227 Y-78.494
X129.316 Y-78.753
X129.425 Y-79.003
X129.555 Y-79.245
X129.703 Y-79.475
X129.87 Y-79.693
X130.053 Y-79.896
X130.253 Y-80.085
X130.467 Y-80.257
X130.694 Y-80.411
X130.933 Y-80.546
X131.182 Y-80.662
X131.44 Y-80.758
X131.704 Y-80.833
X131.974 Y-80.886
X132.247 Y-80.917
X132.522 Y-80.927
X132.797 Y-80.914
X133.07 Y-80.879
X133.339 Y-80.823
X133.603 Y-80.745
X133.859 Y-80.646
X134.108 Y-80.527
X134.345 Y-80.388
X134.571 Y-80.231
X134.785 Y-80.055
X134.991 Y-79.855
X135.205 Y-79.611
X135.407 Y-79.34
X135.593 Y-79.043
X135.758 Y-78.727
X135.895 Y-78.402
X136.003 Y-78.076
X136.082 Y-77.752
X136.124 Y-77.489
X136.132 Y-77.425
X136.133 Y-77.36
X136.129 Y-77.295
X136.089 Y-76.914
X136.07 Y-76.746
X136.018 Y-76.578
X135.855 Y-76.076
X135.837 Y-76.024
X135.81 Y-75.972
X135.475 Y-75.391
X135.45 Y-75.353
X135.418 Y-75.315
X134.972 Y-74.819
X134.922 Y-74.773
X134.804 Y-74.686
X134.411 Y-74.4
X134.302 Y-74.328
X133.712 Y-74.065
X133.631 Y-74.031
X133.463 Y-73.993
X132.96 Y-73.886
X132.877 Y-73.87
X132.793 Y-73.869
X132.29
X132.122 Y-73.871
X131.954 Y-73.904
X131.452 Y-74.011
X131.37 Y-74.03
X131.284 Y-74.067
X130.697 Y-74.328
X130.613 Y-74.383
X130.11 Y-74.748
X130.071 Y-74.778
X130.031 Y-74.815
X129.607 Y-75.286
X129.556 Y-75.346
X129.516 Y-75.406
X129.178 Y-75.992
X129.159 Y-76.034
X128.937 Y-76.717
X128.93 Y-76.746
X128.911 Y-76.914
X128.858 Y-77.416
X128.851 Y-77.5
X128.858 Y-77.584
X128.911 Y-78.086
X128.93 Y-78.254
X128.937 Y-78.283
X129.159 Y-78.966
X129.178 Y-79.008
X129.516 Y-79.594
X129.556 Y-79.654
X129.607 Y-79.714
X130.031 Y-80.185
X130.071 Y-80.222
X130.128 Y-80.265
X130.613 Y-80.617
X130.697 Y-80.672
X131.288 Y-80.935
X131.37 Y-80.97
X131.452 Y-80.989
X131.984 Y-81.102
X132.122 Y-81.129
X132.29 Y-81.131
X132.793
X132.877 Y-81.13
X132.96 Y-81.114
X133.463 Y-81.007
X133.631 Y-80.969
X133.712 Y-80.935
X134.302 Y-80.672
X134.411 Y-80.6
X134.872 Y-80.265
X134.922 Y-80.227
X134.972 Y-80.181
X135.418 Y-79.685
X135.45 Y-79.647
X135.475 Y-79.609
X135.81 Y-79.028
X135.837 Y-78.976
X135.855 Y-78.924
X136.018 Y-78.422
X136.07 Y-78.254
X136.089 Y-78.086
X136.146 Y-77.551
X136.149 Y-77.5
X136.146 Y-77.449
X136.129 Y-77.295
G3 X135.802 Y-77.022 I-0.314 J-0.044
G1 X135.749 Y-77.038 Z-1.995
X135.699 Y-77.053 Z-1.981
X135.652 Y-77.067 Z-1.958
X135.617 Y-77.102 Z-1.922
X135.588 Y-77.131 Z-1.878
X135.565 Y-77.154 Z-1.827
X135.549 Y-77.17 Z-1.771
X135.541 Y-77.178 Z-1.711
Y-77.179 Z-1.683
G0 Z5
X131.275 Y-26.62
Z2.5
G3 X133.725 Y-28.38 Z2.335 I1.225 J-0.88 F333.3
X131.275 Y-26.62 Z2.169 I-1.225 J0.88
X133.725 Y-28.38 Z2.004 I1.225 J-0.88
X131.275 Y-26.62 Z1.838 I-1.225 J0.88
X133.725 Y-28.38 Z1.673 I1.225 J-0.88
X131.275 Y-26.62 Z1.507 I-1.225 J0.88
X133.725 Y-28.38 Z1.342 I1.225 J-0.88
X131.275 Y-26.62 Z1.176 I-1.225 J0.88
X133.725 Y-28.38 Z1.011 I1.225 J-0.88
X131.275 Y-26.62 Z0.845 I-1.225 J0.88
X133.725 Y-28.38 Z0.68 I1.225 J-0.88
X131.275 Y-26.62 Z0.515 I-1.225 J0.88
X133.725 Y-28.38 Z0.349 I1.225 J-0.88
X131.275 Y-26.62 Z0.184 I-1.225 J0.88
X133.725 Y-28.38 Z0.018 I1.225 J-0.88
X131.275 Y-26.62 Z-0.147 I-1.225 J0.88
X133.725 Y-28.38 Z-0.313 I1.225 J-0.88
X131.275 Y-26.62 Z-0.478 I-1.225 J0.88
X133.725 Y-28.38 Z-0.644 I1.225 J-0.88
X131.275 Y-26.62 Z-0.809 I-1.225 J0.88
X133.725 Y-28.38 Z-0.974 I1.225 J-0.88
X131.275 Y-26.62 Z-1.14 I-1.225 J0.88
X133.725 Y-28.38 Z-1.305 I1.225 J-0.88
X131.275 Y-26.62 Z-1.471 I-1.225 J0.88
X133.725 Y-28.38 Z-1.636 I1.225 J-0.88
X131.275 Y-26.62 Z-1.802 I-1.225 J0.88
X133.725 Y-28.38 Z-1.967 I1.225 J-0.88
X134.008 Y-27.5 Z-2 I-1.225 J0.88
X130.992 I-1.508
X134.008 I1.508
G1 X134.027 Y-26.763 F1000
X134.049 Y-26.673
X134.064 Y-26.524
X134.052 Y-26.374
X134.016 Y-26.229
X133.961 Y-26.089
X133.89 Y-25.957
X133.804 Y-25.834
X133.706 Y-25.721
X133.597 Y-25.617
X133.479 Y-25.524
X133.354 Y-25.442
X133.222 Y-25.371
X133.083 Y-25.311
X132.937 Y-25.261
X132.783 Y-25.221
X132.622 Y-25.194
X132.457 Y-25.179
X132.289 Y-25.177
X132.118 Y-25.189
X131.946 Y-25.216
X131.775 Y-25.256
X131.605 Y-25.311
X131.439 Y-25.38
X131.277 Y-25.462
X131.121 Y-25.558
X130.973 Y-25.667
X130.833 Y-25.789
X130.702 Y-25.922
X130.582 Y-26.066
X130.473 Y-26.219
X130.376 Y-26.382
X130.293 Y-26.552
X130.223 Y-26.729
X130.168 Y-26.911
X130.127 Y-27.098
X130.102 Y-27.288
X130.092 Y-27.479
X130.097 Y-27.671
X130.117 Y-27.862
X130.153 Y-28.051
X130.204 Y-28.237
X130.27 Y-28.418
X130.35 Y-28.594
X130.444 Y-28.763
X130.551 Y-28.923
X130.671 Y-29.075
X130.803 Y-29.216
X130.946 Y-29.347
X131.099 Y-29.466
X131.261 Y-29.572
X131.431 Y-29.664
X131.608 Y-29.743
X131.79 Y-29.808
X131.978 Y-29.857
X132.168 Y-29.892
X132.361 Y-29.911
X132.555 Y-29.914
X132.748 Y-29.902
X132.94 Y-29.874
X133.129 Y-29.831
X133.314 Y-29.773
X133.494 Y-29.701
X133.668 Y-29.614
X133.833 Y-29.513
X133.991 Y-29.4
X134.138 Y-29.274
X134.275 Y-29.137
X134.401 Y-28.989
X134.514 Y-28.832
X134.619 Y-28.659
X134.73 Y-28.437
X134.877 Y-28.072
X134.984 Y-27.729
X135.048 Y-27.447
X135.085 Y-27.191
X135.099 Y-26.954
X135.095 Y-26.731
X135.074 Y-26.518
X135.037 Y-26.311
X134.983 Y-26.108
X134.913 Y-25.911
X134.828 Y-25.721
X134.728 Y-25.538
X134.613 Y-25.363
X134.484 Y-25.196
X134.34 Y-25.039
X134.182 Y-24.892
X134.01 Y-24.757
X133.826 Y-24.634
X133.629 Y-24.524
X133.421 Y-24.429
X133.203 Y-24.351
X132.977 Y-24.289
X132.743 Y-24.244
X132.503 Y-24.219
X132.259 Y-24.213
X132.013 Y-24.226
X131.766 Y-24.26
X131.52 Y-24.313
X131.277 Y-24.387
X131.039 Y-24.481
X130.808 Y-24.594
X130.586 Y-24.727
X130.373 Y-24.878
X130.172 Y-25.046
X129.984 Y-25.231
X129.811 Y-25.431
X129.654 Y-25.646
X129.514 Y-25.873
X129.392 Y-26.112
X129.289 Y-26.36
X129.207 Y-26.617
X129.145 Y-26.88
X129.104 Y-27.148
X129.085 Y-27.418
X129.088 Y-27.69
X129.113 Y-27.961
X129.159 Y-28.23
X129.227 Y-28.494
X129.316 Y-28.753
X129.425 Y-29.003
X129.555 Y-29.245
X129.703 Y-29.475
X129.87 Y-29.692
X130.053 Y-29.896
X130.253 Y-30.085
X130.467 Y-30.257
X130.694 Y-30.411
X130.933 Y-30.546
X131.182 Y-30.662
X131.44 Y-30.758
X131.704 Y-30.833
X131.974 Y-30.886
X132.247 Y-30.917
X132.522 Y-30.927
X132.797 Y-30.914
X133.07 Y-30.879
X133.339 Y-30.823
X133.603 Y-30.745
X133.86 Y-30.646
X134.108 Y-30.527
X134.345 Y-30.388
X134.571 Y-30.231
X134.785 Y-30.055
X134.991 Y-29.855
X135.205 Y-29.611
X135.407 Y-29.34
X135.593 Y-29.043
X135.758 Y-28.727
X135.895 Y-28.402
X136.003 Y-28.076
X136.082 Y-27.752
X136.124 Y-27.49
X136.132 Y-27.425
X136.133 Y-27.36
X136.129 Y-27.295
X136.079 Y-26.815
X136.067 Y-26.732
X136.041 Y-26.648
X135.85 Y-26.062
X135.835 Y-26.02
X135.81 Y-25.972
X135.475 Y-25.391
X135.447 Y-25.349
X135.412 Y-25.308
X134.959 Y-24.805
X134.804 Y-24.686
X134.469 Y-24.443
X134.302 Y-24.328
X133.799 Y-24.104
X133.631 Y-24.031
X133.463 Y-23.993
X132.96 Y-23.886
X132.877 Y-23.87
X132.793 Y-23.869
X132.29
X132.122 Y-23.871
X131.954 Y-23.904
X131.452 Y-24.011
X131.368 Y-24.031
X131.284 Y-24.067
X130.755 Y-24.302
X130.684 Y-24.335
X130.613 Y-24.383
X130.076 Y-24.774
X130.041 Y-24.805
X129.588 Y-25.308
X129.553 Y-25.349
X129.525 Y-25.391
X129.186 Y-25.978
X129.165 Y-26.02
X129.15 Y-26.062
X128.937 Y-26.717
X128.926 Y-26.766
X128.868 Y-27.318
X128.852 Y-27.486
X128.865 Y-27.653
X128.918 Y-28.156
X128.937 Y-28.282
X128.95 Y-28.323
X129.113 Y-28.826
X129.171 Y-28.994
X129.272 Y-29.171
X129.533 Y-29.622
X129.563 Y-29.664
X130.015 Y-30.167
X130.063 Y-30.216
X130.11 Y-30.252
X130.613 Y-30.617
X130.693 Y-30.669
X130.781 Y-30.709
X131.284 Y-30.933
X131.368 Y-30.968
X131.452 Y-30.989
X131.954 Y-31.096
X132.122 Y-31.129
X132.29 Y-31.131
X132.793
X132.877 Y-31.13
X132.96 Y-31.114
X133.478 Y-31.004
X133.631 Y-30.969
X133.799 Y-30.896
X134.302 Y-30.672
X134.307 Y-30.669
X134.469 Y-30.557
X134.888 Y-30.253
X134.93 Y-30.222
X134.972 Y-30.181
X135.437 Y-29.664
X135.475 Y-29.609
X135.81 Y-29.028
X135.828 Y-28.994
X135.887 Y-28.826
X136.05 Y-28.323
X136.073 Y-28.24
X136.1 Y-27.988
X136.146 Y-27.551
X136.148 Y-27.486
X136.146 Y-27.449
X136.129 Y-27.295
G3 X135.802 Y-27.022 I-0.314 J-0.044
G1 X135.75 Y-27.038 Z-1.995
X135.699 Y-27.053 Z-1.981
X135.652 Y-27.067 Z-1.958
X135.617 Y-27.102 Z-1.922
X135.588 Y-27.132 Z-1.878
X135.565 Y-27.155 Z-1.827
X135.549 Y-27.17 Z-1.771
X135.541 Y-27.178 Z-1.711
Y-27.179 Z-1.683
G0 Z5
X181.275 Y-126.62
Z2.5
G3 X183.725 Y-128.38 Z2.335 I1.225 J-0.88 F333.3
X181.275 Y-126.62 Z2.169 I-1.225 J0.88
X183.725 Y-128.38 Z2.004 I1.225 J-0.88
X181.275 Y-126.62 Z1.838 I-1.225 J0.88
X183.725 Y-128.38 Z1.673 I1.225 J-0.88
X181.275 Y-126.62 Z1.507 I-1.225 J0.88
X183.725 Y-128.38 Z1.342 I1.225 J-0.88
X181.275 Y-126.62 Z1.176 I-1.225 J0.88
X183.725 Y-128.38 Z1.011 I1.225 J-0.88
X181.275 Y-126.62 Z0.845 I-1.225 J0.88
X183.725 Y-128.38 Z0.68 I1.225 J-0.88
X181.275 Y-126.62 Z0.515 I-1.225 J0.88
X183.725 Y-128.38 Z0.349 I1.225 J-0.88
X181.275 Y-126.62 Z0.184 I-1.225 J0.88
X183.725 Y-128.38 Z0.018 I1.225 J-0.88
X181.275 Y-126.62 Z-0.147 I-1.225 J0.88
X183.725 Y-128.38 Z-0.313 I1.225 J-0.88
X181.275 Y-126.62 Z-0.478 I-1.225 J0.88
X183.725 Y-128.38 Z-0.644 I1.225 J-0.88
X181.275 Y-126.62 Z-0.809 I-1.225 J0.88
X183.725 Y-128.38 Z-0.974 I1.225 J-0.88
X181.275 Y-126.62 Z-1.14 I-1.225 J0.88
X183.725 Y-128.38 Z-1.305 I1.225 J-0.88
X181.275 Y-126.62 Z-1.471 I-1.225 J0.88
X183.725 Y-128.38 Z-1.636 I1.225 J-0.88
X181.275 Y-126.62 Z-1.802 I-1.225 J0.88
X183.725 Y-128.38 Z-1.967 I1.225 J-0.88
X184.008 Y-127.5 Z-2 I-1.225 J0.88
X180.992 I-1.508
X184.008 I1.508
G1 X184.028 Y-126.762 F1000
X184.049 Y-126.673
X184.065 Y-126.523
X184.052 Y-126.374
X184.017 Y-126.228
X183.962 Y-126.089
X183.89 Y-125.957
X183.805 Y-125.834
X183.706 Y-125.72
X183.598 Y-125.617
X183.48 Y-125.524
X183.354 Y-125.442
X183.222 Y-125.371
X183.084 Y-125.311
X182.937 Y-125.26
X182.783 Y-125.221
X182.623 Y-125.193
X182.458 Y-125.178
X182.289 Y-125.177
X182.118 Y-125.189
X181.946 Y-125.215
X181.775 Y-125.256
X181.606 Y-125.31
X181.439 Y-125.379
X181.278 Y-125.462
X181.122 Y-125.558
X180.973 Y-125.667
X180.833 Y-125.789
X180.702 Y-125.922
X180.582 Y-126.065
X180.473 Y-126.219
X180.377 Y-126.381
X180.294 Y-126.552
X180.224 Y-126.729
X180.169 Y-126.911
X180.128 Y-127.098
X180.102 Y-127.287
X180.092 Y-127.479
X180.097 Y-127.671
X180.118 Y-127.862
X180.154 Y-128.051
X180.204 Y-128.237
X180.27 Y-128.418
X180.35 Y-128.594
X180.444 Y-128.762
X180.552 Y-128.923
X180.672 Y-129.074
X180.804 Y-129.216
X180.946 Y-129.347
X181.099 Y-129.465
X181.261 Y-129.571
X181.431 Y-129.664
X181.608 Y-129.743
X181.791 Y-129.807
X181.978 Y-129.857
X182.169 Y-129.891
X182.362 Y-129.91
X182.555 Y-129.914
X182.749 Y-129.901
X182.941 Y-129.874
X183.13 Y-129.831
X183.315 Y-129.773
X183.495 Y-129.7
X183.668 Y-129.613
X183.834 Y-129.513
X183.991 Y-129.399
X184.139 Y-129.274
X184.276 Y-129.136
X184.401 Y-128.989
X184.515 Y-128.831
X184.619 Y-128.659
X184.73 Y-128.436
X184.877 Y-128.072
X184.985 Y-127.729
X185.048 Y-127.446
X185.085 Y-127.191
X185.1 Y-126.953
X185.096 Y-126.73
X185.075 Y-126.517
X185.037 Y-126.31
X184.983 Y-126.108
X184.914 Y-125.911
X184.829 Y-125.72
X184.729 Y-125.537
X184.614 Y-125.362
X184.484 Y-125.196
X184.34 Y-125.039
X184.182 Y-124.892
X184.01 Y-124.756
X183.826 Y-124.633
X183.629 Y-124.524
X183.422 Y-124.429
X183.204 Y-124.35
X182.977 Y-124.288
X182.743 Y-124.244
X182.503 Y-124.218
X182.259 Y-124.212
X182.013 Y-124.226
X181.766 Y-124.259
X181.52 Y-124.313
X181.278 Y-124.387
X181.04 Y-124.481
X180.809 Y-124.594
X180.586 Y-124.726
X180.373 Y-124.877
X180.172 Y-125.046
X179.985 Y-125.231
X179.811 Y-125.431
X179.654 Y-125.645
X179.514 Y-125.873
X179.392 Y-126.111
X179.29 Y-126.36
X179.207 Y-126.616
X179.145 Y-126.879
X179.105 Y-127.147
X179.086 Y-127.418
X179.089 Y-127.69
X179.113 Y-127.961
X179.16 Y-128.23
X179.227 Y-128.494
X179.316 Y-128.752
X179.426 Y-129.003
X179.555 Y-129.244
X179.704 Y-129.474
X179.87 Y-129.692
X180.054 Y-129.896
X180.253 Y-130.084
X180.467 Y-130.256
X180.694 Y-130.41
X180.933 Y-130.546
X181.182 Y-130.662
X181.44 Y-130.758
X181.705 Y-130.832
X181.974 Y-130.886
X182.248 Y-130.917
X182.522 Y-130.926
X182.797 Y-130.914
X183.07 Y-130.879
X183.339 Y-130.822
X183.603 Y-130.744
X183.86 Y-130.645
X184.108 Y-130.526
X184.346 Y-130.387
X184.571 Y-130.23
X184.785 Y-130.054
X184.991 Y-129.854
X185.206 Y-129.611
X185.408 Y-129.34
X185.594 Y-129.043
X185.759 Y-128.727
X185.896 Y-128.401
X186.004 Y-128.075
X186.083 Y-127.751
X186.124 Y-127.491
X186.132 Y-127.427
X186.134 Y-127.362
X186.13 Y-127.297
X186.082 Y-126.844
X186.073 Y-126.76
X186.05 Y-126.677
X185.887 Y-126.174
X185.828 Y-126.006
X185.769 Y-125.9
X185.467 Y-125.378
X185.434 Y-125.332
X184.985 Y-124.833
X184.931 Y-124.78
X184.763 Y-124.656
X184.428 Y-124.413
X184.307 Y-124.331
X184.26 Y-124.309
X183.674 Y-124.048
X183.632 Y-124.031
X183.59 Y-124.019
X182.919 Y-123.877
X182.877 Y-123.87
X182.835 Y-123.869
X182.165
X182.123 Y-123.87
X182.081 Y-123.877
X181.41 Y-124.019
X181.368 Y-124.031
X181.326 Y-124.048
X180.74 Y-124.309
X180.693 Y-124.331
X180.572 Y-124.413
X180.223 Y-124.666
X180.069 Y-124.78
X180.015 Y-124.833
X179.563 Y-125.336
X179.533 Y-125.378
X179.231 Y-125.9
X179.172 Y-126.006
X179.113 Y-126.174
X178.95 Y-126.677
X178.927 Y-126.76
X178.896 Y-127.057
X178.865 Y-127.347
X178.852 Y-127.514
X178.868 Y-127.682
X178.921 Y-128.185
X178.933 Y-128.268
X178.959 Y-128.352
X179.15 Y-128.938
X179.165 Y-128.98
X179.186 Y-129.022
X179.476 Y-129.525
X179.566 Y-129.668
X180.041 Y-130.195
X180.069 Y-130.22
X180.263 Y-130.363
X180.572 Y-130.587
X180.656 Y-130.647
X180.74 Y-130.691
X181.326 Y-130.952
X181.368 Y-130.969
X181.41 Y-130.981
X182.081 Y-131.123
X182.123 Y-131.13
X182.165 Y-131.131
X182.835
X182.877 Y-131.13
X182.919 Y-131.123
X183.59 Y-130.981
X183.632 Y-130.969
X183.674 Y-130.952
X184.26 Y-130.691
X184.344 Y-130.647
X184.596 Y-130.466
X184.763 Y-130.344
X184.931 Y-130.22
X184.959 Y-130.195
X185.434 Y-129.668
X185.524 Y-129.525
X185.814 Y-129.022
X185.835 Y-128.98
X185.85 Y-128.938
X186.041 Y-128.352
X186.067 Y-128.268
X186.079 Y-128.185
X186.132 Y-127.682
X186.148 Y-127.514
X186.135 Y-127.347
X186.13 Y-127.297
G3 X185.802 Y-127.024 I-0.314 J-0.044
G1 X185.75 Y-127.039 Z-1.995
X185.699 Y-127.054 Z-1.981
X185.652 Y-127.069 Z-1.958
X185.617 Y-127.103 Z-1.922
X185.588 Y-127.133 Z-1.878
X185.565 Y-127.156 Z-1.827
X185.549 Y-127.172 Z-1.771
X185.542 Y-127.18 Z-1.711
X185.541 Y-127.181 Z-1.683
G0 Z5
X181.274 Y-76.62
Z2.5
G3 X183.724 Y-78.38 Z2.335 I1.225 J-0.88 F333.3
X181.274 Y-76.62 Z2.169 I-1.225 J0.88
X183.724 Y-78.38 Z2.004 I1.225 J-0.88
X181.274 Y-76.62 Z1.838 I-1.225 J0.88
X183.724 Y-78.38 Z1.673 I1.225 J-0.88
X181.274 Y-76.62 Z1.507 I-1.225 J0.88
X183.724 Y-78.38 Z1.342 I1.225 J-0.88
X181.274 Y-76.62 Z1.176 I-1.225 J0.88
X183.724 Y-78.38 Z1.011 I1.225 J-0.88
X181.274 Y-76.62 Z0.845 I-1.225 J0.88
X183.724 Y-78.38 Z0.68 I1.225 J-0.88
X181.274 Y-76.62 Z0.515 I-1.225 J0.88
X183.724 Y-78.38 Z0.349 I1.225 J-0.88
X181.274 Y-76.62 Z0.184 I-1.225 J0.88
X183.724 Y-78.38 Z0.018 I1.225 J-0.88
X181.274 Y-76.62 Z-0.147 I-1.225 J0.88
X183.724 Y-78.38 Z-0.313 I1.225 J-0.88
X181.274 Y-76.62 Z-0.478 I-1.225 J0.88
X183.724 Y-78.38 Z-0.644 I1.225 J-0.88
X181.274 Y-76.62 Z-0.809 I-1.225 J0.88
X183.724 Y-78.38 Z-0.974 I1.225 J-0.88
X181.274 Y-76.62 Z-1.14 I-1.225 J0.88
X183.724 Y-78.38 Z-1.305 I1.225 J-0.88
X181.274 Y-76.62 Z-1.471 I-1.225 J0.88
X183.724 Y-78.38 Z-1.636 I1.225 J-0.88
X181.274 Y-76.62 Z-1.802 I-1.225 J0.88
X183.724 Y-78.38 Z-1.967 I1.225 J-0.88
X184.007 Y-77.5 Z-2 I-1.225 J0.88
X180.991 I-1.508
X184.007 I1.508
G1 X184.027 Y-76.763 F1000
X184.049 Y-76.673
X184.064 Y-76.524
X184.051 Y-76.374
X184.016 Y-76.229
X183.961 Y-76.089
X183.889 Y-75.957
X183.804 Y-75.834
X183.706 Y-75.721
X183.597 Y-75.617
X183.479 Y-75.525
X183.353 Y-75.443
X183.221 Y-75.371
X183.083 Y-75.311
X182.936 Y-75.261
X182.782 Y-75.221
X182.622 Y-75.194
X182.457 Y-75.179
X182.288 Y-75.177
X182.117 Y-75.19
X181.946 Y-75.216
X181.774 Y-75.256
X181.605 Y-75.311
X181.438 Y-75.38
X181.277 Y-75.462
X181.121 Y-75.559
X180.972 Y-75.668
X180.832 Y-75.789
X180.701 Y-75.922
X180.581 Y-76.066
X180.472 Y-76.22
X180.376 Y-76.382
X180.293 Y-76.552
X180.223 Y-76.729
X180.168 Y-76.912
X180.127 Y-77.098
X180.101 Y-77.288
X180.091 Y-77.479
X180.096 Y-77.671
X180.117 Y-77.862
X180.153 Y-78.051
X180.204 Y-78.237
X180.269 Y-78.419
X180.35 Y-78.594
X180.444 Y-78.763
X180.551 Y-78.923
X180.671 Y-79.075
X180.803 Y-79.216
X180.945 Y-79.347
X181.098 Y-79.466
X181.26 Y-79.572
X181.43 Y-79.665
X181.607 Y-79.743
X181.79 Y-79.808
X181.977 Y-79.857
X182.168 Y-79.892
X182.361 Y-79.911
X182.555 Y-79.914
X182.748 Y-79.902
X182.94 Y-79.874
X183.129 Y-79.831
X183.314 Y-79.773
X183.494 Y-79.701
X183.667 Y-79.614
X183.833 Y-79.513
X183.99 Y-79.4
X184.138 Y-79.274
X184.275 Y-79.137
X184.401 Y-78.989
X184.514 Y-78.832
X184.618 Y-78.659
X184.729 Y-78.437
X184.876 Y-78.072
X184.984 Y-77.729
X185.048 Y-77.447
X185.084 Y-77.191
X185.099 Y-76.954
X185.095 Y-76.731
X185.074 Y-76.518
X185.036 Y-76.311
X184.982 Y-76.108
X184.913 Y-75.911
X184.828 Y-75.721
X184.728 Y-75.538
X184.613 Y-75.363
X184.483 Y-75.196
X184.339 Y-75.039
X184.181 Y-74.892
X184.01 Y-74.757
X183.825 Y-74.634
X183.629 Y-74.524
X183.421 Y-74.43
X183.203 Y-74.351
X182.976 Y-74.289
X182.742 Y-74.245
X182.502 Y-74.219
X182.258 Y-74.213
X182.012 Y-74.226
X181.765 Y-74.26
X181.519 Y-74.313
X181.277 Y-74.387
X181.039 Y-74.481
X180.808 Y-74.594
X180.585 Y-74.727
X180.372 Y-74.878
X180.171 Y-75.046
X179.984 Y-75.231
X179.81 Y-75.431
X179.653 Y-75.646
X179.513 Y-75.873
X179.391 Y-76.112
X179.289 Y-76.36
X179.206 Y-76.617
X179.145 Y-76.88
X179.104 Y-77.148
X179.085 Y-77.418
X179.088 Y-77.69
X179.112 Y-77.961
X179.159 Y-78.23
X179.227 Y-78.494
X179.316 Y-78.753
X179.425 Y-79.003
X179.554 Y-79.245
X179.703 Y-79.475
X179.869 Y-79.693
X180.053 Y-79.896
X180.252 Y-80.085
X180.466 Y-80.257
X180.694 Y-80.411
X180.932 Y-80.547
X181.182 Y-80.663
X181.439 Y-80.758
X181.704 Y-80.833
X181.974 Y-80.886
X182.247 Y-80.917
X182.522 Y-80.927
X182.796 Y-80.914
X183.069 Y-80.879
X183.339 Y-80.823
X183.602 Y-80.745
X183.859 Y-80.646
X184.107 Y-80.527
X184.345 Y-80.388
X184.571 Y-80.231
X184.784 Y-80.055
X184.991 Y-79.855
X185.205 Y-79.611
X185.407 Y-79.34
X185.593 Y-79.043
X185.758 Y-78.727
X185.895 Y-78.402
X186.003 Y-78.076
X186.082 Y-77.752
X186.124 Y-77.488
X186.132 Y-77.424
X186.133 Y-77.359
X186.129 Y-77.294
X186.089 Y-76.914
X186.07 Y-76.746
X186.018 Y-76.578
X185.855 Y-76.076
X185.822 Y-75.992
X185.462 Y-75.369
X185.434 Y-75.332
X185.048 Y-74.903
X184.931 Y-74.78
X184.872 Y-74.735
X184.411 Y-74.4
X184.336 Y-74.347
X184.26 Y-74.309
X183.651 Y-74.038
X183.62 Y-74.027
X183.59 Y-74.02
X182.919 Y-73.877
X182.877 Y-73.87
X182.835 Y-73.869
X182.165
X182.123 Y-73.87
X182.081 Y-73.877
X181.41 Y-74.02
X181.38 Y-74.027
X181.349 Y-74.038
X180.74 Y-74.309
X180.664 Y-74.347
X180.572 Y-74.413
X180.128 Y-74.735
X180.069 Y-74.78
X179.952 Y-74.903
X179.566 Y-75.332
X179.538 Y-75.369
X179.178 Y-75.992
X179.145 Y-76.076
X178.982 Y-76.578
X178.93 Y-76.746
X178.911 Y-76.914
X178.858 Y-77.416
X178.851 Y-77.5
X178.858 Y-77.584
X178.911 Y-78.086
X178.93 Y-78.254
X178.982 Y-78.422
X179.145 Y-78.924
X179.178 Y-79.008
X179.538 Y-79.631
X179.566 Y-79.668
X179.952 Y-80.097
X180.069 Y-80.22
X180.128 Y-80.265
X180.589 Y-80.6
X180.664 Y-80.653
X180.74 Y-80.691
X181.349 Y-80.962
X181.38 Y-80.973
X181.41 Y-80.98
X182.081 Y-81.123
X182.123 Y-81.13
X182.165 Y-81.131
X182.835
X182.877 Y-81.13
X182.919 Y-81.123
X183.59 Y-80.98
X183.62 Y-80.973
X183.651 Y-80.962
X184.26 Y-80.691
X184.336 Y-80.653
X184.428 Y-80.587
X184.872 Y-80.265
X184.931 Y-80.22
X185.048 Y-80.097
X185.434 Y-79.668
X185.462 Y-79.631
X185.822 Y-79.008
X185.855 Y-78.924
X186.018 Y-78.422
X186.07 Y-78.254
X186.089 Y-78.086
X186.142 Y-77.584
X186.149 Y-77.5
X186.142 Y-77.416
X186.129 Y-77.294
G3 X185.801 Y-77.021 I-0.314 J-0.044
G1 X185.749 Y-77.036 Z-1.995
X185.699 Y-77.051 Z-1.981
X185.652 Y-77.066 Z-1.958
X185.617 Y-77.101 Z-1.922
X185.588 Y-77.13 Z-1.878
X185.565 Y-77.153 Z-1.827
X185.549 Y-77.169 Z-1.771
X185.541 Y-77.177 Z-1.711
Y-77.178 Z-1.683
G0 Z5
X181.275 Y-26.62
Z2.5
G3 X183.725 Y-28.38 Z2.335 I1.225 J-0.88 F333.3
X181.275 Y-26.62 Z2.169 I-1.225 J0.88
X183.725 Y-28.38 Z2.004 I1.225 J-0.88
X181.275 Y-26.62 Z1.838 I-1.225 J0.88
X183.725 Y-28.38 Z1.673 I1.225 J-0.88
X181.275 Y-26.62 Z1.507 I-1.225 J0.88
X183.725 Y-28.38 Z1.342 I1.225 J-0.88
X181.275 Y-26.62 Z1.176 I-1.225 J0.88
X183.725 Y-28.38 Z1.011 I1.225 J-0.88
X181.275 Y-26.62 Z0.845 I-1.225 J0.88
X183.725 Y-28.38 Z0.68 I1.225 J-0.88
X181.275 Y-26.62 Z0.515 I-1.225 J0.88
X183.725 Y-28.38 Z0.349 I1.225 J-0.88
X181.275 Y-26.62 Z0.184 I-1.225 J0.88
X183.725 Y-28.38 Z0.018 I1.225 J-0.88
X181.275 Y-26.62 Z-0.147 I-1.225 J0.88
X183.725 Y-28.38 Z-0.313 I1.225 J-0.88
X181.275 Y-26.62 Z-0.478 I-1.225 J0.88
X183.725 Y-28.38 Z-0.644 I1.225 J-0.88
X181.275 Y-26.62 Z-0.809 I-1.225 J0.88
X183.725 Y-28.38 Z-0.974 I1.225 J-0.88
X181.275 Y-26.62 Z-1.14 I-1.225 J0.88
X183.725 Y-28.38 Z-1.305 I1.225 J-0.88
X181.275 Y-26.62 Z-1.471 I-1.225 J0.88
X183.725 Y-28.38 Z-1.636 I1.225 J-0.88
X181.275 Y-26.62 Z-1.802 I-1.225 J0.88
X183.725 Y-28.38 Z-1.967 I1.225 J-0.88
X184.008 Y-27.5 Z-2 I-1.225 J0.88
X180.992 I-1.508
X184.008 I1.508
G1 X184.027 Y-26.762 F1000
X184.049 Y-26.672
X184.064 Y-26.523
X184.052 Y-26.374
X184.016 Y-26.228
X183.961 Y-26.088
X183.89 Y-25.957
X183.804 Y-25.834
X183.706 Y-25.72
X183.597 Y-25.617
X183.479 Y-25.524
X183.354 Y-25.442
X183.222 Y-25.371
X183.083 Y-25.311
X182.937 Y-25.26
X182.783 Y-25.221
X182.622 Y-25.193
X182.458 Y-25.178
X182.289 Y-25.177
X182.118 Y-25.189
X181.946 Y-25.215
X181.775 Y-25.256
X181.605 Y-25.31
X181.439 Y-25.379
X181.277 Y-25.462
X181.121 Y-25.558
X180.973 Y-25.667
X180.833 Y-25.788
X180.702 Y-25.921
X180.582 Y-26.065
X180.473 Y-26.219
X180.376 Y-26.381
X180.293 Y-26.552
X180.223 Y-26.729
X180.168 Y-26.911
X180.127 Y-27.098
X180.102 Y-27.287
X180.092 Y-27.479
X180.097 Y-27.671
X180.117 Y-27.862
X180.153 Y-28.051
X180.204 Y-28.237
X180.27 Y-28.418
X180.35 Y-28.593
X180.444 Y-28.762
X180.551 Y-28.923
X180.671 Y-29.074
X180.803 Y-29.216
X180.946 Y-29.346
X181.099 Y-29.465
X181.261 Y-29.571
X181.431 Y-29.664
X181.608 Y-29.743
X181.79 Y-29.807
X181.978 Y-29.857
X182.168 Y-29.891
X182.361 Y-29.91
X182.555 Y-29.914
X182.748 Y-29.901
X182.94 Y-29.874
X183.129 Y-29.831
X183.314 Y-29.773
X183.494 Y-29.7
X183.668 Y-29.613
X183.833 Y-29.513
X183.991 Y-29.399
X184.138 Y-29.274
X184.275 Y-29.136
X184.401 Y-28.989
X184.514 Y-28.831
X184.619 Y-28.659
X184.73 Y-28.436
X184.877 Y-28.072
X184.984 Y-27.729
X185.048 Y-27.446
X185.085 Y-27.19
X185.099 Y-26.953
X185.095 Y-26.73
X185.074 Y-26.517
X185.037 Y-26.31
X184.983 Y-26.108
X184.913 Y-25.911
X184.828 Y-25.72
X184.728 Y-25.537
X184.613 Y-25.362
X184.484 Y-25.196
X184.34 Y-25.038
X184.182 Y-24.892
X184.01 Y-24.756
X183.826 Y-24.633
X183.629 Y-24.524
X183.421 Y-24.429
X183.203 Y-24.35
X182.977 Y-24.288
X182.743 Y-24.244
X182.503 Y-24.218
X182.259 Y-24.212
X182.013 Y-24.226
X181.766 Y-24.259
X181.52 Y-24.313
X181.277 Y-24.387
X181.039 Y-24.48
X180.808 Y-24.594
X180.586 Y-24.726
X180.373 Y-24.877
X180.172 Y-25.046
X179.984 Y-25.23
X179.811 Y-25.431
X179.654 Y-25.645
X179.514 Y-25.873
X179.392 Y-26.111
X179.289 Y-26.36
X179.207 Y-26.616
X179.145 Y-26.879
X179.104 Y-27.147
X179.085 Y-27.418
X179.088 Y-27.69
X179.113 Y-27.961
X179.159 Y-28.229
X179.227 Y-28.494
X179.316 Y-28.752
X179.426 Y-29.003
X179.555 Y-29.244
X179.703 Y-29.474
X179.87 Y-29.692
X180.053 Y-29.896
X180.253 Y-30.084
X180.467 Y-30.256
X180.694 Y-30.41
X180.933 Y-30.546
X181.182 Y-30.662
X181.44 Y-30.758
X181.704 Y-30.832
X181.974 Y-30.885
X182.247 Y-30.917
X182.522 Y-30.926
X182.797 Y-30.913
X183.07 Y-30.879
X183.339 Y-30.822
X183.603 Y-30.744
X183.86 Y-30.645
X184.108 Y-30.526
X184.345 Y-30.387
X184.571 Y-30.23
X184.785 Y-30.054
X184.991 Y-29.854
X185.205 Y-29.611
X185.407 Y-29.34
X185.593 Y-29.043
X185.758 Y-28.727
X185.896 Y-28.401
X186.003 Y-28.075
X186.082 Y-27.751
X186.124 Y-27.49
X186.132 Y-27.425
X186.133 Y-27.36
X186.129 Y-27.295
X186.079 Y-26.815
X186.067 Y-26.732
X186.041 Y-26.648
X185.85 Y-26.062
X185.835 Y-26.02
X185.814 Y-25.978
X185.524 Y-25.475
X185.434 Y-25.332
X184.959 Y-24.805
X184.931 Y-24.78
X184.737 Y-24.637
X184.428 Y-24.413
X184.344 Y-24.353
X184.26 Y-24.309
X183.674 Y-24.048
X183.632 Y-24.031
X183.59 Y-24.019
X182.919 Y-23.877
X182.877 Y-23.87
X182.835 Y-23.869
X182.165
X182.123 Y-23.87
X182.081 Y-23.877
X181.41 Y-24.019
X181.368 Y-24.031
X181.326 Y-24.048
X180.74 Y-24.309
X180.656 Y-24.353
X180.404 Y-24.534
X180.237 Y-24.656
X180.069 Y-24.78
X180.041 Y-24.805
X179.566 Y-25.332
X179.476 Y-25.475
X179.186 Y-25.978
X179.165 Y-26.02
X179.15 Y-26.062
X178.959 Y-26.648
X178.933 Y-26.732
X178.921 Y-26.815
X178.868 Y-27.318
X178.852 Y-27.486
X178.865 Y-27.653
X178.918 Y-28.156
X178.927 Y-28.24
X178.95 Y-28.323
X179.113 Y-28.826
X179.172 Y-28.994
X179.231 Y-29.1
X179.533 Y-29.622
X179.566 Y-29.668
X180.015 Y-30.167
X180.069 Y-30.22
X180.237 Y-30.344
X180.572 Y-30.587
X180.693 Y-30.669
X180.74 Y-30.691
X181.326 Y-30.952
X181.368 Y-30.969
X181.41 Y-30.981
X182.081 Y-31.123
X182.123 Y-31.13
X182.165 Y-31.131
X182.835
X182.877 Y-31.13
X182.919 Y-31.123
X183.59 Y-30.981
X183.632 Y-30.969
X183.674 Y-30.952
X184.26 Y-30.691
X184.307 Y-30.669
X184.428 Y-30.587
X184.777 Y-30.334
X184.931 Y-30.22
X184.985 Y-30.167
X185.437 Y-29.664
X185.467 Y-29.622
X185.769 Y-29.1
X185.828 Y-28.994
X185.887 Y-28.826
X186.05 Y-28.323
X186.073 Y-28.24
X186.104 Y-27.943
X186.135 Y-27.653
X186.148 Y-27.486
X186.129 Y-27.295
G3 X185.802 Y-27.022 I-0.314 J-0.044
G1 X185.75 Y-27.038 Z-1.995
X185.699 Y-27.053 Z-1.981
X185.652 Y-27.067 Z-1.958
X185.617 Y-27.102 Z-1.922
X185.588 Y-27.131 Z-1.878
X185.565 Y-27.154 Z-1.827
X185.549 Y-27.17 Z-1.771
X185.541 Y-27.178 Z-1.711
Y-27.179 Z-1.683
G0 Z5
X231.275 Y-126.62
Z2.5
G3 X233.725 Y-128.38 Z2.335 I1.225 J-0.88 F333.3
X231.275 Y-126.62 Z2.169 I-1.225 J0.88
X233.725 Y-128.38 Z2.004 I1.225 J-0.88
X231.275 Y-126.62 Z1.838 I-1.225 J0.88
X233.725 Y-128.38 Z1.673 I1.225 J-0.88
X231.275 Y-126.62 Z1.507 I-1.225 J0.88
X233.725 Y-128.38 Z1.342 I1.225 J-0.88
X231.275 Y-126.62 Z1.176 I-1.225 J0.88
X233.725 Y-128.38 Z1.011 I1.225 J-0.88
X231.275 Y-126.62 Z0.845 I-1.225 J0.88
X233.725 Y-128.38 Z0.68 I1.225 J-0.88
X231.275 Y-126.62 Z0.515 I-1.225 J0.88
X233.725 Y-128.38 Z0.349 I1.225 J-0.88
X231.275 Y-126.62 Z0.184 I-1.225 J0.88
X233.725 Y-128.38 Z0.018 I1.225 J-0.88
X231.275 Y-126.62 Z-0.147 I-1.225 J0.88
X233.725 Y-128.38 Z-0.313 I1.225 J-0.88
X231.275 Y-126.62 Z-0.478 I-1.225 J0.88
X233.725 Y-128.38 Z-0.644 I1.225 J-0.88
X231.275 Y-126.62 Z-0.809 I-1.225 J0.88
X233.725 Y-128.38 Z-0.974 I1.225 J-0.88
X231.275 Y-126.62 Z-1.14 I-1.225 J0.88
X233.725 Y-128.38 Z-1.305 I1.225 J-0.88
X231.275 Y-126.62 Z-1.471 I-1.225 J0.88
X233.725 Y-128.38 Z-1.636 I1.225 J-0.88
X231.275 Y-126.62 Z-1.802 I-1.225 J0.88
X233.725 Y-128.38 Z-1.967 I1.225 J-0.88
X234.008 Y-127.5 Z-2 I-1.225 J0.88
X230.992 I-1.508
X234.008 I1.508
G1 X234.027 Y-126.762 F1000
X234.049 Y-126.673
X234.065 Y-126.524
X234.052 Y-126.374
X234.017 Y-126.228
X233.962 Y-126.089
X233.89 Y-125.957
X233.804 Y-125.834
X233.706 Y-125.72
X233.598 Y-125.617
X233.48 Y-125.524
X233.354 Y-125.442
X233.222 Y-125.371
X233.084 Y-125.311
X232.937 Y-125.26
X232.783 Y-125.221
X232.623 Y-125.194
X232.458 Y-125.179
X232.289 Y-125.177
X232.118 Y-125.189
X231.946 Y-125.215
X231.775 Y-125.256
X231.605 Y-125.311
X231.439 Y-125.379
X231.278 Y-125.462
X231.122 Y-125.558
X230.973 Y-125.667
X230.833 Y-125.789
X230.702 Y-125.922
X230.582 Y-126.066
X230.473 Y-126.219
X230.377 Y-126.382
X230.293 Y-126.552
X230.224 Y-126.729
X230.168 Y-126.911
X230.128 Y-127.098
X230.102 Y-127.288
X230.092 Y-127.479
X230.097 Y-127.671
X230.118 Y-127.862
X230.153 Y-128.051
X230.204 Y-128.237
X230.27 Y-128.418
X230.35 Y-128.594
X230.444 Y-128.762
X230.552 Y-128.923
X230.672 Y-129.075
X230.803 Y-129.216
X230.946 Y-129.347
X231.099 Y-129.465
X231.261 Y-129.572
X231.431 Y-129.664
X231.608 Y-129.743
X231.791 Y-129.808
X231.978 Y-129.857
X232.169 Y-129.891
X232.361 Y-129.91
X232.555 Y-129.914
X232.749 Y-129.902
X232.941 Y-129.874
X233.13 Y-129.831
X233.315 Y-129.773
X233.494 Y-129.7
X233.668 Y-129.614
X233.834 Y-129.513
X233.991 Y-129.4
X234.139 Y-129.274
X234.276 Y-129.137
X234.401 Y-128.989
X234.515 Y-128.832
X234.619 Y-128.659
X234.73 Y-128.436
X234.877 Y-128.072
X234.984 Y-127.729
X235.048 Y-127.446
X235.085 Y-127.191
X235.1 Y-126.954
X235.096 Y-126.73
X235.074 Y-126.517
X235.037 Y-126.31
X234.983 Y-126.108
X234.914 Y-125.911
X234.829 Y-125.721
X234.728 Y-125.538
X234.614 Y-125.363
X234.484 Y-125.196
X234.34 Y-125.039
X234.182 Y-124.892
X234.01 Y-124.756
X233.826 Y-124.633
X233.629 Y-124.524
X233.422 Y-124.429
X233.204 Y-124.35
X232.977 Y-124.288
X232.743 Y-124.244
X232.503 Y-124.219
X232.259 Y-124.212
X232.013 Y-124.226
X231.766 Y-124.259
X231.52 Y-124.313
X231.277 Y-124.387
X231.04 Y-124.481
X230.809 Y-124.594
X230.586 Y-124.727
X230.373 Y-124.877
X230.172 Y-125.046
X229.984 Y-125.231
X229.811 Y-125.431
X229.654 Y-125.646
X229.514 Y-125.873
X229.392 Y-126.112
X229.29 Y-126.36
X229.207 Y-126.617
X229.145 Y-126.88
X229.105 Y-127.147
X229.086 Y-127.418
X229.089 Y-127.69
X229.113 Y-127.961
X229.16 Y-128.23
X229.227 Y-128.494
X229.316 Y-128.752
X229.426 Y-129.003
X229.555 Y-129.244
X229.704 Y-129.475
X229.87 Y-129.692
X230.054 Y-129.896
X230.253 Y-130.085
X230.467 Y-130.256
X230.694 Y-130.411
X230.933 Y-130.546
X231.182 Y-130.662
X231.44 Y-130.758
X231.705 Y-130.833
X231.974 Y-130.886
X232.247 Y-130.917
X232.522 Y-130.926
X232.797 Y-130.914
X233.07 Y-130.879
X233.339 Y-130.822
X233.603 Y-130.745
X233.86 Y-130.646
X234.108 Y-130.526
X234.346 Y-130.388
X234.571 Y-130.23
X234.785 Y-130.054
X234.991 Y-129.854
X235.206 Y-129.611
X235.407 Y-129.34
X235.594 Y-129.043
X235.758 Y-128.727
X235.896 Y-128.402
X236.004 Y-128.075
X236.083 Y-127.752
X236.124 Y-127.491
X236.132 Y-127.426
X236.134 Y-127.361
X236.13 Y-127.296
X236.082 Y-126.844
X236.063 Y-126.719
X236.05 Y-126.677
X235.887 Y-126.174
X235.829 Y-126.006
X235.728 Y-125.829
X235.467 Y-125.378
X235.437 Y-125.336
X234.985 Y-124.833
X234.937 Y-124.784
X234.89 Y-124.748
X234.387 Y-124.383
X234.307 Y-124.331
X234.219 Y-124.291
X233.716 Y-124.067
X233.632 Y-124.032
X233.548 Y-124.011
X233.046 Y-123.904
X232.878 Y-123.871
X232.71 Y-123.869
X232.207
X232.123 Y-123.87
X232.04 Y-123.886
X231.522 Y-123.996
X231.369 Y-124.031
X231.201 Y-124.104
X230.698 Y-124.328
X230.693 Y-124.331
X230.531 Y-124.443
X230.112 Y-124.747
X230.07 Y-124.778
X230.028 Y-124.819
X229.563 Y-125.336
X229.525 Y-125.391
X229.19 Y-125.972
X229.172 Y-126.006
X229.113 Y-126.174
X228.95 Y-126.677
X228.927 Y-126.76
X228.9 Y-127.012
X228.854 Y-127.449
X228.852 Y-127.514
X228.854 Y-127.551
X228.921 Y-128.185
X228.933 Y-128.268
X228.959 Y-128.352
X229.15 Y-128.938
X229.165 Y-128.98
X229.19 Y-129.028
X229.525 Y-129.609
X229.553 Y-129.651
X229.588 Y-129.692
X230.041 Y-130.195
X230.196 Y-130.314
X230.531 Y-130.557
X230.698 Y-130.672
X231.201 Y-130.896
X231.369 Y-130.969
X231.537 Y-131.007
X232.04 Y-131.114
X232.123 Y-131.13
X232.207 Y-131.131
X232.71
X232.878 Y-131.129
X233.046 Y-131.096
X233.548 Y-130.989
X233.632 Y-130.969
X233.716 Y-130.933
X234.245 Y-130.698
X234.316 Y-130.665
X234.387 Y-130.617
X234.924 Y-130.226
X234.959 Y-130.195
X235.412 Y-129.692
X235.447 Y-129.651
X235.475 Y-129.609
X235.814 Y-129.022
X235.835 Y-128.98
X235.85 Y-128.938
X236.063 Y-128.283
X236.074 Y-128.234
X236.132 Y-127.682
X236.148 Y-127.514
X236.135 Y-127.347
X236.13 Y-127.296
G3 X235.802 Y-127.023 I-0.314 J-0.044
G1 X235.75 Y-127.039 Z-1.995
X235.699 Y-127.054 Z-1.981
X235.652 Y-127.068 Z-1.958
X235.617 Y-127.103 Z-1.922
X235.588 Y-127.133 Z-1.878
X235.565 Y-127.156 Z-1.827
X235.549 Y-127.172 Z-1.771
X235.542 Y-127.179 Z-1.711
X235.541 Y-127.181 Z-1.683
G0 Z5
X231.275 Y-76.62
Z2.5
G3 X233.725 Y-78.38 Z2.335 I1.225 J-0.88 F333.3
X231.275 Y-76.62 Z2.169 I-1.225 J0.88
X233.725 Y-78.38 Z2.004 I1.225 J-0.88
X231.275 Y-76.62 Z1.838 I-1.225 J0.88
X233.725 Y-78.38 Z1.673 I1.225 J-0.88
X231.275 Y-76.62 Z1.507 I-1.225 J0.88
X233.725 Y-78.38 Z1.342 I1.225 J-0.88
X231.275 Y-76.62 Z1.176 I-1.225 J0.88
X233.725 Y-78.38 Z1.011 I1.225 J-0.88
X231.275 Y-76.62 Z0.845 I-1.225 J0.88
X233.725 Y-78.38 Z0.68 I1.225 J-0.88
X231.275 Y-76.62 Z0.515 I-1.225 J0.88
X233.725 Y-78.38 Z0.349 I1.225 J-0.88
X231.275 Y-76.62 Z0.184 I-1.225 J0.88
X233.725 Y-78.38 Z0.018 I1.225 J-0.88
X231.275 Y-76.62 Z-0.147 I-1.225 J0.88
X233.725 Y-78.38 Z-0.313 I1.225 J-0.88
X231.275 Y-76.62 Z-0.478 I-1.225 J0.88
X233.725 Y-78.38 Z-0.644 I1.225 J-0.88
X231.275 Y-76.62 Z-0.809 I-1.225 J0.88
X233.725 Y-78.38 Z-0.974 I1.225 J-0.88
X231.275 Y-76.62 Z-1.14 I-1.225 J0.88
X233.725 Y-78.38 Z-1.305 I1.225 J-0.88
X231.275 Y-76.62 Z-1.471 I-1.225 J0.88
X233.725 Y-78.38 Z-1.636 I1.225 J-0.88
X231.275 Y-76.62 Z-1.802 I-1.225 J0.88
X233.725 Y-78.38 Z-1.967 I1.225 J-0.88
X234.008 Y-77.5 Z-2 I-1.225 J0.88
X230.992 I-1.508
X234.008 I1.508
G1 X234.027 Y-76.762 F1000
X234.049 Y-76.673
X234.065 Y-76.524
X234.052 Y-76.374
X234.017 Y-76.228
X233.962 Y-76.089
X233.89 Y-75.957
X233.804 Y-75.834
X233.706 Y-75.72
X233.598 Y-75.617
X233.48 Y-75.524
X233.354 Y-75.442
X233.222 Y-75.371
X233.084 Y-75.311
X232.937 Y-75.26
X232.783 Y-75.221
X232.623 Y-75.194
X232.458 Y-75.179
X232.289 Y-75.177
X232.118 Y-75.189
X231.946 Y-75.216
X231.775 Y-75.256
X231.605 Y-75.311
X231.439 Y-75.379
X231.278 Y-75.462
X231.122 Y-75.558
X230.973 Y-75.667
X230.833 Y-75.789
X230.702 Y-75.922
X230.582 Y-76.066
X230.473 Y-76.219
X230.377 Y-76.382
X230.293 Y-76.552
X230.224 Y-76.729
X230.168 Y-76.911
X230.128 Y-77.098
X230.102 Y-77.288
X230.092 Y-77.479
X230.097 Y-77.671
X230.118 Y-77.862
X230.153 Y-78.051
X230.204 Y-78.237
X230.27 Y-78.418
X230.35 Y-78.594
X230.444 Y-78.762
X230.552 Y-78.923
X230.672 Y-79.075
X230.803 Y-79.216
X230.946 Y-79.347
X231.099 Y-79.466
X231.261 Y-79.572
X231.431 Y-79.664
X231.608 Y-79.743
X231.791 Y-79.808
X231.978 Y-79.857
X232.169 Y-79.892
X232.361 Y-79.911
X232.555 Y-79.914
X232.749 Y-79.902
X232.941 Y-79.874
X233.13 Y-79.831
X233.315 Y-79.773
X233.494 Y-79.701
X233.668 Y-79.614
X233.834 Y-79.513
X233.991 Y-79.4
X234.139 Y-79.274
X234.276 Y-79.137
X234.401 Y-78.989
X234.515 Y-78.832
X234.619 Y-78.659
X234.73 Y-78.437
X234.877 Y-78.072
X234.984 Y-77.729
X235.048 Y-77.447
X235.085 Y-77.191
X235.1 Y-76.954
X235.096 Y-76.731
X235.074 Y-76.518
X235.037 Y-76.31
X234.983 Y-76.108
X234.914 Y-75.911
X234.828 Y-75.721
X234.728 Y-75.538
X234.614 Y-75.363
X234.484 Y-75.196
X234.34 Y-75.039
X234.182 Y-74.892
X234.01 Y-74.756
X233.826 Y-74.633
X233.629 Y-74.524
X233.421 Y-74.429
X233.204 Y-74.35
X232.977 Y-74.288
X232.743 Y-74.244
X232.503 Y-74.219
X232.259 Y-74.212
X232.013 Y-74.226
X231.766 Y-74.259
X231.52 Y-74.313
X231.277 Y-74.387
X231.04 Y-74.481
X230.809 Y-74.594
X230.586 Y-74.727
X230.373 Y-74.878
X230.172 Y-75.046
X229.984 Y-75.231
X229.811 Y-75.431
X229.654 Y-75.646
X229.514 Y-75.873
X229.392 Y-76.112
X229.29 Y-76.36
X229.207 Y-76.617
X229.145 Y-76.88
X229.105 Y-77.147
X229.086 Y-77.418
X229.088 Y-77.69
X229.113 Y-77.961
X229.159 Y-78.23
X229.227 Y-78.494
X229.316 Y-78.753
X229.426 Y-79.003
X229.555 Y-79.244
X229.704 Y-79.475
X229.87 Y-79.692
X230.054 Y-79.896
X230.253 Y-80.085
X230.467 Y-80.257
X230.694 Y-80.411
X230.933 Y-80.546
X231.182 Y-80.662
X231.44 Y-80.758
X231.705 Y-80.833
X231.974 Y-80.886
X232.247 Y-80.917
X232.522 Y-80.927
X232.797 Y-80.914
X233.07 Y-80.879
X233.339 Y-80.823
X233.603 Y-80.745
X233.86 Y-80.646
X234.108 Y-80.527
X234.346 Y-80.388
X234.571 Y-80.23
X234.785 Y-80.054
X234.991 Y-79.855
X235.205 Y-79.611
X235.407 Y-79.34
X235.594 Y-79.043
X235.758 Y-78.727
X235.896 Y-78.402
X236.004 Y-78.075
X236.083 Y-77.752
X236.124 Y-77.491
X236.132 Y-77.426
X236.134 Y-77.361
X236.13 Y-77.296
X236.089 Y-76.914
X236.07 Y-76.746
X236.063 Y-76.717
X235.841 Y-76.034
X235.822 Y-75.992
X235.483 Y-75.406
X235.444 Y-75.346
X235.393 Y-75.286
X234.969 Y-74.815
X234.929 Y-74.778
X234.872 Y-74.735
X234.387 Y-74.383
X234.303 Y-74.328
X233.712 Y-74.065
X233.63 Y-74.03
X233.548 Y-74.011
X233.016 Y-73.898
X232.878 Y-73.871
X232.71 Y-73.869
X232.207
X232.123 Y-73.87
X232.04 Y-73.886
X231.537 Y-73.993
X231.369 Y-74.031
X231.288 Y-74.065
X230.698 Y-74.328
X230.589 Y-74.4
X230.128 Y-74.735
X230.078 Y-74.773
X230.028 Y-74.819
X229.582 Y-75.314
X229.55 Y-75.353
X229.525 Y-75.391
X229.19 Y-75.972
X229.163 Y-76.024
X229.145 Y-76.076
X228.982 Y-76.578
X228.93 Y-76.746
X228.911 Y-76.914
X228.854 Y-77.449
X228.851 Y-77.5
X228.854 Y-77.551
X228.911 Y-78.086
X228.93 Y-78.254
X228.982 Y-78.422
X229.145 Y-78.924
X229.163 Y-78.976
X229.19 Y-79.028
X229.525 Y-79.609
X229.55 Y-79.647
X229.582 Y-79.686
X230.028 Y-80.181
X230.078 Y-80.227
X230.196 Y-80.314
X230.589 Y-80.6
X230.698 Y-80.672
X231.288 Y-80.935
X231.369 Y-80.969
X231.537 Y-81.007
X232.04 Y-81.114
X232.123 Y-81.13
X232.207 Y-81.131
X232.71
X232.878 Y-81.129
X233.046 Y-81.096
X233.548 Y-80.989
X233.63 Y-80.97
X233.716 Y-80.933
X234.303 Y-80.672
X234.387 Y-80.617
X234.89 Y-80.252
X234.929 Y-80.222
X234.969 Y-80.185
X235.393 Y-79.714
X235.444 Y-79.654
X235.483 Y-79.594
X235.822 Y-79.008
X235.841 Y-78.966
X236.063 Y-78.283
X236.07 Y-78.254
X236.089 Y-78.086
X236.142 Y-77.584
X236.149 Y-77.5
X236.142 Y-77.416
X236.13 Y-77.296
G3 X235.802 Y-77.023 I-0.314 J-0.044
G1 X235.75 Y-77.039 Z-1.995
X235.699 Y-77.054 Z-1.981
X235.652 Y-77.068 Z-1.958
X235.617 Y-77.103 Z-1.922
X235.588 Y-77.133 Z-1.878
X235.565 Y-77.156 Z-1.827
X235.549 Y-77.172 Z-1.771
X235.542 Y-77.179 Z-1.711
X235.541 Y-77.181 Z-1.683
G0 Z5
X231.275 Y-26.62
Z2.5
G3 X233.725 Y-28.38 Z2.335 I1.225 J-0.88 F333.3
X231.275 Y-26.62 Z2.169 I-1.225 J0.88
X233.725 Y-28.38 Z2.004 I1.225 J-0.88
X231.275 Y-26.62 Z1.838 I-1.225 J0.88
X233.725 Y-28.38 Z1.673 I1.225 J-0.88
X231.275 Y-26.62 Z1.507 I-1.225 J0.88
X233.725 Y-28.38 Z1.342 I1.225 J-0.88
X231.275 Y-26.62 Z1.176 I-1.225 J0.88
X233.725 Y-28.38 Z1.011 I1.225 J-0.88
X231.275 Y-26.62 Z0.845 I-1.225 J0.88
X233.725 Y-28.38 Z0.68 I1.225 J-0.88
X231.275 Y-26.62 Z0.515 I-1.225 J0.88
X233.725 Y-28.38 Z0.349 I1.225 J-0.88
X231.275 Y-26.62 Z0.184 I-1.225 J0.88
X233.725 Y-28.38 Z0.018 I1.225 J-0.88
X231.275 Y-26.62 Z-0.147 I-1.225 J0.88
X233.725 Y-28.38 Z-0.313 I1.225 J-0.88
X231.275 Y-26.62 Z-0.478 I-1.225 J0.88
X233.725 Y-28.38 Z-0.644 I1.225 J-0.88
X231.275 Y-26.62 Z-0.809 I-1.225 J0.88
X233.725 Y-28.38 Z-0.974 I1.225 J-0.88
X231.275 Y-26.62 Z-1.14 I-1.225 J0.88
X233.725 Y-28.38 Z-1.305 I1.225 J-0.88
X231.275 Y-26.62 Z-1.471 I-1.225 J0.88
X233.725 Y-28.38 Z-1.636 I1.225 J-0.88
X231.275 Y-26.62 Z-1.802 I-1.225 J0.88
X233.725 Y-28.38 Z-1.967 I1.225 J-0.88
X234.008 Y-27.5 Z-2 I-1.225 J0.88
X230.992 I-1.508
X234.008 I1.508
G1 X234.027 Y-26.762 F1000
X234.049 Y-26.673
X234.064 Y-26.524
X234.052 Y-26.374
X234.016 Y-26.228
X233.961 Y-26.089
X233.89 Y-25.957
X233.804 Y-25.834
X233.706 Y-25.72
X233.597 Y-25.617
X233.479 Y-25.524
X233.354 Y-25.442
X233.222 Y-25.371
X233.083 Y-25.311
X232.937 Y-25.26
X232.783 Y-25.221
X232.623 Y-25.194
X232.458 Y-25.179
X232.289 Y-25.177
X232.118 Y-25.189
X231.946 Y-25.216
X231.775 Y-25.256
X231.605 Y-25.311
X231.439 Y-25.379
X231.277 Y-25.462
X231.121 Y-25.558
X230.973 Y-25.667
X230.833 Y-25.789
X230.702 Y-25.922
X230.582 Y-26.066
X230.473 Y-26.219
X230.376 Y-26.382
X230.293 Y-26.552
X230.223 Y-26.729
X230.168 Y-26.911
X230.127 Y-27.098
X230.102 Y-27.288
X230.092 Y-27.479
X230.097 Y-27.671
X230.117 Y-27.862
X230.153 Y-28.051
X230.204 Y-28.237
X230.27 Y-28.418
X230.35 Y-28.594
X230.444 Y-28.762
X230.551 Y-28.923
X230.671 Y-29.075
X230.803 Y-29.216
X230.946 Y-29.347
X231.099 Y-29.465
X231.261 Y-29.572
X231.431 Y-29.664
X231.608 Y-29.743
X231.79 Y-29.808
X231.978 Y-29.857
X232.168 Y-29.892
X232.361 Y-29.91
X232.555 Y-29.914
X232.748 Y-29.902
X232.94 Y-29.874
X233.129 Y-29.831
X233.314 Y-29.773
X233.494 Y-29.7
X233.668 Y-29.614
X233.833 Y-29.513
X233.991 Y-29.4
X234.138 Y-29.274
X234.275 Y-29.137
X234.401 Y-28.989
X234.514 Y-28.832
X234.619 Y-28.659
X234.73 Y-28.437
X234.877 Y-28.072
X234.984 Y-27.729
X235.048 Y-27.446
X235.085 Y-27.191
X235.099 Y-26.954
X235.095 Y-26.73
X235.074 Y-26.517
X235.037 Y-26.31
X234.983 Y-26.108
X234.913 Y-25.911
X234.828 Y-25.721
X234.728 Y-25.538
X234.613 Y-25.363
X234.484 Y-25.196
X234.34 Y-25.039
X234.182 Y-24.892
X234.01 Y-24.756
X233.826 Y-24.633
X233.629 Y-24.524
X233.421 Y-24.429
X233.203 Y-24.35
X232.977 Y-24.288
X232.743 Y-24.244
X232.503 Y-24.219
X232.259 Y-24.212
X232.013 Y-24.226
X231.766 Y-24.259
X231.52 Y-24.313
X231.277 Y-24.387
X231.039 Y-24.481
X230.808 Y-24.594
X230.586 Y-24.727
X230.373 Y-24.877
X230.172 Y-25.046
X229.984 Y-25.231
X229.811 Y-25.431
X229.654 Y-25.646
X229.514 Y-25.873
X229.392 Y-26.112
X229.289 Y-26.36
X229.207 Y-26.617
X229.145 Y-26.88
X229.104 Y-27.147
X229.085 Y-27.418
X229.088 Y-27.69
X229.113 Y-27.961
X229.159 Y-28.23
X229.227 Y-28.494
X229.316 Y-28.753
X229.426 Y-29.003
X229.555 Y-29.244
X229.703 Y-29.475
X229.87 Y-29.692
X230.053 Y-29.896
X230.253 Y-30.085
X230.467 Y-30.256
X230.694 Y-30.411
X230.933 Y-30.546
X231.182 Y-30.662
X231.44 Y-30.758
X231.704 Y-30.833
X231.974 Y-30.886
X232.247 Y-30.917
X232.522 Y-30.927
X232.797 Y-30.914
X233.07 Y-30.879
X233.339 Y-30.823
X233.603 Y-30.745
X233.86 Y-30.646
X234.108 Y-30.526
X234.345 Y-30.388
X234.571 Y-30.23
X234.785 Y-30.054
X234.991 Y-29.855
X235.205 Y-29.611
X235.407 Y-29.34
X235.593 Y-29.043
X235.758 Y-28.727
X235.896 Y-28.402
X236.003 Y-28.075
X236.082 Y-27.752
X236.124 Y-27.49
X236.132 Y-27.425
X236.133 Y-27.36
X236.129 Y-27.295
X236.074 Y-26.766
X236.063 Y-26.717
X235.85 Y-26.062
X235.835 Y-26.02
X235.814 Y-25.978
X235.475 Y-25.391
X235.447 Y-25.349
X235.412 Y-25.308
X234.959 Y-24.805
X234.924 Y-24.774
X234.387 Y-24.383
X234.316 Y-24.335
X234.219 Y-24.291
X233.716 Y-24.067
X233.632 Y-24.031
X233.548 Y-24.011
X233.046 Y-23.904
X232.878 Y-23.871
X232.71 Y-23.869
X232.207
X232.123 Y-23.87
X232.04 Y-23.886
X231.537 Y-23.993
X231.369 Y-24.031
X231.132 Y-24.135
X230.698 Y-24.328
X230.531 Y-24.443
X230.196 Y-24.686
X230.041 Y-24.805
X229.588 Y-25.308
X229.553 Y-25.349
X229.525 Y-25.391
X229.186 Y-25.978
X229.165 Y-26.02
X229.15 Y-26.062
X228.959 Y-26.648
X228.933 Y-26.732
X228.921 Y-26.815
X228.854 Y-27.449
X228.852 Y-27.486
X228.854 Y-27.551
X228.918 Y-28.156
X228.927 Y-28.24
X228.95 Y-28.323
X229.113 Y-28.826
X229.172 Y-28.994
X229.19 Y-29.028
X229.525 Y-29.609
X229.563 Y-29.664
X230.028 Y-30.181
X230.07 Y-30.222
X230.196 Y-30.314
X230.531 Y-30.557
X230.693 Y-30.669
X231.067 Y-30.837
X231.201 Y-30.896
X231.369 Y-30.969
X231.537 Y-31.007
X232.04 Y-31.114
X232.123 Y-31.13
X232.207 Y-31.131
X232.71
X232.878 Y-31.129
X233.046 Y-31.096
X233.548 Y-30.989
X233.632 Y-30.968
X233.716 Y-30.933
X234.219 Y-30.709
X234.307 Y-30.669
X234.387 Y-30.617
X234.89 Y-30.252
X234.937 Y-30.216
X234.985 Y-30.167
X235.437 Y-29.664
X235.467 Y-29.622
X235.734 Y-29.161
X235.829 Y-28.994
X235.896 Y-28.8
X236.05 Y-28.323
X236.063 Y-28.281
X236.082 Y-28.156
X236.135 Y-27.653
X236.148 Y-27.486
X236.129 Y-27.295
G3 X235.802 Y-27.022 I-0.314 J-0.044
G1 X235.75 Y-27.038 Z-1.995
X235.699 Y-27.053 Z-1.981
X235.652 Y-27.067 Z-1.958
X235.617 Y-27.102 Z-1.922
X235.588 Y-27.132 Z-1.878
X235.565 Y-27.155 Z-1.827
X235.549 Y-27.17 Z-1.771
X235.541 Y-27.178 Z-1.711
Y-27.179 Z-1.683
G0 Z5
X281.276 Y-126.62
Z2.5
G3 X283.725 Y-128.379 Z2.335 I1.225 J-0.88 F333.3
X281.276 Y-126.62 Z2.169 I-1.225 J0.88
X283.725 Y-128.379 Z2.004 I1.225 J-0.88
X281.276 Y-126.62 Z1.838 I-1.225 J0.88
X283.725 Y-128.379 Z1.673 I1.225 J-0.88
X281.276 Y-126.62 Z1.507 I-1.225 J0.88
X283.725 Y-128.379 Z1.342 I1.225 J-0.88
X281.276 Y-126.62 Z1.176 I-1.225 J0.88
X283.725 Y-128.379 Z1.011 I1.225 J-0.88
X281.276 Y-126.62 Z0.845 I-1.225 J0.88
X283.725 Y-128.379 Z0.68 I1.225 J-0.88
X281.276 Y-126.62 Z0.515 I-1.225 J0.88
X283.725 Y-128.379 Z0.349 I1.225 J-0.88
X281.276 Y-126.62 Z0.184 I-1.225 J0.88
X283.725 Y-128.379 Z0.018 I1.225 J-0.88
X281.276 Y-126.62 Z-0.147 I-1.225 J0.88
X283.725 Y-128.379 Z-0.313 I1.225 J-0.88
X281.276 Y-126.62 Z-0.478 I-1.225 J0.88
X283.725 Y-128.379 Z-0.644 I1.225 J-0.88
X281.276 Y-126.62 Z-0.809 I-1.225 J0.88
X283.725 Y-128.379 Z-0.974 I1.225 J-0.88
X281.276 Y-126.62 Z-1.14 I-1.225 J0.88
X283.725 Y-128.379 Z-1.305 I1.225 J-0.88
X281.276 Y-126.62 Z-1.471 I-1.225 J0.88
X283.725 Y-128.379 Z-1.636 I1.225 J-0.88
X281.276 Y-126.62 Z-1.802 I-1.225 J0.88
X283.725 Y-128.379 Z-1.967 I1.225 J-0.88
X284.009 Y-127.5 Z-2 I-1.225 J0.88
X280.992 I-1.508
X284.009 I1.508
G1 X284.028 Y-126.762 F1000
X284.05 Y-126.672
X284.065 Y-126.523
X284.052 Y-126.374
X284.017 Y-126.228
X283.962 Y-126.088
X283.891 Y-125.957
X283.805 Y-125.834
X283.707 Y-125.72
X283.598 Y-125.617
X283.48 Y-125.524
X283.355 Y-125.442
X283.222 Y-125.371
X283.084 Y-125.31
X282.937 Y-125.26
X282.783 Y-125.221
X282.623 Y-125.193
X282.458 Y-125.178
X282.29 Y-125.177
X282.119 Y-125.189
X281.947 Y-125.215
X281.775 Y-125.256
X281.606 Y-125.31
X281.44 Y-125.379
X281.278 Y-125.462
X281.122 Y-125.558
X280.974 Y-125.667
X280.833 Y-125.788
X280.703 Y-125.921
X280.582 Y-126.065
X280.474 Y-126.219
X280.377 Y-126.381
X280.294 Y-126.552
X280.224 Y-126.728
X280.169 Y-126.911
X280.128 Y-127.098
X280.103 Y-127.287
X280.092 Y-127.479
X280.097 Y-127.671
X280.118 Y-127.862
X280.154 Y-128.051
X280.205 Y-128.237
X280.271 Y-128.418
X280.351 Y-128.593
X280.445 Y-128.762
X280.552 Y-128.923
X280.672 Y-129.074
X280.804 Y-129.216
X280.947 Y-129.346
X281.099 Y-129.465
X281.261 Y-129.571
X281.431 Y-129.664
X281.608 Y-129.743
X281.791 Y-129.807
X281.978 Y-129.857
X282.169 Y-129.891
X282.362 Y-129.91
X282.556 Y-129.914
X282.749 Y-129.901
X282.941 Y-129.874
X283.13 Y-129.831
X283.315 Y-129.773
X283.495 Y-129.7
X283.668 Y-129.613
X283.834 Y-129.513
X283.991 Y-129.399
X284.139 Y-129.274
X284.276 Y-129.136
X284.402 Y-128.989
X284.515 Y-128.831
X284.619 Y-128.659
X284.731 Y-128.436
X284.878 Y-128.072
X284.985 Y-127.729
X285.049 Y-127.446
X285.085 Y-127.19
X285.1 Y-126.953
X285.096 Y-126.73
X285.075 Y-126.517
X285.037 Y-126.31
X284.984 Y-126.108
X284.914 Y-125.911
X284.829 Y-125.72
X284.729 Y-125.537
X284.614 Y-125.362
X284.484 Y-125.196
X284.34 Y-125.038
X284.182 Y-124.891
X284.011 Y-124.756
X283.826 Y-124.633
X283.63 Y-124.524
X283.422 Y-124.429
X283.204 Y-124.35
X282.977 Y-124.288
X282.743 Y-124.244
X282.503 Y-124.218
X282.26 Y-124.212
X282.013 Y-124.226
X281.766 Y-124.259
X281.52 Y-124.313
X281.278 Y-124.387
X281.04 Y-124.48
X280.809 Y-124.594
X280.586 Y-124.726
X280.374 Y-124.877
X280.173 Y-125.046
X279.985 Y-125.23
X279.812 Y-125.431
X279.654 Y-125.645
X279.514 Y-125.873
X279.393 Y-126.111
X279.29 Y-126.36
X279.207 Y-126.616
X279.146 Y-126.879
X279.105 Y-127.147
X279.086 Y-127.418
X279.089 Y-127.69
X279.113 Y-127.961
X279.16 Y-128.229
X279.228 Y-128.494
X279.317 Y-128.752
X279.426 Y-129.003
X279.556 Y-129.244
X279.704 Y-129.474
X279.871 Y-129.692
X280.054 Y-129.896
X280.254 Y-130.084
X280.467 Y-130.256
X280.695 Y-130.41
X280.934 Y-130.546
X281.183 Y-130.662
X281.44 Y-130.758
X281.705 Y-130.832
X281.975 Y-130.885
X282.248 Y-130.917
X282.523 Y-130.926
X282.797 Y-130.913
X283.07 Y-130.879
X283.34 Y-130.822
X283.603 Y-130.744
X283.86 Y-130.645
X284.108 Y-130.526
X284.346 Y-130.387
X284.572 Y-130.23
X284.785 Y-130.054
X284.992 Y-129.854
X285.206 Y-129.611
X285.408 Y-129.34
X285.594 Y-129.043
X285.759 Y-128.727
X285.896 Y-128.401
X286.004 Y-128.075
X286.083 Y-127.751
X286.124 Y-127.492
X286.132 Y-127.428
X286.134 Y-127.363
X286.13 Y-127.298
X286.073 Y-126.76
X286.05 Y-126.677
X285.854 Y-126.073
X285.828 Y-126.006
X285.734 Y-125.839
X285.519 Y-125.467
X285.437 Y-125.336
X284.985 Y-124.833
X284.917 Y-124.768
X284.345 Y-124.353
X284.307 Y-124.331
X283.933 Y-124.163
X283.675 Y-124.048
X283.633 Y-124.031
X283.591 Y-124.02
X282.921 Y-123.877
X282.879 Y-123.871
X282.837 Y-123.869
X282.166
X282.124 Y-123.87
X282.082 Y-123.877
X281.412 Y-124.019
X281.37 Y-124.03
X281.328 Y-124.047
X280.825 Y-124.271
X280.693 Y-124.331
X280.657 Y-124.352
X280.154 Y-124.716
X280.085 Y-124.767
X280.05 Y-124.796
X279.987 Y-124.865
X279.562 Y-125.336
X279.539 Y-125.368
X279.266 Y-125.839
X279.172 Y-126.006
X279.148 Y-126.065
X278.95 Y-126.677
X278.927 Y-126.76
X278.9 Y-127.012
X278.865 Y-127.347
X278.852 Y-127.514
X278.868 Y-127.682
X278.921 Y-128.185
X278.933 Y-128.268
X278.981 Y-128.419
X279.148 Y-128.935
X279.164 Y-128.979
X279.186 Y-129.022
X279.528 Y-129.615
X279.555 Y-129.654
X279.588 Y-129.692
X280.041 Y-130.195
X280.154 Y-130.284
X280.657 Y-130.649
X280.682 Y-130.664
X280.706 Y-130.676
X281.328 Y-130.953
X281.37 Y-130.97
X281.412 Y-130.981
X282.082 Y-131.123
X282.124 Y-131.13
X282.166 Y-131.131
X282.837
X282.879 Y-131.129
X282.921 Y-131.123
X283.591 Y-130.98
X283.633 Y-130.969
X283.675 Y-130.952
X284.245 Y-130.698
X284.345 Y-130.646
X284.904 Y-130.242
X284.931 Y-130.221
X284.959 Y-130.195
X285.412 Y-129.692
X285.446 Y-129.653
X285.473 Y-129.613
X285.814 Y-129.022
X285.838 Y-128.974
X285.854 Y-128.927
X286.041 Y-128.352
X286.066 Y-128.268
X286.079 Y-128.185
X286.132 Y-127.682
X286.148 Y-127.514
X286.135 Y-127.347
X286.13 Y-127.298
G3 X285.802 Y-127.025 I-0.314 J-0.044
G1 X285.75 Y-127.04 Z-1.995
X285.699 Y-127.056 Z-1.981
X285.652 Y-127.07 Z-1.958
X285.617 Y-127.105 Z-1.922
X285.588 Y-127.134 Z-1.878
X285.565 Y-127.157 Z-1.827
X285.549 Y-127.173 Z-1.771
X285.542 Y-127.181 Z-1.711
X285.541 Y-127.182 Z-1.683
G0 Z5
X281.275 Y-76.62
Z2.5
G3 X283.725 Y-78.38 Z2.335 I1.225 J-0.88 F333.3
X281.275 Y-76.62 Z2.169 I-1.225 J0.88
X283.725 Y-78.38 Z2.004 I1.225 J-0.88
X281.275 Y-76.62 Z1.838 I-1.225 J0.88
X283.725 Y-78.38 Z1.673 I1.225 J-0.88
X281.275 Y-76.62 Z1.507 I-1.225 J0.88
X283.725 Y-78.38 Z1.342 I1.225 J-0.88
X281.275 Y-76.62 Z1.176 I-1.225 J0.88
X283.725 Y-78.38 Z1.011 I1.225 J-0.88
X281.275 Y-76.62 Z0.845 I-1.225 J0.88
X283.725 Y-78.38 Z0.68 I1.225 J-0.88
X281.275 Y-76.62 Z0.515 I-1.225 J0.88
X283.725 Y-78.38 Z0.349 I1.225 J-0.88
X281.275 Y-76.62 Z0.184 I-1.225 J0.88
X283.725 Y-78.38 Z0.018 I1.225 J-0.88
X281.275 Y-76.62 Z-0.147 I-1.225 J0.88
X283.725 Y-78.38 Z-0.313 I1.225 J-0.88
X281.275 Y-76.62 Z-0.478 I-1.225 J0.88
X283.725 Y-78.38 Z-0.644 I1.225 J-0.88
X281.275 Y-76.62 Z-0.809 I-1.225 J0.88
X283.725 Y-78.38 Z-0.974 I1.225 J-0.88
X281.275 Y-76.62 Z-1.14 I-1.225 J0.88
X283.725 Y-78.38 Z-1.305 I1.225 J-0.88
X281.275 Y-76.62 Z-1.471 I-1.225 J0.88
X283.725 Y-78.38 Z-1.636 I1.225 J-0.88
X281.275 Y-76.62 Z-1.802 I-1.225 J0.88
X283.725 Y-78.38 Z-1.967 I1.225 J-0.88
X284.008 Y-77.5 Z-2 I-1.225 J0.88
X280.992 I-1.508
X284.008 I1.508
G1 X284.027 Y-76.762 F1000
X284.049 Y-76.673
X284.065 Y-76.524
X284.052 Y-76.374
X284.017 Y-76.228
X283.962 Y-76.089
X283.89 Y-75.957
X283.804 Y-75.834
X283.706 Y-75.72
X283.598 Y-75.617
X283.48 Y-75.524
X283.354 Y-75.442
X283.222 Y-75.371
X283.083 Y-75.311
X282.937 Y-75.26
X282.783 Y-75.221
X282.623 Y-75.194
X282.458 Y-75.179
X282.289 Y-75.177
X282.118 Y-75.189
X281.946 Y-75.215
X281.775 Y-75.256
X281.605 Y-75.311
X281.439 Y-75.379
X281.277 Y-75.462
X281.122 Y-75.558
X280.973 Y-75.667
X280.833 Y-75.789
X280.702 Y-75.922
X280.582 Y-76.066
X280.473 Y-76.219
X280.377 Y-76.382
X280.293 Y-76.552
X280.224 Y-76.729
X280.168 Y-76.911
X280.128 Y-77.098
X280.102 Y-77.288
X280.092 Y-77.479
X280.097 Y-77.671
X280.117 Y-77.862
X280.153 Y-78.051
X280.204 Y-78.237
X280.27 Y-78.418
X280.35 Y-78.594
X280.444 Y-78.762
X280.552 Y-78.923
X280.672 Y-79.075
X280.803 Y-79.216
X280.946 Y-79.347
X281.099 Y-79.465
X281.261 Y-79.572
X281.431 Y-79.664
X281.608 Y-79.743
X281.791 Y-79.808
X281.978 Y-79.857
X282.169 Y-79.892
X282.361 Y-79.91
X282.555 Y-79.914
X282.749 Y-79.902
X282.941 Y-79.874
X283.13 Y-79.831
X283.315 Y-79.773
X283.494 Y-79.7
X283.668 Y-79.614
X283.834 Y-79.513
X283.991 Y-79.4
X284.138 Y-79.274
X284.276 Y-79.137
X284.401 Y-78.989
X284.515 Y-78.832
X284.619 Y-78.659
X284.73 Y-78.437
X284.877 Y-78.072
X284.984 Y-77.729
X285.048 Y-77.446
X285.085 Y-77.191
X285.1 Y-76.954
X285.095 Y-76.73
X285.074 Y-76.517
X285.037 Y-76.31
X284.983 Y-76.108
X284.914 Y-75.911
X284.828 Y-75.721
X284.728 Y-75.538
X284.613 Y-75.363
X284.484 Y-75.196
X284.34 Y-75.039
X284.182 Y-74.892
X284.01 Y-74.756
X283.826 Y-74.633
X283.629 Y-74.524
X283.421 Y-74.429
X283.203 Y-74.35
X282.977 Y-74.288
X282.743 Y-74.244
X282.503 Y-74.219
X282.259 Y-74.212
X282.013 Y-74.226
X281.766 Y-74.259
X281.52 Y-74.313
X281.277 Y-74.387
X281.04 Y-74.481
X280.809 Y-74.594
X280.586 Y-74.727
X280.373 Y-74.877
X280.172 Y-75.046
X279.984 Y-75.231
X279.811 Y-75.431
X279.654 Y-75.646
X279.514 Y-75.873
X279.392 Y-76.112
X279.29 Y-76.36
X279.207 Y-76.617
X279.145 Y-76.88
X279.105 Y-77.147
X279.086 Y-77.418
X279.088 Y-77.69
X279.113 Y-77.961
X279.159 Y-78.23
X279.227 Y-78.494
X279.316 Y-78.753
X279.426 Y-79.003
X279.555 Y-79.244
X279.704 Y-79.475
X279.87 Y-79.692
X280.054 Y-79.896
X280.253 Y-80.085
X280.467 Y-80.256
X280.694 Y-80.411
X280.933 Y-80.546
X281.182 Y-80.662
X281.44 Y-80.758
X281.704 Y-80.833
X281.974 Y-80.886
X282.247 Y-80.917
X282.522 Y-80.927
X282.797 Y-80.914
X283.07 Y-80.879
X283.339 Y-80.823
X283.603 Y-80.745
X283.86 Y-80.646
X284.108 Y-80.526
X284.346 Y-80.388
X284.571 Y-80.23
X284.785 Y-80.054
