%
(cnc_bed_2)
(T1  D=3.175 CR=0 - ZMIN=-1 - flat end mill)
G90 G94
G17
G21
G28 G91 Z0
G90

(Parallel1)
M9
S5000 M3
G54
G0 X365.326 Y-155.001
Z8
Z1
G1 Z-0.683 F1000
G18 G3 X365.009 Z-1 I-0.317
G1 X-0.009
X-0.045 Z-0.996
X-0.079 Z-0.984
X-0.113 Z-0.972
X-0.149 Z-0.968
G17 G2 X-0.625 Y-154.525 J0.476
G1 Y-153.89
G2 X-0.149 Y-153.414 I0.476
G1 X-0.113 Z-0.972
X-0.079 Z-0.984
X-0.045 Z-0.996
X-0.01 Z-1
X365.01
X365.045 Z-0.996
X365.079 Z-0.984
X365.113 Z-0.972
X365.149 Z-0.968
G3 X365.625 Y-152.938 J0.476
G1 Y-152.303
G3 X365.149 Y-151.826 I-0.476
G1 X365.113 Z-0.972
X365.079 Z-0.984
X365.045 Z-0.996
X365.01 Z-1
X-0.01
X-0.045 Z-0.996
X-0.079 Z-0.984
X-0.113 Z-0.972
X-0.149 Z-0.968
G2 X-0.625 Y-151.35 J0.476
G1 Y-150.715
G2 X-0.149 Y-150.239 I0.476
G1 X-0.113 Z-0.972
X-0.079 Z-0.984
X-0.045 Z-0.996
X-0.01 Z-1
X365.01
X365.045 Z-0.996
X365.079 Z-0.984
X365.113 Z-0.972
X365.149 Z-0.968
G3 X365.625 Y-149.763 J0.476
G1 Y-149.128
G3 X365.149 Y-148.652 I-0.476
G1 X365.113 Z-0.972
X365.079 Z-0.984
X365.045 Z-0.996
X365.01 Z-1
X-0.01
X-0.045 Z-0.996
X-0.079 Z-0.984
X-0.113 Z-0.972
X-0.149 Z-0.968
G2 X-0.625 Y-148.176 J0.476
G1 Y-147.541
G2 X-0.149 Y-147.064 I0.476
G1 X-0.113 Z-0.972
X-0.079 Z-0.984
X-0.045 Z-0.996
X-0.01 Z-1
X365.01
X365.045 Z-0.996
X365.079 Z-0.984
X365.113 Z-0.972
X365.149 Z-0.968
G3 X365.625 Y-146.588 J0.476
G1 Y-145.953
G3 X365.149 Y-145.477 I-0.476
G1 X365.113 Z-0.972
X365.079 Z-0.984
X365.045 Z-0.996
X365.01 Z-1
X-0.01
X-0.045 Z-0.996
X-0.079 Z-0.984
X-0.113 Z-0.972
X-0.149 Z-0.968
G2 X-0.625 Y-145.001 J0.476
G1 Y-144.366
G2 X-0.149 Y-143.89 I0.476
G1 X-0.113 Z-0.972
X-0.079 Z-0.984
X-0.045 Z-0.996
X-0.01 Z-1
X365.01
X365.045 Z-0.996
X365.079 Z-0.984
X365.113 Z-0.972
X365.149 Z-0.968
G3 X365.625 Y-143.414 J0.476
G1 Y-142.779
G3 X365.149 Y-142.302 I-0.476
G1 X365.113 Z-0.972
X365.079 Z-0.984
X365.045 Z-0.996
X365.01 Z-1
X-0.01
X-0.045 Z-0.996
X-0.079 Z-0.984
X-0.113 Z-0.972
X-0.149 Z-0.968
G2 X-0.625 Y-141.826 J0.476
G1 Y-141.191
G2 X-0.149 Y-140.715 I0.476
G1 X-0.113 Z-0.972
X-0.079 Z-0.984
X-0.045 Z-0.996
X-0.01 Z-1
X365.01
X365.045 Z-0.996
X365.079 Z-0.984
X365.113 Z-0.972
X365.149 Z-0.968
G3 X365.625 Y-140.239 J0.476
G1 Y-139.604
G3 X365.149 Y-139.128 I-0.476
G1 X365.113 Z-0.972
X365.079 Z-0.984
X365.045 Z-0.996
X365.01 Z-1
X-0.01
X-0.045 Z-0.996
X-0.079 Z-0.984
X-0.113 Z-0.972
X-0.149 Z-0.968
G2 X-0.625 Y-138.652 J0.476
G1 Y-138.017
G2 X-0.149 Y-137.54 I0.476
G1 X-0.113 Z-0.972
X-0.079 Z-0.984
X-0.045 Z-0.996
X-0.01 Z-1
X365.01
X365.045 Z-0.996
X365.079 Z-0.984
X365.113 Z-0.972
X365.149 Z-0.968
G3 X365.625 Y-137.064 J0.476
G1 Y-136.429
G3 X365.149 Y-135.953 I-0.476
G1 X365.113 Z-0.972
X365.079 Z-0.984
X365.045 Z-0.996
X365.01 Z-1
X-0.01
X-0.045 Z-0.996
X-0.079 Z-0.984
X-0.113 Z-0.972
X-0.149 Z-0.968
G2 X-0.625 Y-135.477 J0.476
G1 Y-134.842
G2 X-0.149 Y-134.366 I0.476
G1 X-0.113 Z-0.972
X-0.079 Z-0.984
X-0.045 Z-0.996
X-0.01 Z-1
X365.01
X365.045 Z-0.996
X365.079 Z-0.984
X365.113 Z-0.972
X365.149 Z-0.968
G3 X365.625 Y-133.89 J0.476
G1 Y-133.255
G3 X365.149 Y-132.778 I-0.476
G1 X365.113 Z-0.972
X365.079 Z-0.984
X365.045 Z-0.996
X365.01 Z-1
X-0.01
X-0.045 Z-0.996
X-0.079 Z-0.984
X-0.113 Z-0.972
X-0.149 Z-0.968
G2 X-0.625 Y-132.302 J0.476
G1 Y-131.667
G2 X-0.149 Y-131.191 I0.476
G1 X-0.113 Z-0.972
X-0.079 Z-0.984
X-0.045 Z-0.996
X-0.01 Z-1
X365.01
X365.045 Z-0.996
X365.079 Z-0.984
X365.113 Z-0.972
X365.149 Z-0.968
G3 X365.625 Y-130.715 J0.476
G1 Y-130.08
G3 X365.149 Y-129.604 I-0.476
G1 X365.113 Z-0.972
X365.079 Z-0.984
X365.045 Z-0.996
X365.01 Z-1
X-0.01
X-0.045 Z-0.996
X-0.079 Z-0.984
X-0.113 Z-0.972
X-0.149 Z-0.968
G2 X-0.625 Y-129.128 J0.476
G1 Y-128.493
G2 X-0.149 Y-128.016 I0.476
G1 X-0.113 Z-0.972
X-0.079 Z-0.984
X-0.045 Z-0.996
X-0.01 Z-1
X365.01
X365.045 Z-0.996
X365.079 Z-0.984
X365.113 Z-0.972
X365.149 Z-0.968
G3 X365.625 Y-127.54 J0.476
G1 Y-126.905
G3 X365.149 Y-126.429 I-0.476
G1 X365.113 Z-0.972
X365.079 Z-0.984
X365.045 Z-0.996
X365.01 Z-1
X-0.01
X-0.045 Z-0.996
X-0.079 Z-0.984
X-0.113 Z-0.972
X-0.149 Z-0.968
G2 X-0.625 Y-125.953 J0.476
G1 Y-125.318
G2 X-0.149 Y-124.842 I0.476
G1 X-0.113 Z-0.972
X-0.079 Z-0.984
X-0.045 Z-0.996
X-0.01 Z-1
X365.01
X365.045 Z-0.996
X365.079 Z-0.984
X365.113 Z-0.972
X365.149 Z-0.968
G3 X365.625 Y-124.365 J0.476
G1 Y-123.731
G3 X365.149 Y-123.254 I-0.476
G1 X365.113 Z-0.972
X365.079 Z-0.984
X365.045 Z-0.996
X365.01 Z-1
X-0.01
X-0.045 Z-0.996
X-0.079 Z-0.984
X-0.113 Z-0.972
X-0.149 Z-0.968
G2 X-0.625 Y-122.778 J0.476
G1 Y-122.143
G2 X-0.149 Y-121.667 I0.476
G1 X-0.113 Z-0.972
X-0.079 Z-0.984
X-0.045 Z-0.996
X-0.01 Z-1
X365.01
X365.045 Z-0.996
X365.079 Z-0.984
X365.113 Z-0.972
X365.149 Z-0.968
G3 X365.625 Y-121.191 J0.476
G1 Y-120.556
G3 X365.149 Y-120.08 I-0.476
G1 X365.113 Z-0.972
X365.079 Z-0.984
X365.045 Z-0.996
X365.01 Z-1
X-0.01
X-0.045 Z-0.996
X-0.079 Z-0.984
X-0.113 Z-0.972
X-0.149 Z-0.968
G2 X-0.625 Y-119.603 J0.476
G1 Y-118.969
G2 X-0.149 Y-118.492 I0.476
G1 X-0.113 Z-0.972
X-0.079 Z-0.984
X-0.045 Z-0.996
X-0.01 Z-1
X365.01
X365.045 Z-0.996
X365.079 Z-0.984
X365.113 Z-0.972
X365.149 Z-0.968
G3 X365.625 Y-118.016 J0.476
G1 Y-117.381
G3 X365.149 Y-116.905 I-0.476
G1 X365.113 Z-0.972
X365.079 Z-0.984
X365.045 Z-0.996
X365.01 Z-1
X-0.01
X-0.045 Z-0.996
X-0.079 Z-0.984
X-0.113 Z-0.972
X-0.149 Z-0.968
G2 X-0.625 Y-116.429 J0.476
G1 Y-115.794
G2 X-0.149 Y-115.318 I0.476
G1 X-0.113 Z-0.972
X-0.079 Z-0.984
X-0.045 Z-0.996
X-0.01 Z-1
X365.01
X365.045 Z-0.996
X365.079 Z-0.984
X365.113 Z-0.972
X365.149 Z-0.968
G3 X365.625 Y-114.841 J0.476
G1 Y-114.207
G3 X365.149 Y-113.73 I-0.476
G1 X365.113 Z-0.972
X365.079 Z-0.984
X365.045 Z-0.996
X365.01 Z-1
X-0.01
X-0.045 Z-0.996
X-0.079 Z-0.984
X-0.113 Z-0.972
X-0.149 Z-0.968
G2 X-0.625 Y-113.254 J0.476
G1 Y-112.619
G2 X-0.149 Y-112.143 I0.476
G1 X-0.113 Z-0.972
X-0.079 Z-0.984
X-0.045 Z-0.996
X-0.01 Z-1
X365.01
X365.045 Z-0.996
X365.079 Z-0.984
X365.113 Z-0.972
X365.149 Z-0.968
G3 X365.625 Y-111.667 J0.476
G1 Y-111.032
G3 X365.149 Y-110.556 I-0.476
G1 X365.113 Z-0.972
X365.079 Z-0.984
X365.045 Z-0.996
X365.01 Z-1
X-0.01
X-0.045 Z-0.996
X-0.079 Z-0.984
X-0.113 Z-0.972
X-0.149 Z-0.968
G2 X-0.625 Y-110.079 J0.476
G1 Y-109.445
G2 X-0.149 Y-108.968 I0.476
G1 X-0.113 Z-0.972
X-0.079 Z-0.984
X-0.045 Z-0.996
X-0.01 Z-1
X365.01
X365.045 Z-0.996
X365.079 Z-0.984
X365.113 Z-0.972
X365.149 Z-0.968
G3 X365.625 Y-108.492 J0.476
G1 Y-107.857
G3 X365.149 Y-107.381 I-0.476
G1 X365.113 Z-0.972
X365.079 Z-0.984
X365.045 Z-0.996
X365.01 Z-1
X-0.01
X-0.045 Z-0.996
X-0.079 Z-0.984
X-0.113 Z-0.972
X-0.149 Z-0.968
G2 X-0.625 Y-106.905 J0.476
G1 Y-106.27
G2 X-0.149 Y-105.794 I0.476
G1 X-0.113 Z-0.972
X-0.079 Z-0.984
X-0.045 Z-0.996
X-0.01 Z-1
X365.01
X365.045 Z-0.996
X365.079 Z-0.984
X365.113 Z-0.972
X365.149 Z-0.968
G3 X365.625 Y-105.317 J0.476
G1 Y-104.683
G3 X365.149 Y-104.206 I-0.476
G1 X365.113 Z-0.972
X365.079 Z-0.984
X365.045 Z-0.996
X365.01 Z-1
X-0.01
X-0.045 Z-0.996
X-0.079 Z-0.984
X-0.113 Z-0.972
X-0.149 Z-0.968
G2 X-0.625 Y-103.73 J0.476
G1 Y-103.095
G2 X-0.149 Y-102.619 I0.476
G1 X-0.113 Z-0.972
X-0.079 Z-0.984
X-0.045 Z-0.996
X-0.01 Z-1
X365.01
X365.045 Z-0.996
X365.079 Z-0.984
X365.113 Z-0.972
X365.149 Z-0.968
G3 X365.625 Y-102.143 J0.476
G1 Y-101.508
G3 X365.149 Y-101.032 I-0.476
G1 X365.113 Z-0.972
X365.079 Z-0.984
X365.045 Z-0.996
X365.01 Z-1
X-0.01
X-0.045 Z-0.996
X-0.079 Z-0.984
X-0.113 Z-0.972
X-0.149 Z-0.968
G2 X-0.625 Y-100.555 J0.476
G1 Y-99.921
G2 X-0.149 Y-99.444 I0.476
G1 X-0.113 Z-0.972
X-0.079 Z-0.984
X-0.045 Z-0.996
X-0.01 Z-1
X365.01
X365.045 Z-0.996
X365.079 Z-0.984
X365.113 Z-0.972
X365.149 Z-0.968
G3 X365.625 Y-98.968 J0.476
G1 Y-98.333
G3 X365.149 Y-97.857 I-0.476
G1 X365.113 Z-0.972
X365.079 Z-0.984
X365.045 Z-0.996
X365.01 Z-1
X-0.01
X-0.045 Z-0.996
X-0.079 Z-0.984
X-0.113 Z-0.972
X-0.149 Z-0.968
G2 X-0.625 Y-97.381 J0.476
G1 Y-96.746
G2 X-0.149 Y-96.27 I0.476
G1 X-0.113 Z-0.972
X-0.079 Z-0.984
X-0.045 Z-0.996
X-0.01 Z-1
X365.01
X365.045 Z-0.996
X365.079 Z-0.984
X365.113 Z-0.972
X365.149 Z-0.968
G3 X365.625 Y-95.793 J0.476
G1 Y-95.159
G3 X365.149 Y-94.682 I-0.476
G1 X365.113 Z-0.972
X365.079 Z-0.984
X365.045 Z-0.996
X365.01 Z-1
X-0.01
X-0.045 Z-0.996
X-0.079 Z-0.984
X-0.113 Z-0.972
X-0.149 Z-0.968
G2 X-0.625 Y-94.206 J0.476
G1 Y-93.571
G2 X-0.149 Y-93.095 I0.476
G1 X-0.113 Z-0.972
X-0.079 Z-0.984
X-0.045 Z-0.996
X-0.01 Z-1
X365.01
X365.045 Z-0.996
X365.079 Z-0.984
X365.113 Z-0.972
X365.149 Z-0.968
G3 X365.625 Y-92.619 J0.476
G1 Y-91.984
G3 X365.149 Y-91.508 I-0.476
G1 X365.113 Z-0.972
X365.079 Z-0.984
X365.045 Z-0.996
X365.01 Z-1
X-0.01
X-0.045 Z-0.996
X-0.079 Z-0.984
X-0.113 Z-0.972
X-0.149 Z-0.968
G2 X-0.625 Y-91.031 J0.476
G1 Y-90.397
G2 X-0.149 Y-89.92 I0.476
G1 X-0.113 Z-0.972
X-0.079 Z-0.984
X-0.045 Z-0.996
X-0.01 Z-1
X365.01
X365.045 Z-0.996
X365.079 Z-0.984
X365.113 Z-0.972
X365.149 Z-0.968
G3 X365.625 Y-89.444 J0.476
G1 Y-88.809
G3 X365.149 Y-88.333 I-0.476
G1 X365.113 Z-0.972
X365.079 Z-0.984
X365.045 Z-0.996
X365.01 Z-1
X-0.01
X-0.045 Z-0.996
X-0.079 Z-0.984
X-0.113 Z-0.972
X-0.149 Z-0.968
G2 X-0.625 Y-87.857 J0.476
G1 Y-87.222
G2 X-0.149 Y-86.746 I0.476
G1 X-0.113 Z-0.972
X-0.079 Z-0.984
X-0.045 Z-0.996
X-0.01 Z-1
X365.01
X365.045 Z-0.996
X365.079 Z-0.984
X365.113 Z-0.972
X365.149 Z-0.968
G3 X365.625 Y-86.269 J0.476
G1 Y-85.635
G3 X365.149 Y-85.158 I-0.476
G1 X365.113 Z-0.972
X365.079 Z-0.984
X365.045 Z-0.996
X365.01 Z-1
X-0.01
X-0.045 Z-0.996
X-0.079 Z-0.984
X-0.113 Z-0.972
X-0.149 Z-0.968
G2 X-0.625 Y-84.682 J0.476
G1 Y-84.047
G2 X-0.149 Y-83.571 I0.476
G1 X-0.113 Z-0.972
X-0.079 Z-0.984
X-0.045 Z-0.996
X-0.01 Z-1
X365.01
X365.045 Z-0.996
X365.079 Z-0.984
X365.113 Z-0.972
X365.149 Z-0.968
G3 X365.625 Y-83.095 J0.476
G1 Y-82.46
G3 X365.149 Y-81.984 I-0.476
G1 X365.113 Z-0.972
X365.079 Z-0.984
X365.045 Z-0.996
X365.01 Z-1
X-0.01
X-0.045 Z-0.996
X-0.079 Z-0.984
X-0.113 Z-0.972
X-0.149 Z-0.968
G2 X-0.625 Y-81.507 J0.476
G1 Y-80.873
G2 X-0.149 Y-80.396 I0.476
G1 X-0.113 Z-0.972
X-0.079 Z-0.984
X-0.045 Z-0.996
X-0.01 Z-1
X365.01
X365.045 Z-0.996
X365.079 Z-0.984
X365.113 Z-0.972
X365.149 Z-0.968
G3 X365.625 Y-79.92 J0.476
G1 Y-79.285
G3 X365.149 Y-78.809 I-0.476
G1 X365.113 Z-0.972
X365.079 Z-0.984
X365.045 Z-0.996
X365.01 Z-1
X-0.01
X-0.045 Z-0.996
X-0.079 Z-0.984
X-0.113 Z-0.972
X-0.149 Z-0.968
G2 X-0.625 Y-78.333 J0.476
G1 Y-77.698
G2 X-0.149 Y-77.222 I0.476
G1 X-0.113 Z-0.972
X-0.079 Z-0.984
X-0.045 Z-0.996
X-0.01 Z-1
X365.01
X365.045 Z-0.996
X365.079 Z-0.984
X365.113 Z-0.972
X365.149 Z-0.968
G3 X365.625 Y-76.745 J0.476
G1 Y-76.111
G3 X365.149 Y-75.634 I-0.476
G1 X365.113 Z-0.972
X365.079 Z-0.984
X365.045 Z-0.996
X365.01 Z-1
X-0.01
X-0.045 Z-0.996
X-0.079 Z-0.984
X-0.113 Z-0.972
X-0.149 Z-0.968
G2 X-0.625 Y-75.158 J0.476
G1 Y-74.523
G2 X-0.149 Y-74.047 I0.476
G1 X-0.113 Z-0.972
X-0.079 Z-0.984
X-0.045 Z-0.996
X-0.01 Z-1
X365.01
X365.045 Z-0.996
X365.079 Z-0.984
X365.113 Z-0.972
X365.149 Z-0.968
G3 X365.625 Y-73.571 J0.476
G1 Y-72.936
G3 X365.149 Y-72.46 I-0.476
G1 X365.113 Z-0.972
X365.079 Z-0.984
X365.045 Z-0.996
X365.01 Z-1
X-0.01
X-0.045 Z-0.996
X-0.079 Z-0.984
X-0.113 Z-0.972
X-0.149 Z-0.968
G2 X-0.625 Y-71.983 J0.476
G1 Y-71.349
G2 X-0.149 Y-70.872 I0.476
G1 X-0.113 Z-0.972
X-0.079 Z-0.984
X-0.045 Z-0.996
X-0.01 Z-1
X365.01
X365.045 Z-0.996
X365.079 Z-0.984
X365.113 Z-0.972
X365.149 Z-0.968
G3 X365.625 Y-70.396 J0.476
G1 Y-69.761
G3 X365.149 Y-69.285 I-0.476
G1 X365.113 Z-0.972
X365.079 Z-0.984
X365.045 Z-0.996
X365.01 Z-1
X-0.01
X-0.045 Z-0.996
X-0.079 Z-0.984
X-0.113 Z-0.972
X-0.149 Z-0.968
G2 X-0.625 Y-68.809 J0.476
G1 Y-68.174
G2 X-0.149 Y-67.698 I0.476
G1 X-0.113 Z-0.972
X-0.079 Z-0.984
X-0.045 Z-0.996
X-0.01 Z-1
X365.01
X365.045 Z-0.996
X365.079 Z-0.984
X365.113 Z-0.972
X365.149 Z-0.968
G3 X365.625 Y-67.221 J0.476
G1 Y-66.587
G3 X365.149 Y-66.11 I-0.476
G1 X365.113 Z-0.972
X365.079 Z-0.984
X365.045 Z-0.996
X365.01 Z-1
X-0.01
X-0.045 Z-0.996
X-0.079 Z-0.984
X-0.113 Z-0.972
X-0.149 Z-0.968
G2 X-0.625 Y-65.634 J0.476
G1 Y-64.999
G2 X-0.149 Y-64.523 I0.476
G1 X-0.113 Z-0.972
X-0.079 Z-0.984
X-0.045 Z-0.996
X-0.01 Z-1
X365.01
X365.045 Z-0.996
X365.079 Z-0.984
X365.113 Z-0.972
X365.149 Z-0.968
G3 X365.625 Y-64.047 J0.476
G1 Y-63.412
G3 X365.149 Y-62.936 I-0.476
G1 X365.113 Z-0.972
X365.079 Z-0.984
X365.045 Z-0.996
X365.01 Z-1
X-0.01
X-0.045 Z-0.996
X-0.079 Z-0.984
X-0.113 Z-0.972
X-0.149 Z-0.968
G2 X-0.625 Y-62.459 J0.476
G1 Y-61.824
G2 X-0.149 Y-61.348 I0.476
G1 X-0.113 Z-0.972
X-0.079 Z-0.984
X-0.045 Z-0.996
X-0.01 Z-1
X365.01
X365.045 Z-0.996
X365.079 Z-0.984
X365.113 Z-0.972
X365.149 Z-0.968
G3 X365.625 Y-60.872 J0.476
G1 Y-60.237
G3 X365.149 Y-59.761 I-0.476
G1 X365.113 Z-0.972
X365.079 Z-0.984
X365.045 Z-0.996
X365.01 Z-1
X-0.01
X-0.045 Z-0.996
X-0.079 Z-0.984
X-0.113 Z-0.972
X-0.149 Z-0.968
G2 X-0.625 Y-59.285 J0.476
G1 Y-58.65
G2 X-0.149 Y-58.174 I0.476
G1 X-0.113 Z-0.972
X-0.079 Z-0.984
X-0.045 Z-0.996
X-0.01 Z-1
X365.01
X365.045 Z-0.996
X365.079 Z-0.984
X365.113 Z-0.972
X365.149 Z-0.968
G3 X365.625 Y-57.697 J0.476
G1 Y-57.062
G3 X365.149 Y-56.586 I-0.476
G1 X365.113 Z-0.972
X365.079 Z-0.984
X365.045 Z-0.996
X365.01 Z-1
X-0.01
X-0.045 Z-0.996
X-0.079 Z-0.984
X-0.113 Z-0.972
X-0.149 Z-0.968
G2 X-0.625 Y-56.11 J0.476
G1 Y-55.475
G2 X-0.149 Y-54.999 I0.476
G1 X-0.113 Z-0.972
X-0.079 Z-0.984
X-0.045 Z-0.996
X-0.01 Z-1
X365.01
X365.045 Z-0.996
X365.079 Z-0.984
X365.113 Z-0.972
X365.149 Z-0.968
G3 X365.625 Y-54.523 J0.476
G1 Y-53.888
G3 X365.149 Y-53.412 I-0.476
G1 X365.113 Z-0.972
X365.079 Z-0.984
X365.045 Z-0.996
X365.01 Z-1
X-0.01
X-0.045 Z-0.996
X-0.079 Z-0.984
X-0.113 Z-0.972
X-0.149 Z-0.968
G2 X-0.625 Y-52.935 J0.476
G1 Y-52.3
G2 X-0.149 Y-51.824 I0.476
G1 X-0.113 Z-0.972
X-0.079 Z-0.984
X-0.045 Z-0.996
X-0.01 Z-1
X365.01
X365.045 Z-0.996
X365.079 Z-0.984
X365.113 Z-0.972
X365.149 Z-0.968
G3 X365.625 Y-51.348 J0.476
G1 Y-50.713
G3 X365.149 Y-50.237 I-0.476
G1 X365.113 Z-0.972
X365.079 Z-0.984
X365.045 Z-0.996
X365.01 Z-1
X-0.01
X-0.045 Z-0.996
X-0.079 Z-0.984
X-0.113 Z-0.972
X-0.149 Z-0.968
G2 X-0.625 Y-49.761 J0.476
G1 Y-49.126
G2 X-0.149 Y-48.65 I0.476
G1 X-0.113 Z-0.972
X-0.079 Z-0.984
X-0.045 Z-0.996
X-0.01 Z-1
X365.01
X365.045 Z-0.996
X365.079 Z-0.984
X365.113 Z-0.972
X365.149 Z-0.968
G3 X365.625 Y-48.173 J0.476
G1 Y-47.538
G3 X365.149 Y-47.062 I-0.476
G1 X365.113 Z-0.972
X365.079 Z-0.984
X365.045 Z-0.996
X365.01 Z-1
X-0.01
X-0.045 Z-0.996
X-0.079 Z-0.984
X-0.113 Z-0.972
X-0.149 Z-0.968
G2 X-0.625 Y-46.586 J0.476
G1 Y-45.951
G2 X-0.149 Y-45.475 I0.476
G1 X-0.113 Z-0.972
X-0.079 Z-0.984
X-0.045 Z-0.996
X-0.01 Z-1
X365.01
X365.045 Z-0.996
X365.079 Z-0.984
X365.113 Z-0.972
X365.149 Z-0.968
G3 X365.625 Y-44.999 J0.476
G1 Y-44.364
G3 X365.149 Y-43.888 I-0.476
G1 X365.113 Z-0.972
X365.079 Z-0.984
X365.045 Z-0.996
X365.01 Z-1
X-0.01
X-0.045 Z-0.996
X-0.079 Z-0.984
X-0.113 Z-0.972
X-0.149 Z-0.968
G2 X-0.625 Y-43.411 J0.476
G1 Y-42.776
G2 X-0.149 Y-42.3 I0.476
G1 X-0.113 Z-0.972
X-0.079 Z-0.984
X-0.045 Z-0.996
X-0.01 Z-1
X365.01
X365.045 Z-0.996
X365.079 Z-0.984
X365.113 Z-0.972
X365.149 Z-0.968
G3 X365.625 Y-41.824 J0.476
G1 Y-41.189
G3 X365.149 Y-40.713 I-0.476
G1 X365.113 Z-0.972
X365.079 Z-0.984
X365.045 Z-0.996
X365.01 Z-1
X-0.01
X-0.045 Z-0.996
X-0.079 Z-0.984
X-0.113 Z-0.972
X-0.149 Z-0.968
G2 X-0.625 Y-40.237 J0.476
G1 Y-39.602
G2 X-0.149 Y-39.126 I0.476
G1 X-0.113 Z-0.972
X-0.079 Z-0.984
X-0.045 Z-0.996
X-0.01 Z-1
X365.01
X365.045 Z-0.996
X365.079 Z-0.984
X365.113 Z-0.972
X365.149 Z-0.968
G3 X365.625 Y-38.649 J0.476
G1 Y-38.014
G3 X365.149 Y-37.538 I-0.476
G1 X365.113 Z-0.972
X365.079 Z-0.984
X365.045 Z-0.996
X365.01 Z-1
X-0.01
X-0.045 Z-0.996
X-0.079 Z-0.984
X-0.113 Z-0.972
X-0.149 Z-0.968
G2 X-0.625 Y-37.062 J0.476
G1 Y-36.427
G2 X-0.149 Y-35.951 I0.476
G1 X-0.113 Z-0.972
X-0.079 Z-0.984
X-0.045 Z-0.996
X-0.01 Z-1
X365.01
X365.045 Z-0.996
X365.079 Z-0.984
X365.113 Z-0.972
X365.149 Z-0.968
G3 X365.625 Y-35.475 J0.476
G1 Y-34.84
G3 X365.149 Y-34.364 I-0.476
G1 X365.113 Z-0.972
X365.079 Z-0.984
X365.045 Z-0.996
X365.01 Z-1
X-0.01
X-0.045 Z-0.996
X-0.079 Z-0.984
X-0.113 Z-0.972
X-0.149 Z-0.968
G2 X-0.625 Y-33.887 J0.476
G1 Y-33.252
G2 X-0.149 Y-32.776 I0.476
G1 X-0.113 Z-0.972
X-0.079 Z-0.984
X-0.045 Z-0.996
X-0.01 Z-1
X365.01
X365.045 Z-0.996
X365.079 Z-0.984
X365.113 Z-0.972
X365.149 Z-0.968
G3 X365.625 Y-32.3 J0.476
G1 Y-31.665
G3 X365.149 Y-31.189 I-0.476
G1 X365.113 Z-0.972
X365.079 Z-0.984
X365.045 Z-0.996
X365.01 Z-1
X-0.01
X-0.045 Z-0.996
X-0.079 Z-0.984
X-0.113 Z-0.972
X-0.149 Z-0.968
G2 X-0.625 Y-30.713 J0.476
G1 Y-30.078
G2 X-0.149 Y-29.601 I0.476
G1 X-0.113 Z-0.972
X-0.079 Z-0.984
X-0.045 Z-0.996
X-0.01 Z-1
X365.01
X365.045 Z-0.996
X365.079 Z-0.984
X365.113 Z-0.972
X365.149 Z-0.968
G3 X365.625 Y-29.125 J0.476
G1 Y-28.49
G3 X365.149 Y-28.014 I-0.476
G1 X365.113 Z-0.972
X365.079 Z-0.984
X365.045 Z-0.996
X365.01 Z-1
X-0.01
X-0.045 Z-0.996
X-0.079 Z-0.984
X-0.113 Z-0.972
X-0.149 Z-0.968
G2 X-0.625 Y-27.538 J0.476
G1 Y-26.903
G2 X-0.149 Y-26.427 I0.476
G1 X-0.113 Z-0.972
X-0.079 Z-0.984
X-0.045 Z-0.996
X-0.01 Z-1
X365.01
X365.045 Z-0.996
X365.079 Z-0.984
X365.113 Z-0.972
X365.149 Z-0.968
G3 X365.625 Y-25.951 J0.476
G1 Y-25.316
G3 X365.149 Y-24.839 I-0.476
G1 X365.113 Z-0.972
X365.079 Z-0.984
X365.045 Z-0.996
X365.01 Z-1
X-0.01
X-0.045 Z-0.996
X-0.079 Z-0.984
X-0.113 Z-0.972
X-0.149 Z-0.968
G2 X-0.625 Y-24.363 J0.476
G1 Y-23.728
G2 X-0.149 Y-23.252 I0.476
G1 X-0.113 Z-0.972
X-0.079 Z-0.984
X-0.045 Z-0.996
X-0.01 Z-1
X365.01
X365.045 Z-0.996
X365.079 Z-0.984
X365.113 Z-0.972
X365.149 Z-0.968
G3 X365.625 Y-22.776 J0.476
G1 Y-22.141
G3 X365.149 Y-21.665 I-0.476
G1 X365.113 Z-0.972
X365.079 Z-0.984
X365.045 Z-0.996
X365.01 Z-1
X-0.01
X-0.045 Z-0.996
X-0.079 Z-0.984
X-0.113 Z-0.972
X-0.149 Z-0.968
G2 X-0.625 Y-21.189 J0.476
G1 Y-20.554
G2 X-0.149 Y-20.077 I0.476
G1 X-0.113 Z-0.972
X-0.079 Z-0.984
X-0.045 Z-0.996
X-0.01 Z-1
X365.01
X365.045 Z-0.996
X365.079 Z-0.984
X365.113 Z-0.972
X365.149 Z-0.968
G3 X365.625 Y-19.601 J0.476
G1 Y-18.966
G3 X365.149 Y-18.49 I-0.476
G1 X365.113 Z-0.972
X365.079 Z-0.984
X365.045 Z-0.996
X365.01 Z-1
X-0.01
X-0.045 Z-0.996
X-0.079 Z-0.984
X-0.113 Z-0.972
X-0.149 Z-0.968
G2 X-0.625 Y-18.014 J0.476
G1 Y-17.379
G2 X-0.149 Y-16.903 I0.476
G1 X-0.113 Z-0.972
X-0.079 Z-0.984
X-0.045 Z-0.996
X-0.01 Z-1
X365.01
X365.045 Z-0.996
X365.079 Z-0.984
X365.113 Z-0.972
X365.149 Z-0.968
G3 X365.625 Y-16.427 J0.476
G1 Y-15.792
G3 X365.149 Y-15.315 I-0.476
G1 X365.113 Z-0.972
X365.079 Z-0.984
X365.045 Z-0.996
X365.01 Z-1
X-0.01
X-0.045 Z-0.996
X-0.079 Z-0.984
X-0.113 Z-0.972
X-0.149 Z-0.968
G2 X-0.625 Y-14.839 J0.476
G1 Y-14.204
G2 X-0.149 Y-13.728 I0.476
G1 X-0.113 Z-0.972
X-0.079 Z-0.984
X-0.045 Z-0.996
X-0.01 Z-1
X365.01
X365.045 Z-0.996
X365.079 Z-0.984
X365.113 Z-0.972
X365.149 Z-0.968
G3 X365.625 Y-13.252 J0.476
G1 Y-12.617
G3 X365.149 Y-12.141 I-0.476
G1 X365.113 Z-0.972
X365.079 Z-0.984
X365.045 Z-0.996
X365.01 Z-1
X-0.01
X-0.045 Z-0.996
X-0.079 Z-0.984
X-0.113 Z-0.972
X-0.149 Z-0.968
G2 X-0.625 Y-11.665 J0.476
G1 Y-11.03
G2 X-0.149 Y-10.553 I0.476
G1 X-0.113 Z-0.972
X-0.079 Z-0.984
X-0.045 Z-0.996
X-0.01 Z-1
X365.01
X365.045 Z-0.996
X365.079 Z-0.984
X365.113 Z-0.972
X365.149 Z-0.968
G3 X365.625 Y-10.077 J0.476
G1 Y-9.442
G3 X365.149 Y-8.966 I-0.476
G1 X365.113 Z-0.972
X365.079 Z-0.984
X365.045 Z-0.996
X365.01 Z-1
X-0.01
X-0.045 Z-0.996
X-0.079 Z-0.984
X-0.113 Z-0.972
X-0.149 Z-0.968
G2 X-0.625 Y-8.49 J0.476
G1 Y-7.855
G2 X-0.149 Y-7.379 I0.476
G1 X-0.113 Z-0.972
X-0.079 Z-0.984
X-0.045 Z-0.996
X-0.01 Z-1
X365.01
X365.045 Z-0.996
X365.079 Z-0.984
X365.113 Z-0.972
X365.149 Z-0.968
G3 X365.625 Y-6.903 J0.476
G1 Y-6.268
G3 X365.149 Y-5.791 I-0.476
G1 X365.113 Z-0.972
X365.079 Z-0.984
X365.045 Z-0.996
X365.01 Z-1
X-0.01
X-0.045 Z-0.996
X-0.079 Z-0.984
X-0.113 Z-0.972
X-0.149 Z-0.968
G2 X-0.625 Y-5.315 J0.476
G1 Y-4.68
G2 X-0.149 Y-4.204 I0.476
G1 X-0.113 Z-0.972
X-0.079 Z-0.984
X-0.045 Z-0.996
X-0.01 Z-1
X365.01
X365.045 Z-0.996
X365.079 Z-0.984
X365.113 Z-0.972
X365.149 Z-0.968
G3 X365.625 Y-3.728 J0.476
G1 Y-3.093
G3 X365.149 Y-2.617 I-0.476
G1 X365.113 Z-0.972
X365.079 Z-0.984
X365.045 Z-0.996
X365.01 Z-1
X-0.01
X-0.045 Z-0.996
X-0.079 Z-0.984
X-0.113 Z-0.972
X-0.149 Z-0.968
G2 X-0.625 Y-2.141 J0.476
G1 Y-1.506
G2 X-0.149 Y-1.029 I0.476
G1 X-0.113 Z-0.972
X-0.079 Z-0.984
X-0.045 Z-0.996
X-0.01 Z-1
X365.01
G18 G2 X365.327 Z-0.683 K0.317
G0 Z8
G17
G28 G91 Z0
G90
G28 G91 X0 Y0
G90
M30
%
