%
(cnc_bed_short)
(T1  D=3.175 CR=0 - ZMIN=-11 - flat end mill)
G90 G94
G17
G21
G28 G91 Z0
G90

(Adaptive1)
M9
T1 M6
S5000 M3
G54
G0 X68.74 Y-172.011
Z15
Z5
Z2.5
G3 X68.26 Y-174.989 Z2.335 I-0.24 J-1.489 F333.3
X68.74 Y-172.011 Z2.169 I0.24 J1.489
X68.26 Y-174.989 Z2.004 I-0.24 J-1.489
X68.74 Y-172.011 Z1.838 I0.24 J1.489
X68.26 Y-174.989 Z1.673 I-0.24 J-1.489
X68.74 Y-172.011 Z1.507 I0.24 J1.489
X68.26 Y-174.989 Z1.342 I-0.24 J-1.489
X68.74 Y-172.011 Z1.176 I0.24 J1.489
X68.26 Y-174.989 Z1.011 I-0.24 J-1.489
X68.74 Y-172.011 Z0.845 I0.24 J1.489
X68.26 Y-174.989 Z0.68 I-0.24 J-1.489
X68.74 Y-172.011 Z0.515 I0.24 J1.489
X68.26 Y-174.989 Z0.349 I-0.24 J-1.489
X68.74 Y-172.011 Z0.184 I0.24 J1.489
X68.26 Y-174.989 Z0.018 I-0.24 J-1.489
X68.74 Y-172.011 Z-0.147 I0.24 J1.489
X68.26 Y-174.989 Z-0.313 I-0.24 J-1.489
X68.74 Y-172.011 Z-0.478 I0.24 J1.489
X68.26 Y-174.989 Z-0.644 I-0.24 J-1.489
X68.74 Y-172.011 Z-0.809 I0.24 J1.489
X68.26 Y-174.989 Z-0.974 I-0.24 J-1.489
X68.74 Y-172.011 Z-1.14 I0.24 J1.489
X68.26 Y-174.989 Z-1.305 I-0.24 J-1.489
X68.74 Y-172.011 Z-1.471 I0.24 J1.489
X68.26 Y-174.989 Z-1.636 I-0.24 J-1.489
X68.74 Y-172.011 Z-1.802 I0.24 J1.489
X68.26 Y-174.989 Z-1.967 I-0.24 J-1.489
X68.74 Y-172.011 Z-2.133 I0.24 J1.489
X68.26 Y-174.989 Z-2.298 I-0.24 J-1.489
X68.74 Y-172.011 Z-2.464 I0.24 J1.489
X68.26 Y-174.989 Z-2.629 I-0.24 J-1.489
X68.74 Y-172.011 Z-2.794 I0.24 J1.489
X68.26 Y-174.989 Z-2.96 I-0.24 J-1.489
X68.74 Y-172.011 Z-3.125 I0.24 J1.489
X68.26 Y-174.989 Z-3.291 I-0.24 J-1.489
X68.74 Y-172.011 Z-3.456 I0.24 J1.489
X68.26 Y-174.989 Z-3.622 I-0.24 J-1.489
X68.74 Y-172.011 Z-3.787 I0.24 J1.489
X68.26 Y-174.989 Z-3.953 I-0.24 J-1.489
X68.74 Y-172.011 Z-4.118 I0.24 J1.489
X68.26 Y-174.989 Z-4.284 I-0.24 J-1.489
X68.74 Y-172.011 Z-4.449 I0.24 J1.489
X68.26 Y-174.989 Z-4.614 I-0.24 J-1.489
X68.74 Y-172.011 Z-4.78 I0.24 J1.489
X68.26 Y-174.989 Z-4.945 I-0.24 J-1.489
X68.74 Y-172.011 Z-5.111 I0.24 J1.489
X68.26 Y-174.989 Z-5.276 I-0.24 J-1.489
X68.74 Y-172.011 Z-5.442 I0.24 J1.489
X68.26 Y-174.989 Z-5.607 I-0.24 J-1.489
X68.74 Y-172.011 Z-5.773 I0.24 J1.489
X68.26 Y-174.989 Z-5.938 I-0.24 J-1.489
X68.74 Y-172.011 Z-6.103 I0.24 J1.489
X68.26 Y-174.989 Z-6.269 I-0.24 J-1.489
X68.74 Y-172.011 Z-6.434 I0.24 J1.489
X68.26 Y-174.989 Z-6.6 I-0.24 J-1.489
X68.74 Y-172.011 Z-6.765 I0.24 J1.489
X68.26 Y-174.989 Z-6.931 I-0.24 J-1.489
X68.74 Y-172.011 Z-7.096 I0.24 J1.489
X68.26 Y-174.989 Z-7.262 I-0.24 J-1.489
X68.74 Y-172.011 Z-7.427 I0.24 J1.489
X68.26 Y-174.989 Z-7.593 I-0.24 J-1.489
X68.74 Y-172.011 Z-7.758 I0.24 J1.489
X68.26 Y-174.989 Z-7.923 I-0.24 J-1.489
X68.74 Y-172.011 Z-8.089 I0.24 J1.489
X68.26 Y-174.989 Z-8.254 I-0.24 J-1.489
X68.74 Y-172.011 Z-8.42 I0.24 J1.489
X68.26 Y-174.989 Z-8.585 I-0.24 J-1.489
X68.74 Y-172.011 Z-8.751 I0.24 J1.489
X68.26 Y-174.989 Z-8.916 I-0.24 J-1.489
X68.74 Y-172.011 Z-9.082 I0.24 J1.489
X68.26 Y-174.989 Z-9.247 I-0.24 J-1.489
X68.74 Y-172.011 Z-9.413 I0.24 J1.489
X68.26 Y-174.989 Z-9.578 I-0.24 J-1.489
X68.74 Y-172.011 Z-9.743 I0.24 J1.489
X68.26 Y-174.989 Z-9.909 I-0.24 J-1.489
X70.008 Y-173.5 Z-10 I0.24 J1.489
X66.992 I-1.508
X70.008 I1.508
G1 X70.028 Y-172.762 F1000
X70.049 Y-172.673
X70.065 Y-172.524
X70.052 Y-172.374
X70.017 Y-172.228
X69.962 Y-172.089
X69.89 Y-171.957
X69.804 Y-171.834
X69.706 Y-171.72
X69.598 Y-171.617
X69.48 Y-171.524
X69.354 Y-171.442
X69.222 Y-171.371
X69.084 Y-171.311
X68.937 Y-171.26
X68.783 Y-171.221
X68.623 Y-171.194
X68.458 Y-171.179
X68.289 Y-171.177
X68.118 Y-171.189
X67.946 Y-171.216
X67.775 Y-171.256
X67.606 Y-171.311
X67.439 Y-171.379
X67.278 Y-171.462
X67.122 Y-171.558
X66.973 Y-171.667
X66.833 Y-171.789
X66.702 Y-171.922
X66.582 Y-172.066
X66.473 Y-172.219
X66.377 Y-172.382
X66.293 Y-172.552
X66.224 Y-172.729
X66.168 Y-172.911
X66.128 Y-173.098
X66.102 Y-173.288
X66.092 Y-173.479
X66.097 Y-173.671
X66.118 Y-173.862
X66.153 Y-174.051
X66.204 Y-174.237
X66.27 Y-174.418
X66.35 Y-174.594
X66.444 Y-174.762
X66.552 Y-174.923
X66.672 Y-175.075
X66.804 Y-175.216
X66.946 Y-175.347
X67.099 Y-175.465
X67.261 Y-175.572
X67.431 Y-175.664
X67.608 Y-175.743
X67.791 Y-175.808
X67.978 Y-175.857
X68.169 Y-175.892
X68.362 Y-175.911
X68.555 Y-175.914
X68.749 Y-175.902
X68.941 Y-175.874
X69.13 Y-175.831
X69.315 Y-175.773
X69.495 Y-175.701
X69.668 Y-175.614
X69.834 Y-175.513
X69.991 Y-175.4
X70.139 Y-175.274
X70.276 Y-175.137
X70.401 Y-174.989
X70.515 Y-174.832
X70.619 Y-174.659
X70.73 Y-174.437
X70.877 Y-174.072
X70.985 Y-173.729
X71.048 Y-173.446
X71.085 Y-173.191
X71.09 Y-173.108
Y-173.015
X71.078 Y-172.923
X71.055 Y-172.833
X70.958 Y-172.533
X70.904 Y-172.391
X70.671 Y-171.987
X70.649 Y-171.952
X70.622 Y-171.917
X70.287 Y-171.545
X70.12 Y-171.418
X69.952 Y-171.296
X69.843 Y-171.218
X69.784 Y-171.186
X69.365 Y-170.999
X69.323 Y-170.982
X69.281 Y-170.971
X68.866 Y-170.882
X68.778 Y-170.866
X68.611 Y-170.863
X68.275
X68.205 Y-170.868
X68.108 Y-170.888
X67.772 Y-170.959
X67.689 Y-170.978
X67.605 Y-171.013
X67.269 Y-171.162
X67.158 Y-171.218
X67.102 Y-171.257
X66.767 Y-171.501
X66.706 Y-171.553
X66.403 Y-171.888
X66.367 Y-171.93
X66.338 Y-171.972
X66.096 Y-172.392
X66.034 Y-172.559
X65.925 Y-172.894
X65.904 Y-172.978
X65.852 Y-173.481
X65.856 Y-173.565
X65.891 Y-173.9
X65.913 Y-174.068
X66.021 Y-174.403
X66.078 Y-174.571
X66.096 Y-174.609
X66.268 Y-174.906
X66.37 Y-175.074
X66.52 Y-175.241
X66.671 Y-175.409
X66.719 Y-175.461
X66.767 Y-175.499
X67.104 Y-175.744
X67.187 Y-175.8
X67.269 Y-175.838
X67.605 Y-175.987
X67.689 Y-176.021
X67.772 Y-176.041
X68.192 Y-176.13
X68.233 Y-176.135
X68.275 Y-176.136
X68.611
X68.778 Y-176.134
X68.946 Y-176.101
X69.281 Y-176.029
X69.323 Y-176.018
X69.365 Y-176.001
X69.784 Y-175.814
X69.84 Y-175.784
X69.896 Y-175.744
X70.127 Y-175.577
X70.287 Y-175.454
X70.48 Y-175.241
X70.63 Y-175.074
X70.66 Y-175.032
X70.829 Y-174.738
X70.922 Y-174.571
X70.958 Y-174.467
X71.087 Y-174.068
X71.109 Y-173.9
X71.144 Y-173.565
X71.148 Y-173.481
X71.096 Y-172.978
X71.075 Y-172.894
X71.055 Y-172.833
G3 X70.678 Y-172.634 I-0.298 J-0.109
G1 X70.63 Y-172.66 Z-9.995
X70.584 Y-172.685 Z-9.981
X70.541 Y-172.709 Z-9.958
X70.514 Y-172.75 Z-9.922
X70.491 Y-172.785 Z-9.878
X70.474 Y-172.813 Z-9.827
X70.462 Y-172.831 Z-9.771
X70.456 Y-172.841 Z-9.711
X70.455 Y-172.842 Z-9.682
G0 Z5
X18.739 Y-22.012
Z2.5
G3 X18.26 Y-24.99 Z2.335 I-0.24 J-1.489 F333.3
X18.739 Y-22.012 Z2.169 I0.24 J1.489
X18.26 Y-24.99 Z2.004 I-0.24 J-1.489
X18.739 Y-22.012 Z1.838 I0.24 J1.489
X18.26 Y-24.99 Z1.673 I-0.24 J-1.489
X18.739 Y-22.012 Z1.507 I0.24 J1.489
X18.26 Y-24.99 Z1.342 I-0.24 J-1.489
X18.739 Y-22.012 Z1.176 I0.24 J1.489
X18.26 Y-24.99 Z1.011 I-0.24 J-1.489
X18.739 Y-22.012 Z0.845 I0.24 J1.489
X18.26 Y-24.99 Z0.68 I-0.24 J-1.489
X18.739 Y-22.012 Z0.515 I0.24 J1.489
X18.26 Y-24.99 Z0.349 I-0.24 J-1.489
X18.739 Y-22.012 Z0.184 I0.24 J1.489
X18.26 Y-24.99 Z0.018 I-0.24 J-1.489
X18.739 Y-22.012 Z-0.147 I0.24 J1.489
X18.26 Y-24.99 Z-0.313 I-0.24 J-1.489
X18.739 Y-22.012 Z-0.478 I0.24 J1.489
X18.26 Y-24.99 Z-0.644 I-0.24 J-1.489
X18.739 Y-22.012 Z-0.809 I0.24 J1.489
X18.26 Y-24.99 Z-0.974 I-0.24 J-1.489
X18.739 Y-22.012 Z-1.14 I0.24 J1.489
X18.26 Y-24.99 Z-1.305 I-0.24 J-1.489
X18.739 Y-22.012 Z-1.471 I0.24 J1.489
X18.26 Y-24.99 Z-1.636 I-0.24 J-1.489
X18.739 Y-22.012 Z-1.802 I0.24 J1.489
X18.26 Y-24.99 Z-1.967 I-0.24 J-1.489
X18.739 Y-22.012 Z-2.133 I0.24 J1.489
X18.26 Y-24.99 Z-2.298 I-0.24 J-1.489
X18.739 Y-22.012 Z-2.464 I0.24 J1.489
X18.26 Y-24.99 Z-2.629 I-0.24 J-1.489
X18.739 Y-22.012 Z-2.794 I0.24 J1.489
X18.26 Y-24.99 Z-2.96 I-0.24 J-1.489
X18.739 Y-22.012 Z-3.125 I0.24 J1.489
X18.26 Y-24.99 Z-3.291 I-0.24 J-1.489
X18.739 Y-22.012 Z-3.456 I0.24 J1.489
X18.26 Y-24.99 Z-3.622 I-0.24 J-1.489
X18.739 Y-22.012 Z-3.787 I0.24 J1.489
X18.26 Y-24.99 Z-3.953 I-0.24 J-1.489
X18.739 Y-22.012 Z-4.118 I0.24 J1.489
X18.26 Y-24.99 Z-4.284 I-0.24 J-1.489
X18.739 Y-22.012 Z-4.449 I0.24 J1.489
X18.26 Y-24.99 Z-4.614 I-0.24 J-1.489
X18.739 Y-22.012 Z-4.78 I0.24 J1.489
X18.26 Y-24.99 Z-4.945 I-0.24 J-1.489
X18.739 Y-22.012 Z-5.111 I0.24 J1.489
X18.26 Y-24.99 Z-5.276 I-0.24 J-1.489
X18.739 Y-22.012 Z-5.442 I0.24 J1.489
X18.26 Y-24.99 Z-5.607 I-0.24 J-1.489
X18.739 Y-22.012 Z-5.773 I0.24 J1.489
X18.26 Y-24.99 Z-5.938 I-0.24 J-1.489
X18.739 Y-22.012 Z-6.103 I0.24 J1.489
X18.26 Y-24.99 Z-6.269 I-0.24 J-1.489
X18.739 Y-22.012 Z-6.434 I0.24 J1.489
X18.26 Y-24.99 Z-6.6 I-0.24 J-1.489
X18.739 Y-22.012 Z-6.765 I0.24 J1.489
X18.26 Y-24.99 Z-6.931 I-0.24 J-1.489
X18.739 Y-22.012 Z-7.096 I0.24 J1.489
X18.26 Y-24.99 Z-7.262 I-0.24 J-1.489
X18.739 Y-22.012 Z-7.427 I0.24 J1.489
X18.26 Y-24.99 Z-7.593 I-0.24 J-1.489
X18.739 Y-22.012 Z-7.758 I0.24 J1.489
X18.26 Y-24.99 Z-7.923 I-0.24 J-1.489
X18.739 Y-22.012 Z-8.089 I0.24 J1.489
X18.26 Y-24.99 Z-8.254 I-0.24 J-1.489
X18.739 Y-22.012 Z-8.42 I0.24 J1.489
X18.26 Y-24.99 Z-8.585 I-0.24 J-1.489
X18.739 Y-22.012 Z-8.751 I0.24 J1.489
X18.26 Y-24.99 Z-8.916 I-0.24 J-1.489
X18.739 Y-22.012 Z-9.082 I0.24 J1.489
X18.26 Y-24.99 Z-9.247 I-0.24 J-1.489
X18.739 Y-22.012 Z-9.413 I0.24 J1.489
X18.26 Y-24.99 Z-9.578 I-0.24 J-1.489
X18.739 Y-22.012 Z-9.743 I0.24 J1.489
X18.26 Y-24.99 Z-9.909 I-0.24 J-1.489
X20.008 Y-23.501 Z-10 I0.24 J1.489
X16.992 I-1.508
X20.008 I1.508
G1 X20.027 Y-22.763 F1000
X20.049 Y-22.674
X20.064 Y-22.524
X20.052 Y-22.375
X20.016 Y-22.229
X19.961 Y-22.089
X19.89 Y-21.958
X19.804 Y-21.835
X19.706 Y-21.721
X19.597 Y-21.618
X19.479 Y-21.525
X19.354 Y-21.443
X19.222 Y-21.372
X19.083 Y-21.312
X18.936 Y-21.261
X18.783 Y-21.222
X18.622 Y-21.194
X18.457 Y-21.179
X18.289 Y-21.178
X18.118 Y-21.19
X17.946 Y-21.216
X17.775 Y-21.257
X17.605 Y-21.311
X17.439 Y-21.38
X17.277 Y-21.463
X17.121 Y-21.559
X16.973 Y-21.668
X16.833 Y-21.789
X16.702 Y-21.922
X16.582 Y-22.066
X16.473 Y-22.22
X16.376 Y-22.382
X16.293 Y-22.553
X16.223 Y-22.73
X16.168 Y-22.912
X16.127 Y-23.099
X16.102 Y-23.288
X16.092 Y-23.48
X16.097 Y-23.672
X16.117 Y-23.863
X16.153 Y-24.052
X16.204 Y-24.238
X16.27 Y-24.419
X16.35 Y-24.594
X16.444 Y-24.763
X16.551 Y-24.924
X16.671 Y-25.075
X16.803 Y-25.217
X16.946 Y-25.347
X17.099 Y-25.466
X17.261 Y-25.572
X17.431 Y-25.665
X17.608 Y-25.744
X17.79 Y-25.808
X17.978 Y-25.858
X18.168 Y-25.892
X18.361 Y-25.911
X18.555 Y-25.915
X18.748 Y-25.902
X18.94 Y-25.875
X19.129 Y-25.832
X19.314 Y-25.774
X19.494 Y-25.701
X19.667 Y-25.614
X19.833 Y-25.514
X19.991 Y-25.4
X20.138 Y-25.275
X20.275 Y-25.137
X20.401 Y-24.99
X20.514 Y-24.832
X20.619 Y-24.66
X20.73 Y-24.437
X20.877 Y-24.073
X20.984 Y-23.73
X21.048 Y-23.447
X21.085 Y-23.191
X21.09 Y-23.106
Y-23.013
X21.078 Y-22.921
X21.055 Y-22.831
X20.95 Y-22.508
X20.921 Y-22.424
X20.875 Y-22.34
X20.663 Y-21.973
X20.64 Y-21.939
X20.612 Y-21.905
X20.327 Y-21.589
X20.282 Y-21.54
X20.236 Y-21.502
X19.992 Y-21.325
X19.824 Y-21.206
X19.742 Y-21.167
X19.366 Y-20.999
X19.322 Y-20.981
X19.154 Y-20.943
X18.819 Y-20.872
X18.777 Y-20.866
X18.735 Y-20.864
X18.316
X18.232 Y-20.865
X18.148 Y-20.879
X17.729 Y-20.968
X17.687 Y-20.979
X17.645 Y-20.994
X17.2 Y-21.193
X17.142 Y-21.227
X16.764 Y-21.502
X16.733 Y-21.527
X16.702 Y-21.557
X16.375 Y-21.921
X16.343 Y-21.963
X16.125 Y-22.34
X16.079 Y-22.424
X16.05 Y-22.508
X15.914 Y-22.927
X15.9 Y-23.011
X15.865 Y-23.346
X15.852 Y-23.514
X15.868 Y-23.682
X15.903 Y-24.017
X15.911 Y-24.059
X15.923 Y-24.101
X16.059 Y-24.52
X16.091 Y-24.599
X16.335 Y-25.023
X16.362 Y-25.064
X16.397 Y-25.105
X16.639 Y-25.373
X16.721 Y-25.461
X16.807 Y-25.529
X17.142 Y-25.772
X17.184 Y-25.799
X17.226 Y-25.819
X17.645 Y-26.006
X17.68 Y-26.019
X17.715 Y-26.029
X18.148 Y-26.121
X18.232 Y-26.135
X18.316 Y-26.136
X18.735
X18.777 Y-26.134
X18.819 Y-26.128
X19.286 Y-26.029
X19.322 Y-26.019
X19.489 Y-25.946
X19.68 Y-25.861
X19.824 Y-25.794
X19.992 Y-25.675
X20.198 Y-25.526
X20.262 Y-25.477
X20.327 Y-25.411
X20.6 Y-25.108
X20.635 Y-25.067
X20.665 Y-25.023
X20.907 Y-24.604
X20.927 Y-24.562
X21.077 Y-24.101
X21.089 Y-24.059
X21.097 Y-24.017
X21.132 Y-23.682
X21.148 Y-23.514
X21.135 Y-23.346
X21.1 Y-23.011
X21.085 Y-22.927
X21.055 Y-22.831
G3 X20.677 Y-22.633 I-0.298 J-0.109
G1 X20.63 Y-22.659 Z-9.995
X20.584 Y-22.684 Z-9.981
X20.54 Y-22.708 Z-9.958
X20.514 Y-22.749 Z-9.922
X20.491 Y-22.784 Z-9.878
X20.474 Y-22.812 Z-9.827
X20.462 Y-22.83 Z-9.771
X20.456 Y-22.839 Z-9.711
X20.455 Y-22.841 Z-9.682
G0 Z5
X18.739 Y-172.011
Z2.5
G3 X18.26 Y-174.989 Z2.335 I-0.24 J-1.489 F333.3
X18.739 Y-172.011 Z2.169 I0.24 J1.489
X18.26 Y-174.989 Z2.004 I-0.24 J-1.489
X18.739 Y-172.011 Z1.838 I0.24 J1.489
X18.26 Y-174.989 Z1.673 I-0.24 J-1.489
X18.739 Y-172.011 Z1.507 I0.24 J1.489
X18.26 Y-174.989 Z1.342 I-0.24 J-1.489
X18.739 Y-172.011 Z1.176 I0.24 J1.489
X18.26 Y-174.989 Z1.011 I-0.24 J-1.489
X18.739 Y-172.011 Z0.845 I0.24 J1.489
X18.26 Y-174.989 Z0.68 I-0.24 J-1.489
X18.739 Y-172.011 Z0.515 I0.24 J1.489
X18.26 Y-174.989 Z0.349 I-0.24 J-1.489
X18.739 Y-172.011 Z0.184 I0.24 J1.489
X18.26 Y-174.989 Z0.018 I-0.24 J-1.489
X18.739 Y-172.011 Z-0.147 I0.24 J1.489
X18.26 Y-174.989 Z-0.313 I-0.24 J-1.489
X18.739 Y-172.011 Z-0.478 I0.24 J1.489
X18.26 Y-174.989 Z-0.644 I-0.24 J-1.489
X18.739 Y-172.011 Z-0.809 I0.24 J1.489
X18.26 Y-174.989 Z-0.974 I-0.24 J-1.489
X18.739 Y-172.011 Z-1.14 I0.24 J1.489
X18.26 Y-174.989 Z-1.305 I-0.24 J-1.489
X18.739 Y-172.011 Z-1.471 I0.24 J1.489
X18.26 Y-174.989 Z-1.636 I-0.24 J-1.489
X18.739 Y-172.011 Z-1.802 I0.24 J1.489
X18.26 Y-174.989 Z-1.967 I-0.24 J-1.489
X18.739 Y-172.011 Z-2.133 I0.24 J1.489
X18.26 Y-174.989 Z-2.298 I-0.24 J-1.489
X18.739 Y-172.011 Z-2.464 I0.24 J1.489
X18.26 Y-174.989 Z-2.629 I-0.24 J-1.489
X18.739 Y-172.011 Z-2.794 I0.24 J1.489
X18.26 Y-174.989 Z-2.96 I-0.24 J-1.489
X18.739 Y-172.011 Z-3.125 I0.24 J1.489
X18.26 Y-174.989 Z-3.291 I-0.24 J-1.489
X18.739 Y-172.011 Z-3.456 I0.24 J1.489
X18.26 Y-174.989 Z-3.622 I-0.24 J-1.489
X18.739 Y-172.011 Z-3.787 I0.24 J1.489
X18.26 Y-174.989 Z-3.953 I-0.24 J-1.489
X18.739 Y-172.011 Z-4.118 I0.24 J1.489
X18.26 Y-174.989 Z-4.284 I-0.24 J-1.489
X18.739 Y-172.011 Z-4.449 I0.24 J1.489
X18.26 Y-174.989 Z-4.614 I-0.24 J-1.489
X18.739 Y-172.011 Z-4.78 I0.24 J1.489
X18.26 Y-174.989 Z-4.945 I-0.24 J-1.489
X18.739 Y-172.011 Z-5.111 I0.24 J1.489
X18.26 Y-174.989 Z-5.276 I-0.24 J-1.489
X18.739 Y-172.011 Z-5.442 I0.24 J1.489
X18.26 Y-174.989 Z-5.607 I-0.24 J-1.489
X18.739 Y-172.011 Z-5.773 I0.24 J1.489
X18.26 Y-174.989 Z-5.938 I-0.24 J-1.489
X18.739 Y-172.011 Z-6.103 I0.24 J1.489
X18.26 Y-174.989 Z-6.269 I-0.24 J-1.489
X18.739 Y-172.011 Z-6.434 I0.24 J1.489
X18.26 Y-174.989 Z-6.6 I-0.24 J-1.489
X18.739 Y-172.011 Z-6.765 I0.24 J1.489
X18.26 Y-174.989 Z-6.931 I-0.24 J-1.489
X18.739 Y-172.011 Z-7.096 I0.24 J1.489
X18.26 Y-174.989 Z-7.262 I-0.24 J-1.489
X18.739 Y-172.011 Z-7.427 I0.24 J1.489
X18.26 Y-174.989 Z-7.593 I-0.24 J-1.489
X18.739 Y-172.011 Z-7.758 I0.24 J1.489
X18.26 Y-174.989 Z-7.923 I-0.24 J-1.489
X18.739 Y-172.011 Z-8.089 I0.24 J1.489
X18.26 Y-174.989 Z-8.254 I-0.24 J-1.489
X18.739 Y-172.011 Z-8.42 I0.24 J1.489
X18.26 Y-174.989 Z-8.585 I-0.24 J-1.489
X18.739 Y-172.011 Z-8.751 I0.24 J1.489
X18.26 Y-174.989 Z-8.916 I-0.24 J-1.489
X18.739 Y-172.011 Z-9.082 I0.24 J1.489
X18.26 Y-174.989 Z-9.247 I-0.24 J-1.489
X18.739 Y-172.011 Z-9.413 I0.24 J1.489
X18.26 Y-174.989 Z-9.578 I-0.24 J-1.489
X18.739 Y-172.011 Z-9.743 I0.24 J1.489
X18.26 Y-174.989 Z-9.909 I-0.24 J-1.489
X20.008 Y-173.5 Z-10 I0.24 J1.489
X16.991 I-1.508
X20.008 I1.508
G1 X20.027 Y-172.762 F1000
X20.049 Y-172.673
X20.064 Y-172.523
X20.052 Y-172.374
X20.016 Y-172.228
X19.961 Y-172.089
X19.89 Y-171.957
X19.804 Y-171.834
X19.706 Y-171.72
X19.597 Y-171.617
X19.479 Y-171.524
X19.354 Y-171.442
X19.222 Y-171.371
X19.083 Y-171.311
X18.936 Y-171.26
X18.782 Y-171.221
X18.622 Y-171.193
X18.457 Y-171.179
X18.289 Y-171.177
X18.118 Y-171.189
X17.946 Y-171.215
X17.774 Y-171.256
X17.605 Y-171.311
X17.439 Y-171.379
X17.277 Y-171.462
X17.121 Y-171.558
X16.973 Y-171.667
X16.832 Y-171.789
X16.702 Y-171.922
X16.581 Y-172.065
X16.473 Y-172.219
X16.376 Y-172.382
X16.293 Y-172.552
X16.223 Y-172.729
X16.168 Y-172.911
X16.127 Y-173.098
X16.102 Y-173.287
X16.091 Y-173.479
X16.097 Y-173.671
X16.117 Y-173.862
X16.153 Y-174.051
X16.204 Y-174.237
X16.27 Y-174.418
X16.35 Y-174.594
X16.444 Y-174.762
X16.551 Y-174.923
X16.671 Y-175.075
X16.803 Y-175.216
X16.946 Y-175.347
X17.099 Y-175.465
X17.261 Y-175.571
X17.43 Y-175.664
X17.607 Y-175.743
X17.79 Y-175.807
X17.977 Y-175.857
X18.168 Y-175.891
X18.361 Y-175.91
X18.555 Y-175.914
X18.748 Y-175.902
X18.94 Y-175.874
X19.129 Y-175.831
X19.314 Y-175.773
X19.494 Y-175.7
X19.667 Y-175.614
X19.833 Y-175.513
X19.99 Y-175.4
X20.138 Y-175.274
X20.275 Y-175.137
X20.401 Y-174.989
X20.514 Y-174.831
X20.619 Y-174.659
X20.73 Y-174.436
X20.877 Y-174.072
X20.984 Y-173.729
X21.048 Y-173.446
X21.084 Y-173.191
X21.09 Y-173.106
Y-173.013
X21.078 Y-172.921
X21.055 Y-172.831
X20.939 Y-172.475
X20.925 Y-172.433
X20.904 Y-172.391
X20.663 Y-171.973
X20.634 Y-171.931
X20.597 Y-171.888
X20.295 Y-171.553
X20.261 Y-171.522
X20.227 Y-171.496
X19.844 Y-171.218
X19.824 Y-171.206
X19.657 Y-171.129
X19.479 Y-171.05
X19.322 Y-170.982
X19.154 Y-170.944
X18.819 Y-170.872
X18.777 Y-170.866
X18.735 Y-170.864
X18.316 Y-170.863
X18.232 Y-170.865
X18.134 Y-170.882
X17.729 Y-170.969
X17.687 Y-170.979
X17.645 Y-170.995
X17.31 Y-171.144
X17.157 Y-171.218
X17.142 Y-171.228
X16.807 Y-171.471
X16.706 Y-171.553
X16.403 Y-171.888
X16.345 Y-171.96
X16.096 Y-172.391
X16.076 Y-172.433
X16.061 Y-172.475
X15.925 Y-172.894
X15.904 Y-172.978
X15.852 Y-173.481
X15.856 Y-173.565
X15.891 Y-173.9
X15.913 Y-174.068
X16.021 Y-174.403
X16.077 Y-174.571
X16.136 Y-174.679
X16.304 Y-174.969
X16.371 Y-175.074
X16.52 Y-175.241
X16.671 Y-175.409
X16.739 Y-175.478
X16.873 Y-175.577
X17.142 Y-175.772
X17.184 Y-175.799
X17.226 Y-175.819
X17.645 Y-176.005
X17.687 Y-176.021
X17.729 Y-176.031
X18.148 Y-176.121
X18.232 Y-176.135
X18.316 Y-176.136
X18.735
X18.777 Y-176.134
X18.819 Y-176.128
X19.154 Y-176.056
X19.322 Y-176.018
X19.489 Y-175.946
X19.657 Y-175.871
X19.824 Y-175.794
X19.896 Y-175.744
X20.244 Y-175.492
X20.286 Y-175.455
X20.329 Y-175.409
X20.495 Y-175.224
X20.629 Y-175.074
X20.663 Y-175.027
X20.83 Y-174.737
X20.923 Y-174.571
X20.998 Y-174.344
X21.087 Y-174.068
X21.109 Y-173.9
X21.144 Y-173.565
X21.148 Y-173.481
X21.096 Y-172.978
X21.075 Y-172.894
X21.055 Y-172.831
G3 X20.677 Y-172.632 I-0.298 J-0.109
G1 X20.63 Y-172.659 Z-9.995
X20.583 Y-172.684 Z-9.981
X20.54 Y-172.708 Z-9.958
X20.513 Y-172.749 Z-9.922
X20.491 Y-172.784 Z-9.878
X20.473 Y-172.811 Z-9.827
X20.461 Y-172.83 Z-9.771
X20.455 Y-172.839 Z-9.711
Y-172.84 Z-9.682
G0 Z5
X68.739 Y-122.011
Z2.5
G3 X68.26 Y-124.989 Z2.335 I-0.24 J-1.489 F333.3
X68.739 Y-122.011 Z2.169 I0.24 J1.489
X68.26 Y-124.989 Z2.004 I-0.24 J-1.489
X68.739 Y-122.011 Z1.838 I0.24 J1.489
X68.26 Y-124.989 Z1.673 I-0.24 J-1.489
X68.739 Y-122.011 Z1.507 I0.24 J1.489
X68.26 Y-124.989 Z1.342 I-0.24 J-1.489
X68.739 Y-122.011 Z1.176 I0.24 J1.489
X68.26 Y-124.989 Z1.011 I-0.24 J-1.489
X68.739 Y-122.011 Z0.845 I0.24 J1.489
X68.26 Y-124.989 Z0.68 I-0.24 J-1.489
X68.739 Y-122.011 Z0.515 I0.24 J1.489
X68.26 Y-124.989 Z0.349 I-0.24 J-1.489
X68.739 Y-122.011 Z0.184 I0.24 J1.489
X68.26 Y-124.989 Z0.018 I-0.24 J-1.489
X68.739 Y-122.011 Z-0.147 I0.24 J1.489
X68.26 Y-124.989 Z-0.313 I-0.24 J-1.489
X68.739 Y-122.011 Z-0.478 I0.24 J1.489
X68.26 Y-124.989 Z-0.644 I-0.24 J-1.489
X68.739 Y-122.011 Z-0.809 I0.24 J1.489
X68.26 Y-124.989 Z-0.974 I-0.24 J-1.489
X68.739 Y-122.011 Z-1.14 I0.24 J1.489
X68.26 Y-124.989 Z-1.305 I-0.24 J-1.489
X68.739 Y-122.011 Z-1.471 I0.24 J1.489
X68.26 Y-124.989 Z-1.636 I-0.24 J-1.489
X68.739 Y-122.011 Z-1.802 I0.24 J1.489
X68.26 Y-124.989 Z-1.967 I-0.24 J-1.489
X68.739 Y-122.011 Z-2.133 I0.24 J1.489
X68.26 Y-124.989 Z-2.298 I-0.24 J-1.489
X68.739 Y-122.011 Z-2.464 I0.24 J1.489
X68.26 Y-124.989 Z-2.629 I-0.24 J-1.489
X68.739 Y-122.011 Z-2.794 I0.24 J1.489
X68.26 Y-124.989 Z-2.96 I-0.24 J-1.489
X68.739 Y-122.011 Z-3.125 I0.24 J1.489
X68.26 Y-124.989 Z-3.291 I-0.24 J-1.489
X68.739 Y-122.011 Z-3.456 I0.24 J1.489
X68.26 Y-124.989 Z-3.622 I-0.24 J-1.489
X68.739 Y-122.011 Z-3.787 I0.24 J1.489
X68.26 Y-124.989 Z-3.953 I-0.24 J-1.489
X68.739 Y-122.011 Z-4.118 I0.24 J1.489
X68.26 Y-124.989 Z-4.284 I-0.24 J-1.489
X68.739 Y-122.011 Z-4.449 I0.24 J1.489
X68.26 Y-124.989 Z-4.614 I-0.24 J-1.489
X68.739 Y-122.011 Z-4.78 I0.24 J1.489
X68.26 Y-124.989 Z-4.945 I-0.24 J-1.489
X68.739 Y-122.011 Z-5.111 I0.24 J1.489
X68.26 Y-124.989 Z-5.276 I-0.24 J-1.489
X68.739 Y-122.011 Z-5.442 I0.24 J1.489
X68.26 Y-124.989 Z-5.607 I-0.24 J-1.489
X68.739 Y-122.011 Z-5.773 I0.24 J1.489
X68.26 Y-124.989 Z-5.938 I-0.24 J-1.489
X68.739 Y-122.011 Z-6.103 I0.24 J1.489
X68.26 Y-124.989 Z-6.269 I-0.24 J-1.489
X68.739 Y-122.011 Z-6.434 I0.24 J1.489
X68.26 Y-124.989 Z-6.6 I-0.24 J-1.489
X68.739 Y-122.011 Z-6.765 I0.24 J1.489
X68.26 Y-124.989 Z-6.931 I-0.24 J-1.489
X68.739 Y-122.011 Z-7.096 I0.24 J1.489
X68.26 Y-124.989 Z-7.262 I-0.24 J-1.489
X68.739 Y-122.011 Z-7.427 I0.24 J1.489
X68.26 Y-124.989 Z-7.593 I-0.24 J-1.489
X68.739 Y-122.011 Z-7.758 I0.24 J1.489
X68.26 Y-124.989 Z-7.923 I-0.24 J-1.489
X68.739 Y-122.011 Z-8.089 I0.24 J1.489
X68.26 Y-124.989 Z-8.254 I-0.24 J-1.489
X68.739 Y-122.011 Z-8.42 I0.24 J1.489
X68.26 Y-124.989 Z-8.585 I-0.24 J-1.489
X68.739 Y-122.011 Z-8.751 I0.24 J1.489
X68.26 Y-124.989 Z-8.916 I-0.24 J-1.489
X68.739 Y-122.011 Z-9.082 I0.24 J1.489
X68.26 Y-124.989 Z-9.247 I-0.24 J-1.489
X68.739 Y-122.011 Z-9.413 I0.24 J1.489
X68.26 Y-124.989 Z-9.578 I-0.24 J-1.489
X68.739 Y-122.011 Z-9.743 I0.24 J1.489
X68.26 Y-124.989 Z-9.909 I-0.24 J-1.489
X70.008 Y-123.5 Z-10 I0.24 J1.489
X66.992 I-1.508
X70.008 I1.508
G1 X70.027 Y-122.763 F1000
X70.049 Y-122.673
X70.064 Y-122.524
X70.052 Y-122.374
X70.016 Y-122.229
X69.961 Y-122.089
X69.89 Y-121.957
X69.804 Y-121.834
X69.706 Y-121.721
X69.597 Y-121.617
X69.48 Y-121.525
X69.354 Y-121.443
X69.222 Y-121.372
X69.083 Y-121.311
X68.937 Y-121.261
X68.783 Y-121.221
X68.623 Y-121.194
X68.458 Y-121.179
X68.289 Y-121.177
X68.118 Y-121.19
X67.946 Y-121.216
X67.775 Y-121.256
X67.605 Y-121.311
X67.439 Y-121.38
X67.277 Y-121.462
X67.122 Y-121.559
X66.973 Y-121.668
X66.833 Y-121.789
X66.702 Y-121.922
X66.582 Y-122.066
X66.473 Y-122.22
X66.377 Y-122.382
X66.293 Y-122.552
X66.224 Y-122.729
X66.168 Y-122.912
X66.128 Y-123.098
X66.102 Y-123.288
X66.092 Y-123.479
X66.097 Y-123.671
X66.117 Y-123.862
X66.153 Y-124.052
X66.204 Y-124.237
X66.27 Y-124.419
X66.35 Y-124.594
X66.444 Y-124.763
X66.551 Y-124.923
X66.671 Y-125.075
X66.803 Y-125.217
X66.946 Y-125.347
X67.099 Y-125.466
X67.261 Y-125.572
X67.431 Y-125.665
X67.608 Y-125.744
X67.79 Y-125.808
X67.978 Y-125.857
X68.168 Y-125.892
X68.361 Y-125.911
X68.555 Y-125.914
X68.749 Y-125.902
X68.94 Y-125.874
X69.129 Y-125.831
X69.314 Y-125.773
X69.494 Y-125.701
X69.668 Y-125.614
X69.833 Y-125.513
X69.991 Y-125.4
X70.138 Y-125.274
X70.275 Y-125.137
X70.401 Y-124.989
X70.514 Y-124.832
X70.619 Y-124.659
X70.73 Y-124.437
X70.877 Y-124.072
X70.984 Y-123.729
X71.048 Y-123.447
X71.085 Y-123.191
X71.09 Y-123.107
Y-123.015
X71.078 Y-122.924
X71.056 Y-122.835
X70.958 Y-122.533
X70.923 Y-122.43
X70.83 Y-122.263
X70.733 Y-122.095
X70.631 Y-121.927
X70.287 Y-121.545
X70.12 Y-121.418
X69.841 Y-121.216
X69.784 Y-121.186
X69.365 Y-120.999
X69.323 Y-120.983
X69.281 Y-120.971
X68.946 Y-120.899
X68.778 Y-120.866
X68.611 Y-120.864
X68.275
X68.233 Y-120.865
X68.192 Y-120.87
X67.772 Y-120.959
X67.689 Y-120.979
X67.605 Y-121.013
X67.269 Y-121.162
X67.186 Y-121.201
X67.102 Y-121.257
X66.767 Y-121.501
X66.718 Y-121.54
X66.599 Y-121.671
X66.369 Y-121.927
X66.264 Y-122.101
X66.096 Y-122.391
X66.077 Y-122.43
X66.021 Y-122.598
X65.913 Y-122.933
X65.891 Y-123.101
X65.856 Y-123.436
X65.851 Y-123.52
X65.904 Y-124.023
X65.925 Y-124.107
X66.061 Y-124.525
X66.076 Y-124.567
X66.096 Y-124.61
X66.338 Y-125.029
X66.368 Y-125.071
X66.431 Y-125.143
X66.707 Y-125.448
X66.767 Y-125.499
X67.158 Y-125.783
X67.269 Y-125.838
X67.605 Y-125.987
X67.689 Y-126.021
X67.772 Y-126.041
X68.139 Y-126.119
X68.207 Y-126.132
X68.275 Y-126.137
X68.611
X68.778 Y-126.134
X68.861 Y-126.119
X69.281 Y-126.029
X69.323 Y-126.017
X69.365 Y-126.001
X69.784 Y-125.814
X69.842 Y-125.783
X70.12 Y-125.582
X70.287 Y-125.454
X70.293 Y-125.448
X70.622 Y-125.083
X70.71 Y-124.945
X70.904 Y-124.61
X70.922 Y-124.574
X70.935 Y-124.539
X71.075 Y-124.107
X71.096 Y-124.023
X71.149 Y-123.52
X71.144 Y-123.436
X71.109 Y-123.101
X71.087 Y-122.933
X71.056 Y-122.835
G3 X70.679 Y-122.635 I-0.299 J-0.108
G1 X70.631 Y-122.661 Z-9.995
X70.585 Y-122.686 Z-9.981
X70.541 Y-122.71 Z-9.958
X70.515 Y-122.751 Z-9.922
X70.492 Y-122.786 Z-9.878
X70.474 Y-122.813 Z-9.827
X70.462 Y-122.832 Z-9.771
X70.456 Y-122.841 Z-9.711
Y-122.842 Z-9.682
G0 Z5
X68.74 Y-72.011
Z2.5
G3 X68.261 Y-74.989 Z2.335 I-0.24 J-1.489 F333.3
X68.74 Y-72.011 Z2.169 I0.24 J1.489
X68.261 Y-74.989 Z2.004 I-0.24 J-1.489
X68.74 Y-72.011 Z1.838 I0.24 J1.489
X68.261 Y-74.989 Z1.673 I-0.24 J-1.489
X68.74 Y-72.011 Z1.507 I0.24 J1.489
X68.261 Y-74.989 Z1.342 I-0.24 J-1.489
X68.74 Y-72.011 Z1.176 I0.24 J1.489
X68.261 Y-74.989 Z1.011 I-0.24 J-1.489
X68.74 Y-72.011 Z0.845 I0.24 J1.489
X68.261 Y-74.989 Z0.68 I-0.24 J-1.489
X68.74 Y-72.011 Z0.515 I0.24 J1.489
X68.261 Y-74.989 Z0.349 I-0.24 J-1.489
X68.74 Y-72.011 Z0.184 I0.24 J1.489
X68.261 Y-74.989 Z0.018 I-0.24 J-1.489
X68.74 Y-72.011 Z-0.147 I0.24 J1.489
X68.261 Y-74.989 Z-0.313 I-0.24 J-1.489
X68.74 Y-72.011 Z-0.478 I0.24 J1.489
X68.261 Y-74.989 Z-0.644 I-0.24 J-1.489
X68.74 Y-72.011 Z-0.809 I0.24 J1.489
X68.261 Y-74.989 Z-0.974 I-0.24 J-1.489
X68.74 Y-72.011 Z-1.14 I0.24 J1.489
X68.261 Y-74.989 Z-1.305 I-0.24 J-1.489
X68.74 Y-72.011 Z-1.471 I0.24 J1.489
X68.261 Y-74.989 Z-1.636 I-0.24 J-1.489
X68.74 Y-72.011 Z-1.802 I0.24 J1.489
X68.261 Y-74.989 Z-1.967 I-0.24 J-1.489
X68.74 Y-72.011 Z-2.133 I0.24 J1.489
X68.261 Y-74.989 Z-2.298 I-0.24 J-1.489
X68.74 Y-72.011 Z-2.464 I0.24 J1.489
X68.261 Y-74.989 Z-2.629 I-0.24 J-1.489
X68.74 Y-72.011 Z-2.794 I0.24 J1.489
X68.261 Y-74.989 Z-2.96 I-0.24 J-1.489
X68.74 Y-72.011 Z-3.125 I0.24 J1.489
X68.261 Y-74.989 Z-3.291 I-0.24 J-1.489
X68.74 Y-72.011 Z-3.456 I0.24 J1.489
X68.261 Y-74.989 Z-3.622 I-0.24 J-1.489
X68.74 Y-72.011 Z-3.787 I0.24 J1.489
X68.261 Y-74.989 Z-3.953 I-0.24 J-1.489
X68.74 Y-72.011 Z-4.118 I0.24 J1.489
X68.261 Y-74.989 Z-4.284 I-0.24 J-1.489
X68.74 Y-72.011 Z-4.449 I0.24 J1.489
X68.261 Y-74.989 Z-4.614 I-0.24 J-1.489
X68.74 Y-72.011 Z-4.78 I0.24 J1.489
X68.261 Y-74.989 Z-4.945 I-0.24 J-1.489
X68.74 Y-72.011 Z-5.111 I0.24 J1.489
X68.261 Y-74.989 Z-5.276 I-0.24 J-1.489
X68.74 Y-72.011 Z-5.442 I0.24 J1.489
X68.261 Y-74.989 Z-5.607 I-0.24 J-1.489
X68.74 Y-72.011 Z-5.773 I0.24 J1.489
X68.261 Y-74.989 Z-5.938 I-0.24 J-1.489
X68.74 Y-72.011 Z-6.103 I0.24 J1.489
X68.261 Y-74.989 Z-6.269 I-0.24 J-1.489
X68.74 Y-72.011 Z-6.434 I0.24 J1.489
X68.261 Y-74.989 Z-6.6 I-0.24 J-1.489
X68.74 Y-72.011 Z-6.765 I0.24 J1.489
X68.261 Y-74.989 Z-6.931 I-0.24 J-1.489
X68.74 Y-72.011 Z-7.096 I0.24 J1.489
X68.261 Y-74.989 Z-7.262 I-0.24 J-1.489
X68.74 Y-72.011 Z-7.427 I0.24 J1.489
X68.261 Y-74.989 Z-7.593 I-0.24 J-1.489
X68.74 Y-72.011 Z-7.758 I0.24 J1.489
X68.261 Y-74.989 Z-7.923 I-0.24 J-1.489
X68.74 Y-72.011 Z-8.089 I0.24 J1.489
X68.261 Y-74.989 Z-8.254 I-0.24 J-1.489
X68.74 Y-72.011 Z-8.42 I0.24 J1.489
X68.261 Y-74.989 Z-8.585 I-0.24 J-1.489
X68.74 Y-72.011 Z-8.751 I0.24 J1.489
X68.261 Y-74.989 Z-8.916 I-0.24 J-1.489
X68.74 Y-72.011 Z-9.082 I0.24 J1.489
X68.261 Y-74.989 Z-9.247 I-0.24 J-1.489
X68.74 Y-72.011 Z-9.413 I0.24 J1.489
X68.261 Y-74.989 Z-9.578 I-0.24 J-1.489
X68.74 Y-72.011 Z-9.743 I0.24 J1.489
X68.261 Y-74.989 Z-9.909 I-0.24 J-1.489
X70.009 Y-73.5 Z-10 I0.24 J1.489
X66.992 I-1.508
X70.009 I1.508
G1 X70.028 Y-72.762 F1000
X70.05 Y-72.673
X70.065 Y-72.524
X70.053 Y-72.374
X70.017 Y-72.228
X69.962 Y-72.089
X69.891 Y-71.957
X69.805 Y-71.834
X69.707 Y-71.72
X69.598 Y-71.617
X69.48 Y-71.524
X69.355 Y-71.442
X69.223 Y-71.371
X69.084 Y-71.311
X68.937 Y-71.26
X68.783 Y-71.221
X68.623 Y-71.194
X68.458 Y-71.179
X68.29 Y-71.177
X68.119 Y-71.189
X67.947 Y-71.216
X67.775 Y-71.256
X67.606 Y-71.311
X67.44 Y-71.379
X67.278 Y-71.462
X67.122 Y-71.558
X66.974 Y-71.667
X66.833 Y-71.789
X66.703 Y-71.922
X66.582 Y-72.066
X66.474 Y-72.219
X66.377 Y-72.382
X66.294 Y-72.552
X66.224 Y-72.729
X66.169 Y-72.911
X66.128 Y-73.098
X66.103 Y-73.288
X66.092 Y-73.479
X66.097 Y-73.671
X66.118 Y-73.862
X66.154 Y-74.051
X66.205 Y-74.237
X66.271 Y-74.418
X66.351 Y-74.594
X66.445 Y-74.762
X66.552 Y-74.923
X66.672 Y-75.075
X66.804 Y-75.216
X66.947 Y-75.347
X67.1 Y-75.466
X67.261 Y-75.572
X67.431 Y-75.664
X67.608 Y-75.743
X67.791 Y-75.808
X67.978 Y-75.857
X68.169 Y-75.892
X68.362 Y-75.911
X68.556 Y-75.914
X68.749 Y-75.902
X68.941 Y-75.874
X69.13 Y-75.831
X69.315 Y-75.773
X69.495 Y-75.701
X69.668 Y-75.614
X69.834 Y-75.513
X69.991 Y-75.4
X70.139 Y-75.274
X70.276 Y-75.137
X70.402 Y-74.989
X70.515 Y-74.832
X70.62 Y-74.659
X70.731 Y-74.437
X70.878 Y-74.072
X70.985 Y-73.729
X71.049 Y-73.446
X71.085 Y-73.191
X71.09 Y-73.112
X71.091 Y-73.027
X71.081 Y-72.942
X71.062 Y-72.858
X71.046 Y-72.804
X70.937 Y-72.469
X70.922 Y-72.427
X70.901 Y-72.385
X70.658 Y-71.966
X70.622 Y-71.918
X70.365 Y-71.631
X70.287 Y-71.546
X70.182 Y-71.463
X69.868 Y-71.235
X69.826 Y-71.206
X69.784 Y-71.185
X69.365 Y-70.999
X69.323 Y-70.982
X69.281 Y-70.97
X68.946 Y-70.899
X68.778 Y-70.866
X68.611 Y-70.864
X68.275
X68.233 Y-70.865
X68.192 Y-70.87
X67.767 Y-70.96
X67.686 Y-70.979
X67.605 Y-71.012
X67.269 Y-71.161
X67.186 Y-71.2
X67.102 Y-71.257
X66.767 Y-71.5
X66.734 Y-71.526
X66.701 Y-71.558
X66.431 Y-71.857
X66.342 Y-71.966
X66.096 Y-72.391
X66.077 Y-72.43
X66.063 Y-72.469
X65.928 Y-72.883
X65.905 Y-72.972
X65.852 Y-73.475
X65.864 Y-73.643
X65.899 Y-73.978
X65.909 Y-74.048
X65.928 Y-74.117
X66.067 Y-74.545
X66.08 Y-74.577
X66.096 Y-74.609
X66.312 Y-74.984
X66.361 Y-75.063
X66.439 Y-75.152
X66.599 Y-75.329
X66.75 Y-75.487
X67.102 Y-75.743
X67.167 Y-75.789
X67.233 Y-75.822
X67.609 Y-75.99
X67.691 Y-76.022
X67.772 Y-76.041
X68.192 Y-76.13
X68.233 Y-76.135
X68.275 Y-76.136
X68.611
X68.778 Y-76.134
X68.946 Y-76.101
X69.281 Y-76.03
X69.336 Y-76.013
X69.449 Y-75.964
X69.784 Y-75.815
X69.826 Y-75.793
X69.868 Y-75.765
X70.25 Y-75.487
X70.287 Y-75.454
X70.455 Y-75.269
X70.622 Y-75.082
X70.688 Y-74.984
X70.881 Y-74.649
X70.925 Y-74.565
X70.958 Y-74.468
X71.062 Y-74.146
X71.088 Y-74.062
X71.101 Y-73.978
X71.136 Y-73.643
X71.148 Y-73.475
X71.095 Y-72.972
X71.062 Y-72.858
G3 X70.691 Y-72.648 I-0.301 J-0.1
G1 X70.642 Y-72.673 Z-9.995
X70.595 Y-72.697 Z-9.981
X70.551 Y-72.719 Z-9.958
X70.523 Y-72.76 Z-9.922
X70.5 Y-72.794 Z-9.878
X70.481 Y-72.821 Z-9.827
X70.469 Y-72.839 Z-9.771
X70.463 Y-72.848 Z-9.711
X70.462 Y-72.85 Z-9.682
G0 Z5
X68.739 Y-22.011
Z2.5
G3 X68.26 Y-24.989 Z2.335 I-0.24 J-1.489 F333.3
X68.739 Y-22.011 Z2.169 I0.24 J1.489
X68.26 Y-24.989 Z2.004 I-0.24 J-1.489
X68.739 Y-22.011 Z1.838 I0.24 J1.489
X68.26 Y-24.989 Z1.673 I-0.24 J-1.489
X68.739 Y-22.011 Z1.507 I0.24 J1.489
X68.26 Y-24.989 Z1.342 I-0.24 J-1.489
X68.739 Y-22.011 Z1.176 I0.24 J1.489
X68.26 Y-24.989 Z1.011 I-0.24 J-1.489
X68.739 Y-22.011 Z0.845 I0.24 J1.489
X68.26 Y-24.989 Z0.68 I-0.24 J-1.489
X68.739 Y-22.011 Z0.515 I0.24 J1.489
X68.26 Y-24.989 Z0.349 I-0.24 J-1.489
X68.739 Y-22.011 Z0.184 I0.24 J1.489
X68.26 Y-24.989 Z0.018 I-0.24 J-1.489
X68.739 Y-22.011 Z-0.147 I0.24 J1.489
X68.26 Y-24.989 Z-0.313 I-0.24 J-1.489
X68.739 Y-22.011 Z-0.478 I0.24 J1.489
X68.26 Y-24.989 Z-0.644 I-0.24 J-1.489
X68.739 Y-22.011 Z-0.809 I0.24 J1.489
X68.26 Y-24.989 Z-0.974 I-0.24 J-1.489
X68.739 Y-22.011 Z-1.14 I0.24 J1.489
X68.26 Y-24.989 Z-1.305 I-0.24 J-1.489
X68.739 Y-22.011 Z-1.471 I0.24 J1.489
X68.26 Y-24.989 Z-1.636 I-0.24 J-1.489
X68.739 Y-22.011 Z-1.802 I0.24 J1.489
X68.26 Y-24.989 Z-1.967 I-0.24 J-1.489
X68.739 Y-22.011 Z-2.133 I0.24 J1.489
X68.26 Y-24.989 Z-2.298 I-0.24 J-1.489
X68.739 Y-22.011 Z-2.464 I0.24 J1.489
X68.26 Y-24.989 Z-2.629 I-0.24 J-1.489
X68.739 Y-22.011 Z-2.794 I0.24 J1.489
X68.26 Y-24.989 Z-2.96 I-0.24 J-1.489
X68.739 Y-22.011 Z-3.125 I0.24 J1.489
X68.26 Y-24.989 Z-3.291 I-0.24 J-1.489
X68.739 Y-22.011 Z-3.456 I0.24 J1.489
X68.26 Y-24.989 Z-3.622 I-0.24 J-1.489
X68.739 Y-22.011 Z-3.787 I0.24 J1.489
X68.26 Y-24.989 Z-3.953 I-0.24 J-1.489
X68.739 Y-22.011 Z-4.118 I0.24 J1.489
X68.26 Y-24.989 Z-4.284 I-0.24 J-1.489
X68.739 Y-22.011 Z-4.449 I0.24 J1.489
X68.26 Y-24.989 Z-4.614 I-0.24 J-1.489
X68.739 Y-22.011 Z-4.78 I0.24 J1.489
X68.26 Y-24.989 Z-4.945 I-0.24 J-1.489
X68.739 Y-22.011 Z-5.111 I0.24 J1.489
X68.26 Y-24.989 Z-5.276 I-0.24 J-1.489
X68.739 Y-22.011 Z-5.442 I0.24 J1.489
X68.26 Y-24.989 Z-5.607 I-0.24 J-1.489
X68.739 Y-22.011 Z-5.773 I0.24 J1.489
X68.26 Y-24.989 Z-5.938 I-0.24 J-1.489
X68.739 Y-22.011 Z-6.103 I0.24 J1.489
X68.26 Y-24.989 Z-6.269 I-0.24 J-1.489
X68.739 Y-22.011 Z-6.434 I0.24 J1.489
X68.26 Y-24.989 Z-6.6 I-0.24 J-1.489
X68.739 Y-22.011 Z-6.765 I0.24 J1.489
X68.26 Y-24.989 Z-6.931 I-0.24 J-1.489
X68.739 Y-22.011 Z-7.096 I0.24 J1.489
X68.26 Y-24.989 Z-7.262 I-0.24 J-1.489
X68.739 Y-22.011 Z-7.427 I0.24 J1.489
X68.26 Y-24.989 Z-7.593 I-0.24 J-1.489
X68.739 Y-22.011 Z-7.758 I0.24 J1.489
X68.26 Y-24.989 Z-7.923 I-0.24 J-1.489
X68.739 Y-22.011 Z-8.089 I0.24 J1.489
X68.26 Y-24.989 Z-8.254 I-0.24 J-1.489
X68.739 Y-22.011 Z-8.42 I0.24 J1.489
X68.26 Y-24.989 Z-8.585 I-0.24 J-1.489
X68.739 Y-22.011 Z-8.751 I0.24 J1.489
X68.26 Y-24.989 Z-8.916 I-0.24 J-1.489
X68.739 Y-22.011 Z-9.082 I0.24 J1.489
X68.26 Y-24.989 Z-9.247 I-0.24 J-1.489
X68.739 Y-22.011 Z-9.413 I0.24 J1.489
X68.26 Y-24.989 Z-9.578 I-0.24 J-1.489
X68.739 Y-22.011 Z-9.743 I0.24 J1.489
X68.26 Y-24.989 Z-9.909 I-0.24 J-1.489
X70.008 Y-23.5 Z-10 I0.24 J1.489
X66.992 I-1.508
X70.008 I1.508
G1 X70.027 Y-22.763 F1000
X70.049 Y-22.673
X70.065 Y-22.524
X70.052 Y-22.374
X70.016 Y-22.229
X69.962 Y-22.089
X69.89 Y-21.957
X69.804 Y-21.834
X69.706 Y-21.721
X69.597 Y-21.617
X69.48 Y-21.525
X69.354 Y-21.443
X69.222 Y-21.372
X69.083 Y-21.311
X68.937 Y-21.261
X68.783 Y-21.221
X68.623 Y-21.194
X68.458 Y-21.179
X68.289 Y-21.177
X68.118 Y-21.19
X67.946 Y-21.216
X67.775 Y-21.256
X67.605 Y-21.311
X67.439 Y-21.38
X67.277 Y-21.462
X67.122 Y-21.559
X66.973 Y-21.668
X66.833 Y-21.789
X66.702 Y-21.922
X66.582 Y-22.066
X66.473 Y-22.22
X66.377 Y-22.382
X66.293 Y-22.552
X66.224 Y-22.729
X66.168 Y-22.912
X66.128 Y-23.098
X66.102 Y-23.288
X66.092 Y-23.479
X66.097 Y-23.671
X66.117 Y-23.862
X66.153 Y-24.051
X66.204 Y-24.237
X66.27 Y-24.419
X66.35 Y-24.594
X66.444 Y-24.763
X66.552 Y-24.923
X66.672 Y-25.075
X66.803 Y-25.217
X66.946 Y-25.347
X67.099 Y-25.466
X67.261 Y-25.572
X67.431 Y-25.665
X67.608 Y-25.743
X67.79 Y-25.808
X67.978 Y-25.857
X68.168 Y-25.892
X68.361 Y-25.911
X68.555 Y-25.914
X68.749 Y-25.902
X68.94 Y-25.874
X69.13 Y-25.831
X69.315 Y-25.773
X69.494 Y-25.701
X69.668 Y-25.614
X69.834 Y-25.513
X69.991 Y-25.4
X70.138 Y-25.274
X70.275 Y-25.137
X70.401 Y-24.989
X70.514 Y-24.832
X70.619 Y-24.659
X70.73 Y-24.437
X70.877 Y-24.072
X70.984 Y-23.729
X71.048 Y-23.447
X71.085 Y-23.191
X71.09 Y-23.107
Y-23.014
X71.078 Y-22.922
X71.055 Y-22.832
X70.95 Y-22.508
X70.921 Y-22.424
X70.875 Y-22.34
X70.681 Y-22.005
X70.655 Y-21.961
X70.622 Y-21.917
X70.287 Y-21.545
X70.235 Y-21.502
X69.868 Y-21.235
X69.826 Y-21.207
X69.784 Y-21.185
X69.366 Y-20.999
X69.324 Y-20.982
X69.281 Y-20.97
X68.946 Y-20.899
X68.778 Y-20.866
X68.611 Y-20.864
X68.275
X68.233 Y-20.865
X68.192 Y-20.87
X67.703 Y-20.974
X67.634 Y-20.999
X67.258 Y-21.167
X67.18 Y-21.203
X67.102 Y-21.257
X66.764 Y-21.502
X66.72 Y-21.538
X66.676 Y-21.586
X66.431 Y-21.857
X66.366 Y-21.931
X66.319 Y-22.005
X66.096 Y-22.392
X66.069 Y-22.45
X65.928 Y-22.883
X65.91 Y-22.947
X65.9 Y-23.011
X65.865 Y-23.346
X65.852 Y-23.514
X65.868 Y-23.682
X65.903 Y-24.017
X65.913 Y-24.067
X65.95 Y-24.184
X66.059 Y-24.52
X66.075 Y-24.564
X66.096 Y-24.609
X66.335 Y-25.023
X66.354 Y-25.053
X66.377 Y-25.083
X66.689 Y-25.429
X66.728 Y-25.468
X66.767 Y-25.5
X67.102 Y-25.743
X67.186 Y-25.8
X67.32 Y-25.861
X67.605 Y-25.988
X67.659 Y-26.011
X67.714 Y-26.029
X68.192 Y-26.13
X68.233 Y-26.135
X68.275 Y-26.136
X68.611
X68.778 Y-26.134
X68.946 Y-26.101
X69.286 Y-26.029
X69.327 Y-26.017
X69.367 Y-26
X69.784 Y-25.815
X69.826 Y-25.793
X69.868 Y-25.765
X70.198 Y-25.526
X70.287 Y-25.454
X70.375 Y-25.358
X70.622 Y-25.083
X70.646 Y-25.053
X70.665 Y-25.023
X70.907 Y-24.604
X70.926 Y-24.562
X70.941 Y-24.52
X71.077 Y-24.101
X71.089 Y-24.059
X71.097 Y-24.017
X71.132 Y-23.682
X71.148 Y-23.514
X71.135 Y-23.346
X71.1 Y-23.011
X71.085 Y-22.927
X71.055 Y-22.832
G3 X70.678 Y-22.633 I-0.298 J-0.109
G1 X70.63 Y-22.659 Z-9.995
X70.584 Y-22.685 Z-9.981
X70.54 Y-22.708 Z-9.958
X70.514 Y-22.75 Z-9.922
X70.491 Y-22.785 Z-9.878
X70.474 Y-22.812 Z-9.827
X70.462 Y-22.831 Z-9.771
X70.456 Y-22.84 Z-9.711
X70.455 Y-22.841 Z-9.682
G0 Z5
X118.74 Y-172.01
Z2.5
G3 X118.26 Y-174.988 Z2.335 I-0.24 J-1.489 F333.3
X118.74 Y-172.01 Z2.169 I0.24 J1.489
X118.26 Y-174.988 Z2.004 I-0.24 J-1.489
X118.74 Y-172.01 Z1.838 I0.24 J1.489
X118.26 Y-174.988 Z1.673 I-0.24 J-1.489
X118.74 Y-172.01 Z1.507 I0.24 J1.489
X118.26 Y-174.988 Z1.342 I-0.24 J-1.489
X118.74 Y-172.01 Z1.176 I0.24 J1.489
X118.26 Y-174.988 Z1.011 I-0.24 J-1.489
X118.74 Y-172.01 Z0.845 I0.24 J1.489
X118.26 Y-174.988 Z0.68 I-0.24 J-1.489
X118.74 Y-172.01 Z0.515 I0.24 J1.489
X118.26 Y-174.988 Z0.349 I-0.24 J-1.489
X118.74 Y-172.01 Z0.184 I0.24 J1.489
X118.26 Y-174.988 Z0.018 I-0.24 J-1.489
X118.74 Y-172.01 Z-0.147 I0.24 J1.489
X118.26 Y-174.988 Z-0.313 I-0.24 J-1.489
X118.74 Y-172.01 Z-0.478 I0.24 J1.489
X118.26 Y-174.988 Z-0.644 I-0.24 J-1.489
X118.74 Y-172.01 Z-0.809 I0.24 J1.489
X118.26 Y-174.988 Z-0.974 I-0.24 J-1.489
X118.74 Y-172.01 Z-1.14 I0.24 J1.489
X118.26 Y-174.988 Z-1.305 I-0.24 J-1.489
X118.74 Y-172.01 Z-1.471 I0.24 J1.489
X118.26 Y-174.988 Z-1.636 I-0.24 J-1.489
X118.74 Y-172.01 Z-1.802 I0.24 J1.489
X118.26 Y-174.988 Z-1.967 I-0.24 J-1.489
X118.74 Y-172.01 Z-2.133 I0.24 J1.489
X118.26 Y-174.988 Z-2.298 I-0.24 J-1.489
X118.74 Y-172.01 Z-2.464 I0.24 J1.489
X118.26 Y-174.988 Z-2.629 I-0.24 J-1.489
X118.74 Y-172.01 Z-2.794 I0.24 J1.489
X118.26 Y-174.988 Z-2.96 I-0.24 J-1.489
X118.74 Y-172.01 Z-3.125 I0.24 J1.489
X118.26 Y-174.988 Z-3.291 I-0.24 J-1.489
X118.74 Y-172.01 Z-3.456 I0.24 J1.489
X118.26 Y-174.988 Z-3.622 I-0.24 J-1.489
X118.74 Y-172.01 Z-3.787 I0.24 J1.489
X118.26 Y-174.988 Z-3.953 I-0.24 J-1.489
X118.74 Y-172.01 Z-4.118 I0.24 J1.489
X118.26 Y-174.988 Z-4.284 I-0.24 J-1.489
X118.74 Y-172.01 Z-4.449 I0.24 J1.489
X118.26 Y-174.988 Z-4.614 I-0.24 J-1.489
X118.74 Y-172.01 Z-4.78 I0.24 J1.489
X118.26 Y-174.988 Z-4.945 I-0.24 J-1.489
X118.74 Y-172.01 Z-5.111 I0.24 J1.489
X118.26 Y-174.988 Z-5.276 I-0.24 J-1.489
X118.74 Y-172.01 Z-5.442 I0.24 J1.489
X118.26 Y-174.988 Z-5.607 I-0.24 J-1.489
X118.74 Y-172.01 Z-5.773 I0.24 J1.489
X118.26 Y-174.988 Z-5.938 I-0.24 J-1.489
X118.74 Y-172.01 Z-6.103 I0.24 J1.489
X118.26 Y-174.988 Z-6.269 I-0.24 J-1.489
X118.74 Y-172.01 Z-6.434 I0.24 J1.489
X118.26 Y-174.988 Z-6.6 I-0.24 J-1.489
X118.74 Y-172.01 Z-6.765 I0.24 J1.489
X118.26 Y-174.988 Z-6.931 I-0.24 J-1.489
X118.74 Y-172.01 Z-7.096 I0.24 J1.489
X118.26 Y-174.988 Z-7.262 I-0.24 J-1.489
X118.74 Y-172.01 Z-7.427 I0.24 J1.489
X118.26 Y-174.988 Z-7.593 I-0.24 J-1.489
X118.74 Y-172.01 Z-7.758 I0.24 J1.489
X118.26 Y-174.988 Z-7.923 I-0.24 J-1.489
X118.74 Y-172.01 Z-8.089 I0.24 J1.489
X118.26 Y-174.988 Z-8.254 I-0.24 J-1.489
X118.74 Y-172.01 Z-8.42 I0.24 J1.489
X118.26 Y-174.988 Z-8.585 I-0.24 J-1.489
X118.74 Y-172.01 Z-8.751 I0.24 J1.489
X118.26 Y-174.988 Z-8.916 I-0.24 J-1.489
X118.74 Y-172.01 Z-9.082 I0.24 J1.489
X118.26 Y-174.988 Z-9.247 I-0.24 J-1.489
X118.74 Y-172.01 Z-9.413 I0.24 J1.489
X118.26 Y-174.988 Z-9.578 I-0.24 J-1.489
X118.74 Y-172.01 Z-9.743 I0.24 J1.489
X118.26 Y-174.988 Z-9.909 I-0.24 J-1.489
X120.008 Y-173.499 Z-10 I0.24 J1.489
X116.992 I-1.508
X120.008 I1.508
G1 X120.027 Y-172.762 F1000
X120.049 Y-172.672
X120.065 Y-172.523
X120.052 Y-172.374
X120.017 Y-172.228
X119.962 Y-172.088
X119.89 Y-171.956
X119.804 Y-171.833
X119.706 Y-171.72
X119.598 Y-171.617
X119.48 Y-171.524
X119.354 Y-171.442
X119.222 Y-171.371
X119.083 Y-171.31
X118.937 Y-171.26
X118.783 Y-171.22
X118.623 Y-171.193
X118.458 Y-171.178
X118.289 Y-171.177
X118.118 Y-171.189
X117.946 Y-171.215
X117.775 Y-171.255
X117.605 Y-171.31
X117.439 Y-171.379
X117.277 Y-171.462
X117.122 Y-171.558
X116.973 Y-171.667
X116.833 Y-171.788
X116.702 Y-171.921
X116.582 Y-172.065
X116.473 Y-172.219
X116.377 Y-172.381
X116.293 Y-172.551
X116.224 Y-172.728
X116.168 Y-172.911
X116.128 Y-173.097
X116.102 Y-173.287
X116.092 Y-173.478
X116.097 Y-173.67
X116.118 Y-173.861
X116.153 Y-174.051
X116.204 Y-174.236
X116.27 Y-174.418
X116.35 Y-174.593
X116.444 Y-174.762
X116.552 Y-174.923
X116.672 Y-175.074
X116.803 Y-175.216
X116.946 Y-175.346
X117.099 Y-175.465
X117.261 Y-175.571
X117.431 Y-175.664
X117.608 Y-175.743
X117.791 Y-175.807
X117.978 Y-175.857
X118.169 Y-175.891
X118.361 Y-175.91
X118.555 Y-175.913
X118.749 Y-175.901
X118.941 Y-175.874
X119.13 Y-175.831
X119.315 Y-175.773
X119.494 Y-175.7
X119.668 Y-175.613
X119.834 Y-175.513
X119.991 Y-175.399
X120.139 Y-175.273
X120.276 Y-175.136
X120.401 Y-174.988
X120.515 Y-174.831
X120.619 Y-174.658
X120.73 Y-174.436
X120.877 Y-174.071
X120.984 Y-173.728
X121.048 Y-173.446
X121.085 Y-173.19
X121.092 Y-173.081
X121.093 Y-173.03
X121.091 Y-172.979
X121.085 Y-172.928
X121.075 Y-172.894
X120.966 Y-172.559
X120.918 Y-172.418
X120.904 Y-172.391
X120.662 Y-171.972
X120.634 Y-171.93
X120.415 Y-171.686
X120.294 Y-171.553
X120.247 Y-171.511
X119.843 Y-171.218
X119.818 Y-171.202
X119.794 Y-171.19
X119.409 Y-171.019
X119.325 Y-170.983
X119.241 Y-170.962
X118.866 Y-170.882
X118.802 Y-170.869
X118.738 Y-170.863
X118.403
X118.235 Y-170.865
X118.134 Y-170.882
X117.732 Y-170.968
X117.69 Y-170.978
X117.648 Y-170.993
X117.229 Y-171.18
X117.156 Y-171.218
X116.894 Y-171.408
X116.726 Y-171.533
X116.706 Y-171.553
X116.391 Y-171.902
X116.36 Y-171.941
X116.334 Y-171.979
X116.096 Y-172.391
X116.072 Y-172.442
X115.925 Y-172.894
X115.904 Y-172.978
X115.852 Y-173.481
X115.856 Y-173.565
X115.891 Y-173.9
X115.913 Y-174.068
X116.056 Y-174.508
X116.078 Y-174.571
X116.171 Y-174.738
X116.268 Y-174.906
X116.37 Y-175.074
X116.671 Y-175.409
X116.726 Y-175.466
X116.894 Y-175.592
X117.104 Y-175.744
X117.167 Y-175.789
X117.229 Y-175.82
X117.648 Y-176.007
X117.69 Y-176.022
X117.732 Y-176.032
X118.067 Y-176.104
X118.235 Y-176.135
X118.403 Y-176.136
X118.738
X118.78 Y-176.134
X118.822 Y-176.127
X119.241 Y-176.038
X119.325 Y-176.017
X119.409 Y-175.981
X119.744 Y-175.832
X119.82 Y-175.797
X119.912 Y-175.733
X120.247 Y-175.489
X120.288 Y-175.454
X120.582 Y-175.128
X120.63 Y-175.074
X120.66 Y-175.032
X120.829 Y-174.738
X120.918 Y-174.581
X120.922 Y-174.571
X120.978 Y-174.403
X121.086 Y-174.068
X121.109 Y-173.9
X121.144 Y-173.565
X121.148 Y-173.481
X121.105 Y-173.062
X121.085 Y-172.928
X121.062 Y-172.912
X121.004 Y-172.872 Z-9.992
X120.948 Y-172.834 Z-9.969
X120.899 Y-172.799 Z-9.931
X120.858 Y-172.771 Z-9.88
X120.826 Y-172.749 Z-9.82
X120.807 Y-172.736 Z-9.753
X120.801 Y-172.731 Z-9.682
G0 Z5
X118.74 Y-122.011
Z2.5
G3 X118.26 Y-124.989 Z2.335 I-0.24 J-1.489 F333.3
X118.74 Y-122.011 Z2.169 I0.24 J1.489
X118.26 Y-124.989 Z2.004 I-0.24 J-1.489
X118.74 Y-122.011 Z1.838 I0.24 J1.489
X118.26 Y-124.989 Z1.673 I-0.24 J-1.489
X118.74 Y-122.011 Z1.507 I0.24 J1.489
X118.26 Y-124.989 Z1.342 I-0.24 J-1.489
X118.74 Y-122.011 Z1.176 I0.24 J1.489
X118.26 Y-124.989 Z1.011 I-0.24 J-1.489
X118.74 Y-122.011 Z0.845 I0.24 J1.489
X118.26 Y-124.989 Z0.68 I-0.24 J-1.489
X118.74 Y-122.011 Z0.515 I0.24 J1.489
X118.26 Y-124.989 Z0.349 I-0.24 J-1.489
X118.74 Y-122.011 Z0.184 I0.24 J1.489
X118.26 Y-124.989 Z0.018 I-0.24 J-1.489
X118.74 Y-122.011 Z-0.147 I0.24 J1.489
X118.26 Y-124.989 Z-0.313 I-0.24 J-1.489
X118.74 Y-122.011 Z-0.478 I0.24 J1.489
X118.26 Y-124.989 Z-0.644 I-0.24 J-1.489
X118.74 Y-122.011 Z-0.809 I0.24 J1.489
X118.26 Y-124.989 Z-0.974 I-0.24 J-1.489
X118.74 Y-122.011 Z-1.14 I0.24 J1.489
X118.26 Y-124.989 Z-1.305 I-0.24 J-1.489
X118.74 Y-122.011 Z-1.471 I0.24 J1.489
X118.26 Y-124.989 Z-1.636 I-0.24 J-1.489
X118.74 Y-122.011 Z-1.802 I0.24 J1.489
X118.26 Y-124.989 Z-1.967 I-0.24 J-1.489
X118.74 Y-122.011 Z-2.133 I0.24 J1.489
X118.26 Y-124.989 Z-2.298 I-0.24 J-1.489
X118.74 Y-122.011 Z-2.464 I0.24 J1.489
X118.26 Y-124.989 Z-2.629 I-0.24 J-1.489
X118.74 Y-122.011 Z-2.794 I0.24 J1.489
X118.26 Y-124.989 Z-2.96 I-0.24 J-1.489
X118.74 Y-122.011 Z-3.125 I0.24 J1.489
X118.26 Y-124.989 Z-3.291 I-0.24 J-1.489
X118.74 Y-122.011 Z-3.456 I0.24 J1.489
X118.26 Y-124.989 Z-3.622 I-0.24 J-1.489
X118.74 Y-122.011 Z-3.787 I0.24 J1.489
X118.26 Y-124.989 Z-3.953 I-0.24 J-1.489
X118.74 Y-122.011 Z-4.118 I0.24 J1.489
X118.26 Y-124.989 Z-4.284 I-0.24 J-1.489
X118.74 Y-122.011 Z-4.449 I0.24 J1.489
X118.26 Y-124.989 Z-4.614 I-0.24 J-1.489
X118.74 Y-122.011 Z-4.78 I0.24 J1.489
X118.26 Y-124.989 Z-4.945 I-0.24 J-1.489
X118.74 Y-122.011 Z-5.111 I0.24 J1.489
X118.26 Y-124.989 Z-5.276 I-0.24 J-1.489
X118.74 Y-122.011 Z-5.442 I0.24 J1.489
X118.26 Y-124.989 Z-5.607 I-0.24 J-1.489
X118.74 Y-122.011 Z-5.773 I0.24 J1.489
X118.26 Y-124.989 Z-5.938 I-0.24 J-1.489
X118.74 Y-122.011 Z-6.103 I0.24 J1.489
X118.26 Y-124.989 Z-6.269 I-0.24 J-1.489
X118.74 Y-122.011 Z-6.434 I0.24 J1.489
X118.26 Y-124.989 Z-6.6 I-0.24 J-1.489
X118.74 Y-122.011 Z-6.765 I0.24 J1.489
X118.26 Y-124.989 Z-6.931 I-0.24 J-1.489
X118.74 Y-122.011 Z-7.096 I0.24 J1.489
X118.26 Y-124.989 Z-7.262 I-0.24 J-1.489
X118.74 Y-122.011 Z-7.427 I0.24 J1.489
X118.26 Y-124.989 Z-7.593 I-0.24 J-1.489
X118.74 Y-122.011 Z-7.758 I0.24 J1.489
X118.26 Y-124.989 Z-7.923 I-0.24 J-1.489
X118.74 Y-122.011 Z-8.089 I0.24 J1.489
X118.26 Y-124.989 Z-8.254 I-0.24 J-1.489
X118.74 Y-122.011 Z-8.42 I0.24 J1.489
X118.26 Y-124.989 Z-8.585 I-0.24 J-1.489
X118.74 Y-122.011 Z-8.751 I0.24 J1.489
X118.26 Y-124.989 Z-8.916 I-0.24 J-1.489
X118.74 Y-122.011 Z-9.082 I0.24 J1.489
X118.26 Y-124.989 Z-9.247 I-0.24 J-1.489
X118.74 Y-122.011 Z-9.413 I0.24 J1.489
X118.26 Y-124.989 Z-9.578 I-0.24 J-1.489
X118.74 Y-122.011 Z-9.743 I0.24 J1.489
X118.26 Y-124.989 Z-9.909 I-0.24 J-1.489
X120.008 Y-123.5 Z-10 I0.24 J1.489
X116.992 I-1.508
X120.008 I1.508
G1 X120.027 Y-122.763 F1000
X120.049 Y-122.673
X120.065 Y-122.524
X120.052 Y-122.374
X120.017 Y-122.229
X119.962 Y-122.089
X119.89 Y-121.957
X119.804 Y-121.834
X119.706 Y-121.721
X119.598 Y-121.617
X119.48 Y-121.524
X119.354 Y-121.442
X119.222 Y-121.371
X119.083 Y-121.311
X118.937 Y-121.261
X118.783 Y-121.221
X118.623 Y-121.194
X118.458 Y-121.179
X118.289 Y-121.177
X118.118 Y-121.189
X117.946 Y-121.216
X117.775 Y-121.256
X117.605 Y-121.311
X117.439 Y-121.38
X117.277 Y-121.462
X117.122 Y-121.558
X116.973 Y-121.667
X116.833 Y-121.789
X116.702 Y-121.922
X116.582 Y-122.066
X116.473 Y-122.219
X116.377 Y-122.382
X116.293 Y-122.552
X116.224 Y-122.729
X116.168 Y-122.911
X116.128 Y-123.098
X116.102 Y-123.288
X116.092 Y-123.479
X116.097 Y-123.671
X116.117 Y-123.862
X116.153 Y-124.051
X116.204 Y-124.237
X116.27 Y-124.418
X116.35 Y-124.594
X116.444 Y-124.763
X116.552 Y-124.923
X116.672 Y-125.075
X116.803 Y-125.216
X116.946 Y-125.347
X117.099 Y-125.466
X117.261 Y-125.572
X117.431 Y-125.664
X117.608 Y-125.743
X117.791 Y-125.808
X117.978 Y-125.857
X118.169 Y-125.892
X118.361 Y-125.911
X118.555 Y-125.914
X118.749 Y-125.902
X118.941 Y-125.874
X119.13 Y-125.831
X119.315 Y-125.773
X119.494 Y-125.701
X119.668 Y-125.614
X119.834 Y-125.513
X119.991 Y-125.4
X120.138 Y-125.274
X120.276 Y-125.137
X120.401 Y-124.989
X120.515 Y-124.832
X120.619 Y-124.659
X120.73 Y-124.437
X120.877 Y-124.072
X120.984 Y-123.729
X121.048 Y-123.447
X121.085 Y-123.191
X121.092 Y-123.075
X121.093 Y-123.028
X121.092 Y-122.981
X121.087 Y-122.934
X121.085 Y-122.926
X120.979 Y-122.598
X120.922 Y-122.43
X120.918 Y-122.419
X120.83 Y-122.263
X120.733 Y-122.095
X120.631 Y-121.927
X120.329 Y-121.592
X120.288 Y-121.547
X120.247 Y-121.511
X119.897 Y-121.257
X119.821 Y-121.204
X119.744 Y-121.168
X119.409 Y-121.019
X119.325 Y-120.983
X119.241 Y-120.962
X118.822 Y-120.873
X118.78 Y-120.866
X118.738 Y-120.864
X118.403
X118.235 Y-120.865
X118.067 Y-120.896
X117.732 Y-120.968
X117.69 Y-120.978
X117.648 Y-120.993
X117.229 Y-121.18
X117.166 Y-121.212
X117.062 Y-121.286
X116.872 Y-121.424
X116.726 Y-121.533
X116.671 Y-121.592
X116.391 Y-121.902
X116.37 Y-121.927
X116.267 Y-122.095
X116.17 Y-122.263
X116.078 Y-122.43
X116.056 Y-122.492
X115.967 Y-122.765
X115.913 Y-122.933
X115.891 Y-123.101
X115.856 Y-123.436
X115.851 Y-123.52
X115.904 Y-124.023
X115.925 Y-124.107
X116.056 Y-124.508
X116.073 Y-124.559
X116.097 Y-124.61
X116.334 Y-125.021
X116.36 Y-125.06
X116.391 Y-125.098
X116.707 Y-125.448
X116.726 Y-125.466
X116.927 Y-125.616
X117.158 Y-125.783
X117.229 Y-125.82
X117.648 Y-126.007
X117.69 Y-126.022
X117.732 Y-126.032
X118.138 Y-126.119
X118.235 Y-126.135
X118.403 Y-126.137
X118.738
X118.8 Y-126.131
X118.906 Y-126.109
X119.241 Y-126.038
X119.325 Y-126.017
X119.409 Y-125.981
X119.744 Y-125.832
X119.841 Y-125.783
X119.912 Y-125.733
X120.247 Y-125.489
X120.293 Y-125.448
X120.596 Y-125.113
X120.632 Y-125.071
X120.662 Y-125.029
X120.903 Y-124.61
X120.918 Y-124.581
X120.966 Y-124.442
X121.085 Y-124.073
X121.105 Y-123.939
X121.149 Y-123.52
X121.144 Y-123.436
X121.109 Y-123.101
X121.087 Y-122.934
X121.064 Y-122.918
X121.006 Y-122.876 Z-9.992
X120.952 Y-122.837 Z-9.969
X120.903 Y-122.802 Z-9.931
X120.862 Y-122.773 Z-9.88
X120.831 Y-122.751 Z-9.82
X120.812 Y-122.737 Z-9.753
X120.806 Y-122.733 Z-9.682
G0 Z5
X118.739 Y-72.011
Z2.5
G3 X118.26 Y-74.989 Z2.335 I-0.24 J-1.489 F333.3
X118.739 Y-72.011 Z2.169 I0.24 J1.489
X118.26 Y-74.989 Z2.004 I-0.24 J-1.489
X118.739 Y-72.011 Z1.838 I0.24 J1.489
X118.26 Y-74.989 Z1.673 I-0.24 J-1.489
X118.739 Y-72.011 Z1.507 I0.24 J1.489
X118.26 Y-74.989 Z1.342 I-0.24 J-1.489
X118.739 Y-72.011 Z1.176 I0.24 J1.489
X118.26 Y-74.989 Z1.011 I-0.24 J-1.489
X118.739 Y-72.011 Z0.845 I0.24 J1.489
X118.26 Y-74.989 Z0.68 I-0.24 J-1.489
X118.739 Y-72.011 Z0.515 I0.24 J1.489
X118.26 Y-74.989 Z0.349 I-0.24 J-1.489
X118.739 Y-72.011 Z0.184 I0.24 J1.489
X118.26 Y-74.989 Z0.018 I-0.24 J-1.489
X118.739 Y-72.011 Z-0.147 I0.24 J1.489
X118.26 Y-74.989 Z-0.313 I-0.24 J-1.489
X118.739 Y-72.011 Z-0.478 I0.24 J1.489
X118.26 Y-74.989 Z-0.644 I-0.24 J-1.489
X118.739 Y-72.011 Z-0.809 I0.24 J1.489
X118.26 Y-74.989 Z-0.974 I-0.24 J-1.489
X118.739 Y-72.011 Z-1.14 I0.24 J1.489
X118.26 Y-74.989 Z-1.305 I-0.24 J-1.489
X118.739 Y-72.011 Z-1.471 I0.24 J1.489
X118.26 Y-74.989 Z-1.636 I-0.24 J-1.489
X118.739 Y-72.011 Z-1.802 I0.24 J1.489
X118.26 Y-74.989 Z-1.967 I-0.24 J-1.489
X118.739 Y-72.011 Z-2.133 I0.24 J1.489
X118.26 Y-74.989 Z-2.298 I-0.24 J-1.489
X118.739 Y-72.011 Z-2.464 I0.24 J1.489
X118.26 Y-74.989 Z-2.629 I-0.24 J-1.489
X118.739 Y-72.011 Z-2.794 I0.24 J1.489
X118.26 Y-74.989 Z-2.96 I-0.24 J-1.489
X118.739 Y-72.011 Z-3.125 I0.24 J1.489
X118.26 Y-74.989 Z-3.291 I-0.24 J-1.489
X118.739 Y-72.011 Z-3.456 I0.24 J1.489
X118.26 Y-74.989 Z-3.622 I-0.24 J-1.489
X118.739 Y-72.011 Z-3.787 I0.24 J1.489
X118.26 Y-74.989 Z-3.953 I-0.24 J-1.489
X118.739 Y-72.011 Z-4.118 I0.24 J1.489
X118.26 Y-74.989 Z-4.284 I-0.24 J-1.489
X118.739 Y-72.011 Z-4.449 I0.24 J1.489
X118.26 Y-74.989 Z-4.614 I-0.24 J-1.489
X118.739 Y-72.011 Z-4.78 I0.24 J1.489
X118.26 Y-74.989 Z-4.945 I-0.24 J-1.489
X118.739 Y-72.011 Z-5.111 I0.24 J1.489
X118.26 Y-74.989 Z-5.276 I-0.24 J-1.489
X118.739 Y-72.011 Z-5.442 I0.24 J1.489
X118.26 Y-74.989 Z-5.607 I-0.24 J-1.489
X118.739 Y-72.011 Z-5.773 I0.24 J1.489
X118.26 Y-74.989 Z-5.938 I-0.24 J-1.489
X118.739 Y-72.011 Z-6.103 I0.24 J1.489
X118.26 Y-74.989 Z-6.269 I-0.24 J-1.489
X118.739 Y-72.011 Z-6.434 I0.24 J1.489
X118.26 Y-74.989 Z-6.6 I-0.24 J-1.489
X118.739 Y-72.011 Z-6.765 I0.24 J1.489
X118.26 Y-74.989 Z-6.931 I-0.24 J-1.489
X118.739 Y-72.011 Z-7.096 I0.24 J1.489
X118.26 Y-74.989 Z-7.262 I-0.24 J-1.489
X118.739 Y-72.011 Z-7.427 I0.24 J1.489
X118.26 Y-74.989 Z-7.593 I-0.24 J-1.489
X118.739 Y-72.011 Z-7.758 I0.24 J1.489
X118.26 Y-74.989 Z-7.923 I-0.24 J-1.489
X118.739 Y-72.011 Z-8.089 I0.24 J1.489
X118.26 Y-74.989 Z-8.254 I-0.24 J-1.489
X118.739 Y-72.011 Z-8.42 I0.24 J1.489
X118.26 Y-74.989 Z-8.585 I-0.24 J-1.489
X118.739 Y-72.011 Z-8.751 I0.24 J1.489
X118.26 Y-74.989 Z-8.916 I-0.24 J-1.489
X118.739 Y-72.011 Z-9.082 I0.24 J1.489
X118.26 Y-74.989 Z-9.247 I-0.24 J-1.489
X118.739 Y-72.011 Z-9.413 I0.24 J1.489
X118.26 Y-74.989 Z-9.578 I-0.24 J-1.489
X118.739 Y-72.011 Z-9.743 I0.24 J1.489
X118.26 Y-74.989 Z-9.909 I-0.24 J-1.489
X120.008 Y-73.5 Z-10 I0.24 J1.489
X116.992 I-1.508
X120.008 I1.508
G1 X120.027 Y-72.762 F1000
X120.049 Y-72.672
X120.064 Y-72.523
X120.052 Y-72.374
X120.016 Y-72.228
X119.961 Y-72.088
X119.89 Y-71.957
X119.804 Y-71.834
X119.706 Y-71.72
X119.597 Y-71.617
X119.48 Y-71.524
X119.354 Y-71.442
X119.222 Y-71.371
X119.083 Y-71.31
X118.937 Y-71.26
X118.783 Y-71.221
X118.623 Y-71.193
X118.458 Y-71.178
X118.289 Y-71.177
X118.118 Y-71.189
X117.946 Y-71.215
X117.775 Y-71.256
X117.605 Y-71.31
X117.439 Y-71.379
X117.277 Y-71.462
X117.122 Y-71.558
X116.973 Y-71.667
X116.833 Y-71.788
X116.702 Y-71.921
X116.582 Y-72.065
X116.473 Y-72.219
X116.377 Y-72.381
X116.293 Y-72.552
X116.223 Y-72.728
X116.168 Y-72.911
X116.128 Y-73.097
X116.102 Y-73.287
X116.092 Y-73.479
X116.097 Y-73.671
X116.117 Y-73.862
X116.153 Y-74.051
X116.204 Y-74.237
X116.27 Y-74.418
X116.35 Y-74.593
X116.444 Y-74.762
X116.551 Y-74.923
X116.671 Y-75.074
X116.803 Y-75.216
X116.946 Y-75.346
X117.099 Y-75.465
X117.261 Y-75.571
X117.431 Y-75.664
X117.608 Y-75.743
X117.79 Y-75.807
X117.978 Y-75.857
X118.168 Y-75.891
X118.361 Y-75.91
X118.555 Y-75.914
X118.748 Y-75.901
X118.94 Y-75.874
X119.129 Y-75.831
X119.314 Y-75.773
X119.494 Y-75.7
X119.668 Y-75.613
X119.833 Y-75.513
X119.991 Y-75.399
X120.138 Y-75.274
X120.275 Y-75.136
X120.401 Y-74.989
X120.514 Y-74.831
X120.619 Y-74.659
X120.73 Y-74.436
X120.877 Y-74.072
X120.984 Y-73.728
X121.048 Y-73.446
X121.085 Y-73.19
X121.09 Y-73.107
Y-73.015
X121.078 Y-72.924
X121.056 Y-72.834
X120.937 Y-72.469
X120.918 Y-72.419
X120.852 Y-72.301
X120.659 Y-71.966
X120.643 Y-71.943
X120.624 Y-71.919
X120.365 Y-71.631
X120.247 Y-71.511
X119.912 Y-71.267
X119.828 Y-71.207
X119.744 Y-71.167
X119.409 Y-71.018
X119.325 Y-70.982
X119.234 Y-70.96
X118.822 Y-70.873
X118.78 Y-70.866
X118.738 Y-70.864
X118.403
X118.235 Y-70.865
X118.067 Y-70.896
X117.732 Y-70.967
X117.69 Y-70.978
X117.648 Y-70.993
X117.229 Y-71.179
X117.187 Y-71.2
X117.145 Y-71.225
X116.818 Y-71.463
X116.726 Y-71.533
X116.635 Y-71.631
X116.391 Y-71.902
X116.363 Y-71.934
X116.341 Y-71.966
X116.099 Y-72.385
X116.079 Y-72.427
X116.063 Y-72.469
X115.954 Y-72.804
X115.905 Y-72.972
X115.869 Y-73.307
X115.852 Y-73.475
X115.864 Y-73.643
X115.899 Y-73.978
X115.912 Y-74.062
X115.938 Y-74.146
X116.056 Y-74.508
X116.081 Y-74.578
X116.119 Y-74.649
X116.346 Y-75.041
X116.391 Y-75.098
X116.59 Y-75.319
X116.726 Y-75.467
X116.75 Y-75.487
X117.145 Y-75.775
X117.187 Y-75.801
X117.233 Y-75.822
X117.609 Y-75.99
X117.671 Y-76.016
X117.732 Y-76.033
X118.067 Y-76.104
X118.235 Y-76.135
X118.403 Y-76.136
X118.738
X118.78 Y-76.134
X118.822 Y-76.127
X119.241 Y-76.038
X119.316 Y-76.02
X119.391 Y-75.99
X119.767 Y-75.822
X119.84 Y-75.785
X120.251 Y-75.487
X120.296 Y-75.445
X120.582 Y-75.128
X120.643 Y-75.056
X120.688 Y-74.984
X120.881 Y-74.649
X120.918 Y-74.583
X120.953 Y-74.481
X121.085 Y-74.074
X121.101 Y-73.978
X121.136 Y-73.643
X121.148 Y-73.475
X121.095 Y-72.972
X121.085 Y-72.926
X121.056 Y-72.834
G3 X120.679 Y-72.635 I-0.299 J-0.108
G1 X120.631 Y-72.661 Z-9.995
X120.585 Y-72.686 Z-9.981
X120.541 Y-72.709 Z-9.958
X120.514 Y-72.751 Z-9.922
X120.492 Y-72.786 Z-9.878
X120.474 Y-72.813 Z-9.827
X120.462 Y-72.831 Z-9.771
X120.456 Y-72.841 Z-9.711
Y-72.842 Z-9.682
G0 Z5
X118.739 Y-22.011
Z2.5
G3 X118.26 Y-24.989 Z2.335 I-0.24 J-1.489 F333.3
X118.739 Y-22.011 Z2.169 I0.24 J1.489
X118.26 Y-24.989 Z2.004 I-0.24 J-1.489
X118.739 Y-22.011 Z1.838 I0.24 J1.489
X118.26 Y-24.989 Z1.673 I-0.24 J-1.489
X118.739 Y-22.011 Z1.507 I0.24 J1.489
X118.26 Y-24.989 Z1.342 I-0.24 J-1.489
X118.739 Y-22.011 Z1.176 I0.24 J1.489
X118.26 Y-24.989 Z1.011 I-0.24 J-1.489
X118.739 Y-22.011 Z0.845 I0.24 J1.489
X118.26 Y-24.989 Z0.68 I-0.24 J-1.489
X118.739 Y-22.011 Z0.515 I0.24 J1.489
X118.26 Y-24.989 Z0.349 I-0.24 J-1.489
X118.739 Y-22.011 Z0.184 I0.24 J1.489
X118.26 Y-24.989 Z0.018 I-0.24 J-1.489
X118.739 Y-22.011 Z-0.147 I0.24 J1.489
X118.26 Y-24.989 Z-0.313 I-0.24 J-1.489
X118.739 Y-22.011 Z-0.478 I0.24 J1.489
X118.26 Y-24.989 Z-0.644 I-0.24 J-1.489
X118.739 Y-22.011 Z-0.809 I0.24 J1.489
X118.26 Y-24.989 Z-0.974 I-0.24 J-1.489
X118.739 Y-22.011 Z-1.14 I0.24 J1.489
X118.26 Y-24.989 Z-1.305 I-0.24 J-1.489
X118.739 Y-22.011 Z-1.471 I0.24 J1.489
X118.26 Y-24.989 Z-1.636 I-0.24 J-1.489
X118.739 Y-22.011 Z-1.802 I0.24 J1.489
X118.26 Y-24.989 Z-1.967 I-0.24 J-1.489
X118.739 Y-22.011 Z-2.133 I0.24 J1.489
X118.26 Y-24.989 Z-2.298 I-0.24 J-1.489
X118.739 Y-22.011 Z-2.464 I0.24 J1.489
X118.26 Y-24.989 Z-2.629 I-0.24 J-1.489
X118.739 Y-22.011 Z-2.794 I0.24 J1.489
X118.26 Y-24.989 Z-2.96 I-0.24 J-1.489
X118.739 Y-22.011 Z-3.125 I0.24 J1.489
X118.26 Y-24.989 Z-3.291 I-0.24 J-1.489
X118.739 Y-22.011 Z-3.456 I0.24 J1.489
X118.26 Y-24.989 Z-3.622 I-0.24 J-1.489
X118.739 Y-22.011 Z-3.787 I0.24 J1.489
X118.26 Y-24.989 Z-3.953 I-0.24 J-1.489
X118.739 Y-22.011 Z-4.118 I0.24 J1.489
X118.26 Y-24.989 Z-4.284 I-0.24 J-1.489
X118.739 Y-22.011 Z-4.449 I0.24 J1.489
X118.26 Y-24.989 Z-4.614 I-0.24 J-1.489
X118.739 Y-22.011 Z-4.78 I0.24 J1.489
X118.26 Y-24.989 Z-4.945 I-0.24 J-1.489
X118.739 Y-22.011 Z-5.111 I0.24 J1.489
X118.26 Y-24.989 Z-5.276 I-0.24 J-1.489
X118.739 Y-22.011 Z-5.442 I0.24 J1.489
X118.26 Y-24.989 Z-5.607 I-0.24 J-1.489
X118.739 Y-22.011 Z-5.773 I0.24 J1.489
X118.26 Y-24.989 Z-5.938 I-0.24 J-1.489
X118.739 Y-22.011 Z-6.103 I0.24 J1.489
X118.26 Y-24.989 Z-6.269 I-0.24 J-1.489
X118.739 Y-22.011 Z-6.434 I0.24 J1.489
X118.26 Y-24.989 Z-6.6 I-0.24 J-1.489
X118.739 Y-22.011 Z-6.765 I0.24 J1.489
X118.26 Y-24.989 Z-6.931 I-0.24 J-1.489
X118.739 Y-22.011 Z-7.096 I0.24 J1.489
X118.26 Y-24.989 Z-7.262 I-0.24 J-1.489
X118.739 Y-22.011 Z-7.427 I0.24 J1.489
X118.26 Y-24.989 Z-7.593 I-0.24 J-1.489
X118.739 Y-22.011 Z-7.758 I0.24 J1.489
X118.26 Y-24.989 Z-7.923 I-0.24 J-1.489
X118.739 Y-22.011 Z-8.089 I0.24 J1.489
X118.26 Y-24.989 Z-8.254 I-0.24 J-1.489
X118.739 Y-22.011 Z-8.42 I0.24 J1.489
X118.26 Y-24.989 Z-8.585 I-0.24 J-1.489
X118.739 Y-22.011 Z-8.751 I0.24 J1.489
X118.26 Y-24.989 Z-8.916 I-0.24 J-1.489
X118.739 Y-22.011 Z-9.082 I0.24 J1.489
X118.26 Y-24.989 Z-9.247 I-0.24 J-1.489
X118.739 Y-22.011 Z-9.413 I0.24 J1.489
X118.26 Y-24.989 Z-9.578 I-0.24 J-1.489
X118.739 Y-22.011 Z-9.743 I0.24 J1.489
X118.26 Y-24.989 Z-9.909 I-0.24 J-1.489
X120.008 Y-23.5 Z-10 I0.24 J1.489
X116.992 I-1.508
X120.008 I1.508
G1 X120.027 Y-22.762 F1000
X120.049 Y-22.673
X120.065 Y-22.523
X120.052 Y-22.374
X120.016 Y-22.228
X119.962 Y-22.089
X119.89 Y-21.957
X119.804 Y-21.834
X119.706 Y-21.72
X119.597 Y-21.617
X119.48 Y-21.524
X119.354 Y-21.442
X119.222 Y-21.371
X119.083 Y-21.311
X118.937 Y-21.26
X118.783 Y-21.221
X118.623 Y-21.193
X118.458 Y-21.179
X118.289 Y-21.177
X118.118 Y-21.189
X117.946 Y-21.215
X117.775 Y-21.256
X117.605 Y-21.31
X117.439 Y-21.379
X117.277 Y-21.462
X117.122 Y-21.558
X116.973 Y-21.667
X116.833 Y-21.789
X116.702 Y-21.922
X116.582 Y-22.065
X116.473 Y-22.219
X116.377 Y-22.381
X116.293 Y-22.552
X116.224 Y-22.729
X116.168 Y-22.911
X116.128 Y-23.098
X116.102 Y-23.287
X116.092 Y-23.479
X116.097 Y-23.671
X116.117 Y-23.862
X116.153 Y-24.051
X116.204 Y-24.237
X116.27 Y-24.418
X116.35 Y-24.594
X116.444 Y-24.762
X116.552 Y-24.923
X116.672 Y-25.074
X116.803 Y-25.216
X116.946 Y-25.347
X117.099 Y-25.465
X117.261 Y-25.571
X117.431 Y-25.664
X117.608 Y-25.743
X117.79 Y-25.807
X117.978 Y-25.857
X118.168 Y-25.891
X118.361 Y-25.91
X118.555 Y-25.914
X118.749 Y-25.902
X118.94 Y-25.874
X119.13 Y-25.831
X119.315 Y-25.773
X119.494 Y-25.7
X119.668 Y-25.613
X119.834 Y-25.513
X119.991 Y-25.399
X120.138 Y-25.274
X120.275 Y-25.136
X120.401 Y-24.989
X120.514 Y-24.831
X120.619 Y-24.659
X120.73 Y-24.436
X120.877 Y-24.072
X120.984 Y-23.729
X121.048 Y-23.446
X121.085 Y-23.191
X121.09 Y-23.107
Y-23.014
X121.078 Y-22.922
X121.055 Y-22.832
X120.95 Y-22.508
X120.918 Y-22.418
X120.875 Y-22.34
X120.681 Y-22.005
X120.64 Y-21.939
X120.551 Y-21.837
X120.4 Y-21.67
X120.247 Y-21.511
X119.912 Y-21.267
X119.828 Y-21.208
X119.742 Y-21.167
X119.366 Y-20.999
X119.303 Y-20.976
X119.241 Y-20.962
X118.822 Y-20.873
X118.78 Y-20.866
X118.738 Y-20.864
X118.235
X118.067 Y-20.896
X117.732 Y-20.967
X117.683 Y-20.98
X117.634 Y-20.999
X117.229 Y-21.179
X117.187 Y-21.199
X117.145 Y-21.225
X116.765 Y-21.502
X116.726 Y-21.533
X116.559 Y-21.716
X116.391 Y-21.902
X116.35 Y-21.954
X116.319 Y-22.005
X116.125 Y-22.34
X116.083 Y-22.416
X116.05 Y-22.508
X115.915 Y-22.927
X115.901 Y-23.011
X115.865 Y-23.346
X115.852 Y-23.514
X115.868 Y-23.682
X115.903 Y-24.017
X115.911 Y-24.059
X115.923 Y-24.101
X116.059 Y-24.52
X116.074 Y-24.562
X116.093 Y-24.604
X116.335 Y-25.023
X116.359 Y-25.06
X116.391 Y-25.098
X116.625 Y-25.358
X116.726 Y-25.467
X116.803 Y-25.526
X117.145 Y-25.775
X117.187 Y-25.8
X117.229 Y-25.821
X117.639 Y-26.003
X117.677 Y-26.018
X117.714 Y-26.029
X118.067 Y-26.104
X118.235 Y-26.135
X118.403 Y-26.136
X118.738
X118.78 Y-26.134
X118.822 Y-26.127
X119.286 Y-26.029
X119.317 Y-26.02
X119.347 Y-26.009
X119.744 Y-25.833
X119.828 Y-25.793
X119.912 Y-25.733
X120.247 Y-25.489
X120.281 Y-25.459
X120.315 Y-25.424
X120.629 Y-25.075
X120.665 Y-25.023
X120.859 Y-24.687
X120.918 Y-24.581
X120.941 Y-24.52
X121.085 Y-24.074
X121.092 Y-24.045
X121.097 Y-24.017
X121.132 Y-23.682
X121.148 Y-23.514
X121.135 Y-23.346
X121.095 Y-22.969
X121.085 Y-22.927
X121.055 Y-22.832
G3 X120.678 Y-22.634 I-0.298 J-0.109
G1 X120.63 Y-22.66 Z-9.995
X120.584 Y-22.685 Z-9.981
X120.54 Y-22.709 Z-9.958
X120.514 Y-22.75 Z-9.922
X120.491 Y-22.785 Z-9.878
X120.474 Y-22.813 Z-9.827
X120.462 Y-22.831 Z-9.771
X120.456 Y-22.84 Z-9.711
X120.455 Y-22.842 Z-9.682
G0 Z5
X168.74 Y-172.01
Z2.5
G3 X168.261 Y-174.988 Z2.335 I-0.24 J-1.489 F333.3
X168.74 Y-172.01 Z2.169 I0.24 J1.489
X168.261 Y-174.988 Z2.004 I-0.24 J-1.489
X168.74 Y-172.01 Z1.838 I0.24 J1.489
X168.261 Y-174.988 Z1.673 I-0.24 J-1.489
X168.74 Y-172.01 Z1.507 I0.24 J1.489
X168.261 Y-174.988 Z1.342 I-0.24 J-1.489
X168.74 Y-172.01 Z1.176 I0.24 J1.489
X168.261 Y-174.988 Z1.011 I-0.24 J-1.489
X168.74 Y-172.01 Z0.845 I0.24 J1.489
X168.261 Y-174.988 Z0.68 I-0.24 J-1.489
X168.74 Y-172.01 Z0.515 I0.24 J1.489
X168.261 Y-174.988 Z0.349 I-0.24 J-1.489
X168.74 Y-172.01 Z0.184 I0.24 J1.489
X168.261 Y-174.988 Z0.018 I-0.24 J-1.489
X168.74 Y-172.01 Z-0.147 I0.24 J1.489
X168.261 Y-174.988 Z-0.313 I-0.24 J-1.489
X168.74 Y-172.01 Z-0.478 I0.24 J1.489
X168.261 Y-174.988 Z-0.644 I-0.24 J-1.489
X168.74 Y-172.01 Z-0.809 I0.24 J1.489
X168.261 Y-174.988 Z-0.974 I-0.24 J-1.489
X168.74 Y-172.01 Z-1.14 I0.24 J1.489
X168.261 Y-174.988 Z-1.305 I-0.24 J-1.489
X168.74 Y-172.01 Z-1.471 I0.24 J1.489
X168.261 Y-174.988 Z-1.636 I-0.24 J-1.489
X168.74 Y-172.01 Z-1.802 I0.24 J1.489
X168.261 Y-174.988 Z-1.967 I-0.24 J-1.489
X168.74 Y-172.01 Z-2.133 I0.24 J1.489
X168.261 Y-174.988 Z-2.298 I-0.24 J-1.489
X168.74 Y-172.01 Z-2.464 I0.24 J1.489
X168.261 Y-174.988 Z-2.629 I-0.24 J-1.489
X168.74 Y-172.01 Z-2.794 I0.24 J1.489
X168.261 Y-174.988 Z-2.96 I-0.24 J-1.489
X168.74 Y-172.01 Z-3.125 I0.24 J1.489
X168.261 Y-174.988 Z-3.291 I-0.24 J-1.489
X168.74 Y-172.01 Z-3.456 I0.24 J1.489
X168.261 Y-174.988 Z-3.622 I-0.24 J-1.489
X168.74 Y-172.01 Z-3.787 I0.24 J1.489
X168.261 Y-174.988 Z-3.953 I-0.24 J-1.489
X168.74 Y-172.01 Z-4.118 I0.24 J1.489
X168.261 Y-174.988 Z-4.284 I-0.24 J-1.489
X168.74 Y-172.01 Z-4.449 I0.24 J1.489
X168.261 Y-174.988 Z-4.614 I-0.24 J-1.489
X168.74 Y-172.01 Z-4.78 I0.24 J1.489
X168.261 Y-174.988 Z-4.945 I-0.24 J-1.489
X168.74 Y-172.01 Z-5.111 I0.24 J1.489
X168.261 Y-174.988 Z-5.276 I-0.24 J-1.489
X168.74 Y-172.01 Z-5.442 I0.24 J1.489
X168.261 Y-174.988 Z-5.607 I-0.24 J-1.489
X168.74 Y-172.01 Z-5.773 I0.24 J1.489
X168.261 Y-174.988 Z-5.938 I-0.24 J-1.489
X168.74 Y-172.01 Z-6.103 I0.24 J1.489
X168.261 Y-174.988 Z-6.269 I-0.24 J-1.489
X168.74 Y-172.01 Z-6.434 I0.24 J1.489
X168.261 Y-174.988 Z-6.6 I-0.24 J-1.489
X168.74 Y-172.01 Z-6.765 I0.24 J1.489
X168.261 Y-174.988 Z-6.931 I-0.24 J-1.489
X168.74 Y-172.01 Z-7.096 I0.24 J1.489
X168.261 Y-174.988 Z-7.262 I-0.24 J-1.489
X168.74 Y-172.01 Z-7.427 I0.24 J1.489
X168.261 Y-174.988 Z-7.593 I-0.24 J-1.489
X168.74 Y-172.01 Z-7.758 I0.24 J1.489
X168.261 Y-174.988 Z-7.923 I-0.24 J-1.489
X168.74 Y-172.01 Z-8.089 I0.24 J1.489
X168.261 Y-174.988 Z-8.254 I-0.24 J-1.489
X168.74 Y-172.01 Z-8.42 I0.24 J1.489
X168.261 Y-174.988 Z-8.585 I-0.24 J-1.489
X168.74 Y-172.01 Z-8.751 I0.24 J1.489
X168.261 Y-174.988 Z-8.916 I-0.24 J-1.489
X168.74 Y-172.01 Z-9.082 I0.24 J1.489
X168.261 Y-174.988 Z-9.247 I-0.24 J-1.489
X168.74 Y-172.01 Z-9.413 I0.24 J1.489
X168.261 Y-174.988 Z-9.578 I-0.24 J-1.489
X168.74 Y-172.01 Z-9.743 I0.24 J1.489
X168.261 Y-174.988 Z-9.909 I-0.24 J-1.489
X170.008 Y-173.499 Z-10 I0.24 J1.489
X166.992 I-1.508
X170.008 I1.508
G1 X170.028 Y-172.762 F1000
X170.05 Y-172.672
X170.065 Y-172.523
X170.052 Y-172.374
X170.017 Y-172.228
X169.962 Y-172.088
X169.89 Y-171.956
X169.805 Y-171.833
X169.707 Y-171.72
X169.598 Y-171.617
X169.48 Y-171.524
X169.354 Y-171.442
X169.222 Y-171.371
X169.084 Y-171.31
X168.937 Y-171.26
X168.783 Y-171.221
X168.623 Y-171.193
X168.458 Y-171.178
X168.289 Y-171.177
X168.118 Y-171.189
X167.947 Y-171.215
X167.775 Y-171.255
X167.606 Y-171.31
X167.439 Y-171.379
X167.278 Y-171.462
X167.122 Y-171.558
X166.973 Y-171.667
X166.833 Y-171.788
X166.702 Y-171.921
X166.582 Y-172.065
X166.473 Y-172.219
X166.377 Y-172.381
X166.294 Y-172.551
X166.224 Y-172.728
X166.169 Y-172.911
X166.128 Y-173.097
X166.102 Y-173.287
X166.092 Y-173.478
X166.097 Y-173.67
X166.118 Y-173.862
X166.154 Y-174.051
X166.205 Y-174.236
X166.27 Y-174.418
X166.351 Y-174.593
X166.445 Y-174.762
X166.552 Y-174.923
X166.672 Y-175.074
X166.804 Y-175.216
X166.946 Y-175.346
X167.099 Y-175.465
X167.261 Y-175.571
X167.431 Y-175.664
X167.608 Y-175.743
X167.791 Y-175.807
X167.978 Y-175.857
X168.169 Y-175.891
X168.362 Y-175.91
X168.556 Y-175.913
X168.749 Y-175.901
X168.941 Y-175.874
X169.13 Y-175.831
X169.315 Y-175.773
X169.495 Y-175.7
X169.668 Y-175.613
X169.834 Y-175.513
X169.991 Y-175.399
X170.139 Y-175.273
X170.276 Y-175.136
X170.402 Y-174.988
X170.515 Y-174.831
X170.619 Y-174.658
X170.73 Y-174.436
X170.877 Y-174.072
X170.985 Y-173.728
X171.049 Y-173.446
X171.085 Y-173.19
X171.09 Y-173.109
Y-173.016
X171.079 Y-172.924
X171.055 Y-172.834
X170.966 Y-172.559
X170.904 Y-172.391
X170.662 Y-171.971
X170.633 Y-171.93
X170.542 Y-171.828
X170.294 Y-171.553
X170.207 Y-171.481
X169.843 Y-171.218
X169.704 Y-171.15
X169.368 Y-171.001
X169.327 Y-170.983
X169.285 Y-170.971
X168.865 Y-170.882
X168.782 Y-170.866
X168.698 Y-170.863
X168.363
X168.195 Y-170.87
X167.86 Y-170.941
X167.692 Y-170.978
X167.521 Y-171.05
X167.357 Y-171.123
X167.189 Y-171.199
X167.157 Y-171.218
X166.78 Y-171.491
X166.743 Y-171.519
X166.706 Y-171.553
X166.403 Y-171.888
X166.351 Y-171.952
X166.289 Y-172.056
X166.096 Y-172.391
X166.034 Y-172.559
X165.925 Y-172.894
X165.904 Y-172.978
X165.852 Y-173.481
X165.856 Y-173.565
X165.891 Y-173.9
X165.913 Y-174.068
X166.022 Y-174.403
X166.078 Y-174.571
X166.183 Y-174.76
X166.268 Y-174.906
X166.351 Y-175.048
X166.37 Y-175.074
X166.686 Y-175.425
X166.728 Y-175.468
X166.77 Y-175.502
X167.104 Y-175.744
X167.189 Y-175.801
X167.435 Y-175.912
X167.524 Y-175.952
X167.692 Y-176.023
X167.955 Y-176.08
X168.195 Y-176.13
X168.363 Y-176.136
X168.698
X168.782 Y-176.134
X168.865 Y-176.118
X169.285 Y-176.029
X169.327 Y-176.016
X169.368 Y-175.999
X169.788 Y-175.813
X169.829 Y-175.791
X169.871 Y-175.762
X170.207 Y-175.519
X170.268 Y-175.472
X170.329 Y-175.409
X170.542 Y-175.172
X170.629 Y-175.074
X170.71 Y-174.946
X170.877 Y-174.655
X170.922 Y-174.571
X170.978 Y-174.403
X171.087 Y-174.068
X171.109 Y-173.9
X171.144 Y-173.565
X171.148 Y-173.481
X171.096 Y-172.978
X171.075 Y-172.894
X171.055 Y-172.834
G3 X170.678 Y-172.635 I-0.298 J-0.109
G1 X170.63 Y-172.661 Z-9.995
X170.584 Y-172.686 Z-9.981
X170.541 Y-172.71 Z-9.958
X170.514 Y-172.751 Z-9.922
X170.492 Y-172.786 Z-9.878
X170.474 Y-172.814 Z-9.827
X170.462 Y-172.832 Z-9.771
X170.456 Y-172.842 Z-9.711
Y-172.843 Z-9.682
G0 Z5
X168.739 Y-122.012
Z2.5
G3 X168.26 Y-124.99 Z2.335 I-0.24 J-1.489 F333.3
X168.739 Y-122.012 Z2.169 I0.24 J1.489
X168.26 Y-124.99 Z2.004 I-0.24 J-1.489
X168.739 Y-122.012 Z1.838 I0.24 J1.489
X168.26 Y-124.99 Z1.673 I-0.24 J-1.489
X168.739 Y-122.012 Z1.507 I0.24 J1.489
X168.26 Y-124.99 Z1.342 I-0.24 J-1.489
X168.739 Y-122.012 Z1.176 I0.24 J1.489
X168.26 Y-124.99 Z1.011 I-0.24 J-1.489
X168.739 Y-122.012 Z0.845 I0.24 J1.489
X168.26 Y-124.99 Z0.68 I-0.24 J-1.489
X168.739 Y-122.012 Z0.515 I0.24 J1.489
X168.26 Y-124.99 Z0.349 I-0.24 J-1.489
X168.739 Y-122.012 Z0.184 I0.24 J1.489
X168.26 Y-124.99 Z0.018 I-0.24 J-1.489
X168.739 Y-122.012 Z-0.147 I0.24 J1.489
X168.26 Y-124.99 Z-0.313 I-0.24 J-1.489
X168.739 Y-122.012 Z-0.478 I0.24 J1.489
X168.26 Y-124.99 Z-0.644 I-0.24 J-1.489
X168.739 Y-122.012 Z-0.809 I0.24 J1.489
X168.26 Y-124.99 Z-0.974 I-0.24 J-1.489
X168.739 Y-122.012 Z-1.14 I0.24 J1.489
X168.26 Y-124.99 Z-1.305 I-0.24 J-1.489
X168.739 Y-122.012 Z-1.471 I0.24 J1.489
X168.26 Y-124.99 Z-1.636 I-0.24 J-1.489
X168.739 Y-122.012 Z-1.802 I0.24 J1.489
X168.26 Y-124.99 Z-1.967 I-0.24 J-1.489
X168.739 Y-122.012 Z-2.133 I0.24 J1.489
X168.26 Y-124.99 Z-2.298 I-0.24 J-1.489
X168.739 Y-122.012 Z-2.464 I0.24 J1.489
X168.26 Y-124.99 Z-2.629 I-0.24 J-1.489
X168.739 Y-122.012 Z-2.794 I0.24 J1.489
X168.26 Y-124.99 Z-2.96 I-0.24 J-1.489
X168.739 Y-122.012 Z-3.125 I0.24 J1.489
X168.26 Y-124.99 Z-3.291 I-0.24 J-1.489
X168.739 Y-122.012 Z-3.456 I0.24 J1.489
X168.26 Y-124.99 Z-3.622 I-0.24 J-1.489
X168.739 Y-122.012 Z-3.787 I0.24 J1.489
X168.26 Y-124.99 Z-3.953 I-0.24 J-1.489
X168.739 Y-122.012 Z-4.118 I0.24 J1.489
X168.26 Y-124.99 Z-4.284 I-0.24 J-1.489
X168.739 Y-122.012 Z-4.449 I0.24 J1.489
X168.26 Y-124.99 Z-4.614 I-0.24 J-1.489
X168.739 Y-122.012 Z-4.78 I0.24 J1.489
X168.26 Y-124.99 Z-4.945 I-0.24 J-1.489
X168.739 Y-122.012 Z-5.111 I0.24 J1.489
X168.26 Y-124.99 Z-5.276 I-0.24 J-1.489
X168.739 Y-122.012 Z-5.442 I0.24 J1.489
X168.26 Y-124.99 Z-5.607 I-0.24 J-1.489
X168.739 Y-122.012 Z-5.773 I0.24 J1.489
X168.26 Y-124.99 Z-5.938 I-0.24 J-1.489
X168.739 Y-122.012 Z-6.103 I0.24 J1.489
X168.26 Y-124.99 Z-6.269 I-0.24 J-1.489
X168.739 Y-122.012 Z-6.434 I0.24 J1.489
X168.26 Y-124.99 Z-6.6 I-0.24 J-1.489
X168.739 Y-122.012 Z-6.765 I0.24 J1.489
X168.26 Y-124.99 Z-6.931 I-0.24 J-1.489
X168.739 Y-122.012 Z-7.096 I0.24 J1.489
X168.26 Y-124.99 Z-7.262 I-0.24 J-1.489
X168.739 Y-122.012 Z-7.427 I0.24 J1.489
X168.26 Y-124.99 Z-7.593 I-0.24 J-1.489
X168.739 Y-122.012 Z-7.758 I0.24 J1.489
X168.26 Y-124.99 Z-7.923 I-0.24 J-1.489
X168.739 Y-122.012 Z-8.089 I0.24 J1.489
X168.26 Y-124.99 Z-8.254 I-0.24 J-1.489
X168.739 Y-122.012 Z-8.42 I0.24 J1.489
X168.26 Y-124.99 Z-8.585 I-0.24 J-1.489
X168.739 Y-122.012 Z-8.751 I0.24 J1.489
X168.26 Y-124.99 Z-8.916 I-0.24 J-1.489
X168.739 Y-122.012 Z-9.082 I0.24 J1.489
X168.26 Y-124.99 Z-9.247 I-0.24 J-1.489
X168.739 Y-122.012 Z-9.413 I0.24 J1.489
X168.26 Y-124.99 Z-9.578 I-0.24 J-1.489
X168.739 Y-122.012 Z-9.743 I0.24 J1.489
X168.26 Y-124.99 Z-9.909 I-0.24 J-1.489
X170.008 Y-123.501 Z-10 I0.24 J1.489
X166.992 I-1.508
X170.008 I1.508
G1 X170.027 Y-122.763 F1000
X170.049 Y-122.674
X170.064 Y-122.524
X170.052 Y-122.375
X170.016 Y-122.229
X169.961 Y-122.09
X169.89 Y-121.958
X169.804 Y-121.835
X169.706 Y-121.721
X169.597 Y-121.618
X169.48 Y-121.525
X169.354 Y-121.443
X169.222 Y-121.372
X169.083 Y-121.312
X168.937 Y-121.261
X168.783 Y-121.222
X168.623 Y-121.194
X168.458 Y-121.179
X168.289 Y-121.178
X168.118 Y-121.19
X167.946 Y-121.216
X167.775 Y-121.257
X167.605 Y-121.311
X167.439 Y-121.38
X167.277 Y-121.463
X167.122 Y-121.559
X166.973 Y-121.668
X166.833 Y-121.789
X166.702 Y-121.922
X166.582 Y-122.066
X166.473 Y-122.22
X166.377 Y-122.382
X166.293 Y-122.553
X166.223 Y-122.73
X166.168 Y-122.912
X166.128 Y-123.099
X166.102 Y-123.288
X166.092 Y-123.48
X166.097 Y-123.672
X166.117 Y-123.863
X166.153 Y-124.052
X166.204 Y-124.238
X166.27 Y-124.419
X166.35 Y-124.594
X166.444 Y-124.763
X166.551 Y-124.924
X166.671 Y-125.075
X166.803 Y-125.217
X166.946 Y-125.347
X167.099 Y-125.466
X167.261 Y-125.572
X167.431 Y-125.665
X167.608 Y-125.744
X167.79 Y-125.808
X167.978 Y-125.858
X168.168 Y-125.892
X168.361 Y-125.911
X168.555 Y-125.915
X168.748 Y-125.902
X168.94 Y-125.875
X169.129 Y-125.832
X169.314 Y-125.774
X169.494 Y-125.701
X169.668 Y-125.614
X169.833 Y-125.514
X169.991 Y-125.4
X170.138 Y-125.275
X170.275 Y-125.137
X170.401 Y-124.99
X170.514 Y-124.832
X170.619 Y-124.66
X170.73 Y-124.437
X170.877 Y-124.073
X170.984 Y-123.73
X171.048 Y-123.447
X171.085 Y-123.191
X171.092 Y-123.075
X171.093 Y-123.028
X171.092 Y-122.98
X171.087 Y-122.934
X170.979 Y-122.598
X170.923 Y-122.43
X170.877 Y-122.345
X170.71 Y-122.054
X170.631 Y-121.927
X170.329 Y-121.592
X170.268 Y-121.528
X170.207 Y-121.481
X169.871 Y-121.238
X169.829 Y-121.209
X169.788 Y-121.187
X169.368 Y-121.001
X169.327 Y-120.984
X169.285 Y-120.971
X168.865 Y-120.882
X168.782 Y-120.866
X168.698 Y-120.864
X168.279
X168.237
X168.195 Y-120.87
X167.86 Y-120.941
X167.692 Y-120.978
X167.524 Y-121.048
X167.357 Y-121.123
X167.189 Y-121.199
X167.103 Y-121.257
X166.77 Y-121.498
X166.728 Y-121.531
X166.686 Y-121.575
X166.518 Y-121.761
X166.37 Y-121.927
X166.351 Y-121.953
X166.267 Y-122.095
X166.17 Y-122.263
X166.078 Y-122.43
X166.015 Y-122.616
X165.913 Y-122.933
X165.891 Y-123.101
X165.856 Y-123.436
X165.852 Y-123.52
X165.905 Y-124.023
X165.925 Y-124.107
X166.061 Y-124.526
X166.076 Y-124.568
X166.097 Y-124.61
X166.29 Y-124.945
X166.351 Y-125.048
X166.404 Y-125.113
X166.707 Y-125.448
X166.744 Y-125.482
X167.158 Y-125.783
X167.189 Y-125.801
X167.524 Y-125.952
X167.692 Y-126.022
X167.86 Y-126.059
X168.195 Y-126.13
X168.237 Y-126.136
X168.363 Y-126.137
X168.698
X168.78 Y-126.134
X168.865 Y-126.118
X169.285 Y-126.029
X169.327 Y-126.016
X169.368 Y-125.999
X169.704 Y-125.85
X169.841 Y-125.783
X169.871 Y-125.762
X170.25 Y-125.487
X170.293 Y-125.448
X170.596 Y-125.113
X170.632 Y-125.071
X170.662 Y-125.029
X170.903 Y-124.61
X170.923 Y-124.568
X170.939 Y-124.526
X171.075 Y-124.107
X171.095 Y-124.023
X171.148 Y-123.52
X171.144 Y-123.436
X171.109 Y-123.101
X171.087 Y-122.934
X171.064 Y-122.917
X171.006 Y-122.876 Z-9.992
X170.952 Y-122.837 Z-9.969
X170.903 Y-122.802 Z-9.931
X170.862 Y-122.772 Z-9.88
X170.831 Y-122.75 Z-9.82
X170.812 Y-122.737 Z-9.753
X170.806 Y-122.732 Z-9.682
G0 Z5
X168.739 Y-72.011
Z2.5
G3 X168.26 Y-74.989 Z2.335 I-0.24 J-1.489 F333.3
X168.739 Y-72.011 Z2.169 I0.24 J1.489
X168.26 Y-74.989 Z2.004 I-0.24 J-1.489
X168.739 Y-72.011 Z1.838 I0.24 J1.489
X168.26 Y-74.989 Z1.673 I-0.24 J-1.489
X168.739 Y-72.011 Z1.507 I0.24 J1.489
X168.26 Y-74.989 Z1.342 I-0.24 J-1.489
X168.739 Y-72.011 Z1.176 I0.24 J1.489
X168.26 Y-74.989 Z1.011 I-0.24 J-1.489
X168.739 Y-72.011 Z0.845 I0.24 J1.489
X168.26 Y-74.989 Z0.68 I-0.24 J-1.489
X168.739 Y-72.011 Z0.515 I0.24 J1.489
X168.26 Y-74.989 Z0.349 I-0.24 J-1.489
X168.739 Y-72.011 Z0.184 I0.24 J1.489
X168.26 Y-74.989 Z0.018 I-0.24 J-1.489
X168.739 Y-72.011 Z-0.147 I0.24 J1.489
X168.26 Y-74.989 Z-0.313 I-0.24 J-1.489
X168.739 Y-72.011 Z-0.478 I0.24 J1.489
X168.26 Y-74.989 Z-0.644 I-0.24 J-1.489
X168.739 Y-72.011 Z-0.809 I0.24 J1.489
X168.26 Y-74.989 Z-0.974 I-0.24 J-1.489
X168.739 Y-72.011 Z-1.14 I0.24 J1.489
X168.26 Y-74.989 Z-1.305 I-0.24 J-1.489
X168.739 Y-72.011 Z-1.471 I0.24 J1.489
X168.26 Y-74.989 Z-1.636 I-0.24 J-1.489
X168.739 Y-72.011 Z-1.802 I0.24 J1.489
X168.26 Y-74.989 Z-1.967 I-0.24 J-1.489
X168.739 Y-72.011 Z-2.133 I0.24 J1.489
X168.26 Y-74.989 Z-2.298 I-0.24 J-1.489
X168.739 Y-72.011 Z-2.464 I0.24 J1.489
X168.26 Y-74.989 Z-2.629 I-0.24 J-1.489
X168.739 Y-72.011 Z-2.794 I0.24 J1.489
X168.26 Y-74.989 Z-2.96 I-0.24 J-1.489
X168.739 Y-72.011 Z-3.125 I0.24 J1.489
X168.26 Y-74.989 Z-3.291 I-0.24 J-1.489
X168.739 Y-72.011 Z-3.456 I0.24 J1.489
X168.26 Y-74.989 Z-3.622 I-0.24 J-1.489
X168.739 Y-72.011 Z-3.787 I0.24 J1.489
X168.26 Y-74.989 Z-3.953 I-0.24 J-1.489
X168.739 Y-72.011 Z-4.118 I0.24 J1.489
X168.26 Y-74.989 Z-4.284 I-0.24 J-1.489
X168.739 Y-72.011 Z-4.449 I0.24 J1.489
X168.26 Y-74.989 Z-4.614 I-0.24 J-1.489
X168.739 Y-72.011 Z-4.78 I0.24 J1.489
X168.26 Y-74.989 Z-4.945 I-0.24 J-1.489
X168.739 Y-72.011 Z-5.111 I0.24 J1.489
X168.26 Y-74.989 Z-5.276 I-0.24 J-1.489
X168.739 Y-72.011 Z-5.442 I0.24 J1.489
X168.26 Y-74.989 Z-5.607 I-0.24 J-1.489
X168.739 Y-72.011 Z-5.773 I0.24 J1.489
X168.26 Y-74.989 Z-5.938 I-0.24 J-1.489
X168.739 Y-72.011 Z-6.103 I0.24 J1.489
X168.26 Y-74.989 Z-6.269 I-0.24 J-1.489
X168.739 Y-72.011 Z-6.434 I0.24 J1.489
X168.26 Y-74.989 Z-6.6 I-0.24 J-1.489
X168.739 Y-72.011 Z-6.765 I0.24 J1.489
X168.26 Y-74.989 Z-6.931 I-0.24 J-1.489
X168.739 Y-72.011 Z-7.096 I0.24 J1.489
X168.26 Y-74.989 Z-7.262 I-0.24 J-1.489
X168.739 Y-72.011 Z-7.427 I0.24 J1.489
X168.26 Y-74.989 Z-7.593 I-0.24 J-1.489
X168.739 Y-72.011 Z-7.758 I0.24 J1.489
X168.26 Y-74.989 Z-7.923 I-0.24 J-1.489
X168.739 Y-72.011 Z-8.089 I0.24 J1.489
X168.26 Y-74.989 Z-8.254 I-0.24 J-1.489
X168.739 Y-72.011 Z-8.42 I0.24 J1.489
X168.26 Y-74.989 Z-8.585 I-0.24 J-1.489
X168.739 Y-72.011 Z-8.751 I0.24 J1.489
X168.26 Y-74.989 Z-8.916 I-0.24 J-1.489
X168.739 Y-72.011 Z-9.082 I0.24 J1.489
X168.26 Y-74.989 Z-9.247 I-0.24 J-1.489
X168.739 Y-72.011 Z-9.413 I0.24 J1.489
X168.26 Y-74.989 Z-9.578 I-0.24 J-1.489
X168.739 Y-72.011 Z-9.743 I0.24 J1.489
X168.26 Y-74.989 Z-9.909 I-0.24 J-1.489
X170.008 Y-73.5 Z-10 I0.24 J1.489
X166.992 I-1.508
X170.008 I1.508
G1 X170.027 Y-72.762 F1000
X170.049 Y-72.673
X170.064 Y-72.524
X170.052 Y-72.374
X170.016 Y-72.228
X169.961 Y-72.089
X169.89 Y-71.957
X169.804 Y-71.834
X169.706 Y-71.72
X169.597 Y-71.617
X169.479 Y-71.524
X169.354 Y-71.442
X169.222 Y-71.371
X169.083 Y-71.311
X168.936 Y-71.26
X168.783 Y-71.221
X168.622 Y-71.193
X168.457 Y-71.179
X168.289 Y-71.177
X168.118 Y-71.189
X167.946 Y-71.215
X167.775 Y-71.256
X167.605 Y-71.311
X167.439 Y-71.379
X167.277 Y-71.462
X167.121 Y-71.558
X166.973 Y-71.667
X166.833 Y-71.789
X166.702 Y-71.922
X166.582 Y-72.066
X166.473 Y-72.219
X166.376 Y-72.382
X166.293 Y-72.552
X166.223 Y-72.729
X166.168 Y-72.911
X166.127 Y-73.098
X166.102 Y-73.287
X166.092 Y-73.479
X166.097 Y-73.671
X166.117 Y-73.862
X166.153 Y-74.051
X166.204 Y-74.237
X166.27 Y-74.418
X166.35 Y-74.594
X166.444 Y-74.762
X166.551 Y-74.923
X166.671 Y-75.075
X166.803 Y-75.216
X166.946 Y-75.347
X167.099 Y-75.465
X167.261 Y-75.571
X167.431 Y-75.664
X167.608 Y-75.743
X167.79 Y-75.808
X167.978 Y-75.857
X168.168 Y-75.891
X168.361 Y-75.91
X168.555 Y-75.914
X168.748 Y-75.902
X168.94 Y-75.874
X169.129 Y-75.831
X169.314 Y-75.773
X169.494 Y-75.7
X169.667 Y-75.614
X169.833 Y-75.513
X169.991 Y-75.4
X170.138 Y-75.274
X170.275 Y-75.137
X170.401 Y-74.989
X170.514 Y-74.832
X170.619 Y-74.659
X170.73 Y-74.436
X170.877 Y-74.072
X170.984 Y-73.729
X171.048 Y-73.446
X171.085 Y-73.191
X171.09 Y-73.11
Y-73.025
X171.08 Y-72.94
X171.061 Y-72.856
X171.045 Y-72.801
X170.937 Y-72.469
X170.912 Y-72.407
X170.755 Y-72.134
X170.659 Y-71.966
X170.542 Y-71.828
X170.286 Y-71.544
X170.207 Y-71.481
X169.871 Y-71.237
X169.829 Y-71.209
X169.788 Y-71.187
X169.368 Y-71
X169.301 Y-70.975
X168.865 Y-70.882
X168.782 Y-70.866
X168.698 Y-70.864
X168.279
X168.237
X168.195 Y-70.87
X167.766 Y-70.96
X167.692 Y-70.977
X167.524 Y-71.048
X167.189 Y-71.198
X167.049 Y-71.295
X166.752 Y-71.511
X166.719 Y-71.539
X166.635 Y-71.631
X166.484 Y-71.798
X166.351 Y-71.952
X166.341 Y-71.966
X166.099 Y-72.385
X166.078 Y-72.427
X166.063 Y-72.469
X165.954 Y-72.804
X165.905 Y-72.972
X165.852 Y-73.475
X165.864 Y-73.643
X165.899 Y-73.978
X165.912 Y-74.062
X165.938 Y-74.146
X166.075 Y-74.565
X166.119 Y-74.649
X166.312 Y-74.984
X166.351 Y-75.048
X166.439 Y-75.152
X166.686 Y-75.425
X166.75 Y-75.487
X167.021 Y-75.685
X167.189 Y-75.801
X167.233 Y-75.822
X167.609 Y-75.99
X167.692 Y-76.023
X167.86 Y-76.06
X168.195 Y-76.13
X168.237 Y-76.136
X168.363
X168.698
X168.782 Y-76.134
X168.865 Y-76.118
X169.285 Y-76.029
X169.327 Y-76.017
X169.368 Y-76
X169.767 Y-75.822
X169.819 Y-75.797
X169.871 Y-75.763
X170.251 Y-75.487
X170.284 Y-75.458
X170.316 Y-75.423
X170.561 Y-75.152
X170.634 Y-75.068
X170.688 Y-74.984
X170.881 Y-74.649
X170.925 Y-74.565
X170.953 Y-74.481
X171.062 Y-74.146
X171.088 Y-74.062
X171.101 Y-73.978
X171.136 Y-73.643
X171.148 Y-73.475
X171.095 Y-72.972
X171.061 Y-72.856
G3 X170.69 Y-72.646 I-0.301 J-0.1
G1 X170.641 Y-72.671 Z-9.995
X170.594 Y-72.695 Z-9.981
X170.55 Y-72.718 Z-9.958
X170.522 Y-72.758 Z-9.922
X170.499 Y-72.792 Z-9.878
X170.481 Y-72.819 Z-9.827
X170.468 Y-72.837 Z-9.771
X170.462 Y-72.847 Z-9.711
X170.461 Y-72.848 Z-9.682
G0 Z5
X168.74 Y-22.011
Z2.5
G3 X168.26 Y-24.989 Z2.335 I-0.24 J-1.489 F333.3
X168.74 Y-22.011 Z2.169 I0.24 J1.489
X168.26 Y-24.989 Z2.004 I-0.24 J-1.489
X168.74 Y-22.011 Z1.838 I0.24 J1.489
X168.26 Y-24.989 Z1.673 I-0.24 J-1.489
X168.74 Y-22.011 Z1.507 I0.24 J1.489
X168.26 Y-24.989 Z1.342 I-0.24 J-1.489
X168.74 Y-22.011 Z1.176 I0.24 J1.489
X168.26 Y-24.989 Z1.011 I-0.24 J-1.489
X168.74 Y-22.011 Z0.845 I0.24 J1.489
X168.26 Y-24.989 Z0.68 I-0.24 J-1.489
X168.74 Y-22.011 Z0.515 I0.24 J1.489
X168.26 Y-24.989 Z0.349 I-0.24 J-1.489
X168.74 Y-22.011 Z0.184 I0.24 J1.489
X168.26 Y-24.989 Z0.018 I-0.24 J-1.489
X168.74 Y-22.011 Z-0.147 I0.24 J1.489
X168.26 Y-24.989 Z-0.313 I-0.24 J-1.489
X168.74 Y-22.011 Z-0.478 I0.24 J1.489
X168.26 Y-24.989 Z-0.644 I-0.24 J-1.489
X168.74 Y-22.011 Z-0.809 I0.24 J1.489
X168.26 Y-24.989 Z-0.974 I-0.24 J-1.489
X168.74 Y-22.011 Z-1.14 I0.24 J1.489
X168.26 Y-24.989 Z-1.305 I-0.24 J-1.489
X168.74 Y-22.011 Z-1.471 I0.24 J1.489
X168.26 Y-24.989 Z-1.636 I-0.24 J-1.489
X168.74 Y-22.011 Z-1.802 I0.24 J1.489
X168.26 Y-24.989 Z-1.967 I-0.24 J-1.489
X168.74 Y-22.011 Z-2.133 I0.24 J1.489
X168.26 Y-24.989 Z-2.298 I-0.24 J-1.489
X168.74 Y-22.011 Z-2.464 I0.24 J1.489
X168.26 Y-24.989 Z-2.629 I-0.24 J-1.489
X168.74 Y-22.011 Z-2.794 I0.24 J1.489
X168.26 Y-24.989 Z-2.96 I-0.24 J-1.489
X168.74 Y-22.011 Z-3.125 I0.24 J1.489
X168.26 Y-24.989 Z-3.291 I-0.24 J-1.489
X168.74 Y-22.011 Z-3.456 I0.24 J1.489
X168.26 Y-24.989 Z-3.622 I-0.24 J-1.489
X168.74 Y-22.011 Z-3.787 I0.24 J1.489
X168.26 Y-24.989 Z-3.953 I-0.24 J-1.489
X168.74 Y-22.011 Z-4.118 I0.24 J1.489
X168.26 Y-24.989 Z-4.284 I-0.24 J-1.489
X168.74 Y-22.011 Z-4.449 I0.24 J1.489
X168.26 Y-24.989 Z-4.614 I-0.24 J-1.489
X168.74 Y-22.011 Z-4.78 I0.24 J1.489
X168.26 Y-24.989 Z-4.945 I-0.24 J-1.489
X168.74 Y-22.011 Z-5.111 I0.24 J1.489
X168.26 Y-24.989 Z-5.276 I-0.24 J-1.489
X168.74 Y-22.011 Z-5.442 I0.24 J1.489
X168.26 Y-24.989 Z-5.607 I-0.24 J-1.489
X168.74 Y-22.011 Z-5.773 I0.24 J1.489
X168.26 Y-24.989 Z-5.938 I-0.24 J-1.489
X168.74 Y-22.011 Z-6.103 I0.24 J1.489
X168.26 Y-24.989 Z-6.269 I-0.24 J-1.489
X168.74 Y-22.011 Z-6.434 I0.24 J1.489
X168.26 Y-24.989 Z-6.6 I-0.24 J-1.489
X168.74 Y-22.011 Z-6.765 I0.24 J1.489
X168.26 Y-24.989 Z-6.931 I-0.24 J-1.489
X168.74 Y-22.011 Z-7.096 I0.24 J1.489
X168.26 Y-24.989 Z-7.262 I-0.24 J-1.489
X168.74 Y-22.011 Z-7.427 I0.24 J1.489
X168.26 Y-24.989 Z-7.593 I-0.24 J-1.489
X168.74 Y-22.011 Z-7.758 I0.24 J1.489
X168.26 Y-24.989 Z-7.923 I-0.24 J-1.489
X168.74 Y-22.011 Z-8.089 I0.24 J1.489
X168.26 Y-24.989 Z-8.254 I-0.24 J-1.489
X168.74 Y-22.011 Z-8.42 I0.24 J1.489
X168.26 Y-24.989 Z-8.585 I-0.24 J-1.489
X168.74 Y-22.011 Z-8.751 I0.24 J1.489
X168.26 Y-24.989 Z-8.916 I-0.24 J-1.489
X168.74 Y-22.011 Z-9.082 I0.24 J1.489
X168.26 Y-24.989 Z-9.247 I-0.24 J-1.489
X168.74 Y-22.011 Z-9.413 I0.24 J1.489
X168.26 Y-24.989 Z-9.578 I-0.24 J-1.489
X168.74 Y-22.011 Z-9.743 I0.24 J1.489
X168.26 Y-24.989 Z-9.909 I-0.24 J-1.489
X170.008 Y-23.5 Z-10 I0.24 J1.489
X166.992 I-1.508
X170.008 I1.508
G1 X170.027 Y-22.762 F1000
X170.049 Y-22.673
X170.065 Y-22.524
X170.052 Y-22.374
X170.017 Y-22.228
X169.962 Y-22.089
X169.89 Y-21.957
X169.804 Y-21.834
X169.706 Y-21.72
X169.598 Y-21.617
X169.48 Y-21.524
X169.354 Y-21.442
X169.222 Y-21.371
X169.083 Y-21.311
X168.937 Y-21.26
X168.783 Y-21.221
X168.623 Y-21.194
X168.458 Y-21.179
X168.289 Y-21.177
X168.118 Y-21.189
X167.946 Y-21.216
X167.775 Y-21.256
X167.605 Y-21.311
X167.439 Y-21.379
X167.277 Y-21.462
X167.122 Y-21.558
X166.973 Y-21.667
X166.833 Y-21.789
X166.702 Y-21.922
X166.582 Y-22.066
X166.473 Y-22.219
X166.377 Y-22.382
X166.293 Y-22.552
X166.224 Y-22.729
X166.168 Y-22.911
X166.128 Y-23.098
X166.102 Y-23.288
X166.092 Y-23.479
X166.097 Y-23.671
X166.118 Y-23.862
X166.153 Y-24.051
X166.204 Y-24.237
X166.27 Y-24.418
X166.35 Y-24.594
X166.444 Y-24.762
X166.552 Y-24.923
X166.672 Y-25.075
X166.803 Y-25.216
X166.946 Y-25.347
X167.099 Y-25.465
X167.261 Y-25.572
X167.431 Y-25.664
X167.608 Y-25.743
X167.791 Y-25.808
X167.978 Y-25.857
X168.169 Y-25.892
X168.361 Y-25.911
X168.555 Y-25.914
X168.749 Y-25.902
X168.941 Y-25.874
X169.13 Y-25.831
X169.315 Y-25.773
X169.494 Y-25.701
X169.668 Y-25.614
X169.834 Y-25.513
X169.991 Y-25.4
X170.139 Y-25.274
X170.276 Y-25.137
X170.401 Y-24.989
X170.515 Y-24.832
X170.619 Y-24.659
X170.73 Y-24.437
X170.877 Y-24.072
X170.984 Y-23.729
X171.048 Y-23.446
X171.085 Y-23.191
X171.09 Y-23.108
Y-23.015
X171.078 Y-22.923
X171.055 Y-22.833
X170.95 Y-22.508
X170.921 Y-22.426
X170.875 Y-22.34
X170.681 Y-22.005
X170.625 Y-21.921
X170.374 Y-21.642
X170.311 Y-21.572
X170.273 Y-21.532
X170.235 Y-21.502
X169.871 Y-21.237
X169.807 Y-21.197
X169.704 Y-21.15
X169.366 Y-20.999
X169.325 Y-20.982
X169.283 Y-20.971
X168.865 Y-20.882
X168.782 Y-20.866
X168.698 Y-20.864
X168.279
X168.237
X168.195 Y-20.869
X167.86 Y-20.94
X167.692 Y-20.977
X167.634 Y-20.999
X167.258 Y-21.167
X167.189 Y-21.199
X167.021 Y-21.315
X166.765 Y-21.502
X166.725 Y-21.534
X166.686 Y-21.575
X166.449 Y-21.837
X166.351 Y-21.952
X166.319 Y-22.005
X166.125 Y-22.34
X166.08 Y-22.424
X166.05 Y-22.508
X165.915 Y-22.927
X165.901 Y-23.011
X165.865 Y-23.346
X165.852 Y-23.514
X165.868 Y-23.682
X165.903 Y-24.017
X165.911 Y-24.059
X165.923 Y-24.101
X166.059 Y-24.52
X166.074 Y-24.562
X166.093 Y-24.604
X166.335 Y-25.023
X166.351 Y-25.047
X166.474 Y-25.19
X166.686 Y-25.425
X166.744 Y-25.483
X167.033 Y-25.693
X167.189 Y-25.802
X167.524 Y-25.952
X167.692 Y-26.023
X167.714 Y-26.029
X168.195 Y-26.13
X168.237 Y-26.136
X168.363
X168.698
X168.782 Y-26.134
X168.865 Y-26.118
X169.286 Y-26.029
X169.327 Y-26.016
X169.368 Y-26
X169.788 Y-25.813
X169.829 Y-25.791
X169.871 Y-25.763
X170.249 Y-25.488
X170.291 Y-25.451
X170.609 Y-25.098
X170.641 Y-25.06
X170.665 Y-25.023
X170.877 Y-24.655
X170.915 Y-24.587
X170.941 Y-24.52
X171.077 Y-24.101
X171.089 Y-24.059
X171.097 Y-24.017
X171.132 Y-23.682
X171.148 Y-23.514
X171.135 Y-23.346
X171.099 Y-23.011
X171.085 Y-22.927
X171.055 Y-22.833
G3 X170.678 Y-22.634 I-0.298 J-0.109
G1 X170.63 Y-22.66 Z-9.995
X170.584 Y-22.685 Z-9.981
X170.54 Y-22.709 Z-9.958
X170.514 Y-22.75 Z-9.922
X170.491 Y-22.785 Z-9.878
X170.474 Y-22.813 Z-9.827
X170.462 Y-22.831 Z-9.771
X170.456 Y-22.841 Z-9.711
X170.455 Y-22.842 Z-9.682
G0 Z5
X218.74 Y-172.012
Z2.5
G3 X218.26 Y-174.99 Z2.335 I-0.24 J-1.489 F333.3
X218.74 Y-172.012 Z2.169 I0.24 J1.489
X218.26 Y-174.99 Z2.004 I-0.24 J-1.489
X218.74 Y-172.012 Z1.838 I0.24 J1.489
X218.26 Y-174.99 Z1.673 I-0.24 J-1.489
X218.74 Y-172.012 Z1.507 I0.24 J1.489
X218.26 Y-174.99 Z1.342 I-0.24 J-1.489
X218.74 Y-172.012 Z1.176 I0.24 J1.489
X218.26 Y-174.99 Z1.011 I-0.24 J-1.489
X218.74 Y-172.012 Z0.845 I0.24 J1.489
X218.26 Y-174.99 Z0.68 I-0.24 J-1.489
X218.74 Y-172.012 Z0.515 I0.24 J1.489
X218.26 Y-174.99 Z0.349 I-0.24 J-1.489
X218.74 Y-172.012 Z0.184 I0.24 J1.489
X218.26 Y-174.99 Z0.018 I-0.24 J-1.489
X218.74 Y-172.012 Z-0.147 I0.24 J1.489
X218.26 Y-174.99 Z-0.313 I-0.24 J-1.489
X218.74 Y-172.012 Z-0.478 I0.24 J1.489
X218.26 Y-174.99 Z-0.644 I-0.24 J-1.489
X218.74 Y-172.012 Z-0.809 I0.24 J1.489
X218.26 Y-174.99 Z-0.974 I-0.24 J-1.489
X218.74 Y-172.012 Z-1.14 I0.24 J1.489
X218.26 Y-174.99 Z-1.305 I-0.24 J-1.489
X218.74 Y-172.012 Z-1.471 I0.24 J1.489
X218.26 Y-174.99 Z-1.636 I-0.24 J-1.489
X218.74 Y-172.012 Z-1.802 I0.24 J1.489
X218.26 Y-174.99 Z-1.967 I-0.24 J-1.489
X218.74 Y-172.012 Z-2.133 I0.24 J1.489
X218.26 Y-174.99 Z-2.298 I-0.24 J-1.489
X218.74 Y-172.012 Z-2.464 I0.24 J1.489
X218.26 Y-174.99 Z-2.629 I-0.24 J-1.489
X218.74 Y-172.012 Z-2.794 I0.24 J1.489
X218.26 Y-174.99 Z-2.96 I-0.24 J-1.489
X218.74 Y-172.012 Z-3.125 I0.24 J1.489
X218.26 Y-174.99 Z-3.291 I-0.24 J-1.489
X218.74 Y-172.012 Z-3.456 I0.24 J1.489
X218.26 Y-174.99 Z-3.622 I-0.24 J-1.489
X218.74 Y-172.012 Z-3.787 I0.24 J1.489
X218.26 Y-174.99 Z-3.953 I-0.24 J-1.489
X218.74 Y-172.012 Z-4.118 I0.24 J1.489
X218.26 Y-174.99 Z-4.284 I-0.24 J-1.489
X218.74 Y-172.012 Z-4.449 I0.24 J1.489
X218.26 Y-174.99 Z-4.614 I-0.24 J-1.489
X218.74 Y-172.012 Z-4.78 I0.24 J1.489
X218.26 Y-174.99 Z-4.945 I-0.24 J-1.489
X218.74 Y-172.012 Z-5.111 I0.24 J1.489
X218.26 Y-174.99 Z-5.276 I-0.24 J-1.489
X218.74 Y-172.012 Z-5.442 I0.24 J1.489
X218.26 Y-174.99 Z-5.607 I-0.24 J-1.489
X218.74 Y-172.012 Z-5.773 I0.24 J1.489
X218.26 Y-174.99 Z-5.938 I-0.24 J-1.489
X218.74 Y-172.012 Z-6.103 I0.24 J1.489
X218.26 Y-174.99 Z-6.269 I-0.24 J-1.489
X218.74 Y-172.012 Z-6.434 I0.24 J1.489
X218.26 Y-174.99 Z-6.6 I-0.24 J-1.489
X218.74 Y-172.012 Z-6.765 I0.24 J1.489
X218.26 Y-174.99 Z-6.931 I-0.24 J-1.489
X218.74 Y-172.012 Z-7.096 I0.24 J1.489
X218.26 Y-174.99 Z-7.262 I-0.24 J-1.489
X218.74 Y-172.012 Z-7.427 I0.24 J1.489
X218.26 Y-174.99 Z-7.593 I-0.24 J-1.489
X218.74 Y-172.012 Z-7.758 I0.24 J1.489
X218.26 Y-174.99 Z-7.923 I-0.24 J-1.489
X218.74 Y-172.012 Z-8.089 I0.24 J1.489
X218.26 Y-174.99 Z-8.254 I-0.24 J-1.489
X218.74 Y-172.012 Z-8.42 I0.24 J1.489
X218.26 Y-174.99 Z-8.585 I-0.24 J-1.489
X218.74 Y-172.012 Z-8.751 I0.24 J1.489
X218.26 Y-174.99 Z-8.916 I-0.24 J-1.489
X218.74 Y-172.012 Z-9.082 I0.24 J1.489
X218.26 Y-174.99 Z-9.247 I-0.24 J-1.489
X218.74 Y-172.012 Z-9.413 I0.24 J1.489
X218.26 Y-174.99 Z-9.578 I-0.24 J-1.489
X218.74 Y-172.012 Z-9.743 I0.24 J1.489
X218.26 Y-174.99 Z-9.909 I-0.24 J-1.489
X220.008 Y-173.501 Z-10 I0.24 J1.489
X216.992 I-1.508
X220.008 I1.508
G1 X220.028 Y-172.763 F1000
X220.049 Y-172.674
X220.065 Y-172.524
X220.052 Y-172.375
X220.017 Y-172.229
X219.962 Y-172.09
X219.89 Y-171.958
X219.804 Y-171.835
X219.706 Y-171.721
X219.598 Y-171.618
X219.48 Y-171.525
X219.354 Y-171.443
X219.222 Y-171.372
X219.084 Y-171.312
X218.937 Y-171.261
X218.783 Y-171.222
X218.623 Y-171.194
X218.458 Y-171.179
X218.289 Y-171.178
X218.118 Y-171.19
X217.946 Y-171.216
X217.775 Y-171.257
X217.606 Y-171.311
X217.439 Y-171.38
X217.278 Y-171.463
X217.122 Y-171.559
X216.973 Y-171.668
X216.833 Y-171.789
X216.702 Y-171.923
X216.582 Y-172.066
X216.473 Y-172.22
X216.377 Y-172.382
X216.293 Y-172.553
X216.224 Y-172.73
X216.168 Y-172.912
X216.128 Y-173.099
X216.102 Y-173.288
X216.092 Y-173.48
X216.097 Y-173.672
X216.118 Y-173.863
X216.153 Y-174.052
X216.204 Y-174.238
X216.27 Y-174.419
X216.35 Y-174.595
X216.444 Y-174.763
X216.552 Y-174.924
X216.672 Y-175.075
X216.804 Y-175.217
X216.946 Y-175.347
X217.099 Y-175.466
X217.261 Y-175.572
X217.431 Y-175.665
X217.608 Y-175.744
X217.791 Y-175.808
X217.978 Y-175.858
X218.169 Y-175.892
X218.362 Y-175.911
X218.555 Y-175.915
X218.749 Y-175.902
X218.941 Y-175.875
X219.13 Y-175.832
X219.315 Y-175.774
X219.495 Y-175.701
X219.668 Y-175.614
X219.834 Y-175.514
X219.991 Y-175.4
X220.139 Y-175.275
X220.276 Y-175.137
X220.401 Y-174.99
X220.515 Y-174.832
X220.619 Y-174.66
X220.73 Y-174.437
X220.877 Y-174.073
X220.985 Y-173.73
X221.048 Y-173.447
X221.085 Y-173.191
X221.09 Y-173.108
Y-173.015
X221.078 Y-172.923
X221.055 Y-172.833
X220.966 Y-172.559
X220.904 Y-172.391
X220.669 Y-171.984
X220.638 Y-171.936
X220.597 Y-171.888
X220.294 Y-171.553
X220.262 Y-171.522
X220.23 Y-171.498
X219.999 Y-171.33
X219.842 Y-171.218
X219.831 Y-171.211
X219.663 Y-171.132
X219.479 Y-171.05
X219.328 Y-170.984
X219.161 Y-170.945
X218.825 Y-170.874
X218.783 Y-170.867
X218.741 Y-170.864
X218.322 Y-170.863
X218.238 Y-170.864
X218.155 Y-170.878
X217.736 Y-170.967
X217.694 Y-170.977
X217.652 Y-170.992
X217.197 Y-171.195
X217.157 Y-171.218
X216.813 Y-171.467
X216.706 Y-171.553
X216.403 Y-171.888
X216.35 Y-171.954
X216.289 Y-172.056
X216.096 Y-172.391
X216.076 Y-172.433
X216.061 Y-172.475
X215.925 Y-172.894
X215.904 Y-172.978
X215.852 Y-173.481
X215.856 Y-173.565
X215.891 Y-173.9
X215.913 Y-174.068
X216.022 Y-174.403
X216.078 Y-174.571
X216.143 Y-174.69
X216.31 Y-174.981
X216.37 Y-175.074
X216.671 Y-175.409
X216.742 Y-175.48
X216.813 Y-175.533
X217.149 Y-175.777
X217.191 Y-175.803
X217.652 Y-176.008
X217.694 Y-176.023
X217.819 Y-176.051
X218.155 Y-176.122
X218.238 Y-176.136
X218.322
X218.741
X218.783 Y-176.133
X218.825 Y-176.126
X219.161 Y-176.055
X219.328 Y-176.016
X219.565 Y-175.912
X219.663 Y-175.868
X219.831 Y-175.79
X219.896 Y-175.744
X220.248 Y-175.489
X220.334 Y-175.403
X220.63 Y-175.074
X220.669 Y-175.016
X220.837 Y-174.725
X220.922 Y-174.571
X220.978 Y-174.403
X221.087 Y-174.068
X221.109 Y-173.9
X221.144 Y-173.565
X221.148 Y-173.481
X221.096 Y-172.978
X221.088 Y-172.936
X221.064 Y-172.861
X221.055 Y-172.833
G3 X220.678 Y-172.635 I-0.298 J-0.109
G1 X220.63 Y-172.661 Z-9.995
X220.584 Y-172.686 Z-9.981
X220.541 Y-172.71 Z-9.958
X220.514 Y-172.751 Z-9.922
X220.491 Y-172.786 Z-9.878
X220.474 Y-172.813 Z-9.827
X220.462 Y-172.832 Z-9.771
X220.456 Y-172.841 Z-9.711
X220.455 Y-172.843 Z-9.682
G0 Z5
X218.739 Y-122.011
Z2.5
G3 X218.26 Y-124.989 Z2.335 I-0.24 J-1.489 F333.3
X218.739 Y-122.011 Z2.169 I0.24 J1.489
X218.26 Y-124.989 Z2.004 I-0.24 J-1.489
X218.739 Y-122.011 Z1.838 I0.24 J1.489
X218.26 Y-124.989 Z1.673 I-0.24 J-1.489
X218.739 Y-122.011 Z1.507 I0.24 J1.489
X218.26 Y-124.989 Z1.342 I-0.24 J-1.489
X218.739 Y-122.011 Z1.176 I0.24 J1.489
X218.26 Y-124.989 Z1.011 I-0.24 J-1.489
X218.739 Y-122.011 Z0.845 I0.24 J1.489
X218.26 Y-124.989 Z0.68 I-0.24 J-1.489
X218.739 Y-122.011 Z0.515 I0.24 J1.489
X218.26 Y-124.989 Z0.349 I-0.24 J-1.489
X218.739 Y-122.011 Z0.184 I0.24 J1.489
X218.26 Y-124.989 Z0.018 I-0.24 J-1.489
X218.739 Y-122.011 Z-0.147 I0.24 J1.489
X218.26 Y-124.989 Z-0.313 I-0.24 J-1.489
X218.739 Y-122.011 Z-0.478 I0.24 J1.489
X218.26 Y-124.989 Z-0.644 I-0.24 J-1.489
X218.739 Y-122.011 Z-0.809 I0.24 J1.489
X218.26 Y-124.989 Z-0.974 I-0.24 J-1.489
X218.739 Y-122.011 Z-1.14 I0.24 J1.489
X218.26 Y-124.989 Z-1.305 I-0.24 J-1.489
X218.739 Y-122.011 Z-1.471 I0.24 J1.489
X218.26 Y-124.989 Z-1.636 I-0.24 J-1.489
X218.739 Y-122.011 Z-1.802 I0.24 J1.489
X218.26 Y-124.989 Z-1.967 I-0.24 J-1.489
X218.739 Y-122.011 Z-2.133 I0.24 J1.489
X218.26 Y-124.989 Z-2.298 I-0.24 J-1.489
X218.739 Y-122.011 Z-2.464 I0.24 J1.489
X218.26 Y-124.989 Z-2.629 I-0.24 J-1.489
X218.739 Y-122.011 Z-2.794 I0.24 J1.489
X218.26 Y-124.989 Z-2.96 I-0.24 J-1.489
X218.739 Y-122.011 Z-3.125 I0.24 J1.489
X218.26 Y-124.989 Z-3.291 I-0.24 J-1.489
X218.739 Y-122.011 Z-3.456 I0.24 J1.489
X218.26 Y-124.989 Z-3.622 I-0.24 J-1.489
X218.739 Y-122.011 Z-3.787 I0.24 J1.489
X218.26 Y-124.989 Z-3.953 I-0.24 J-1.489
X218.739 Y-122.011 Z-4.118 I0.24 J1.489
X218.26 Y-124.989 Z-4.284 I-0.24 J-1.489
X218.739 Y-122.011 Z-4.449 I0.24 J1.489
X218.26 Y-124.989 Z-4.614 I-0.24 J-1.489
X218.739 Y-122.011 Z-4.78 I0.24 J1.489
X218.26 Y-124.989 Z-4.945 I-0.24 J-1.489
X218.739 Y-122.011 Z-5.111 I0.24 J1.489
X218.26 Y-124.989 Z-5.276 I-0.24 J-1.489
X218.739 Y-122.011 Z-5.442 I0.24 J1.489
X218.26 Y-124.989 Z-5.607 I-0.24 J-1.489
X218.739 Y-122.011 Z-5.773 I0.24 J1.489
X218.26 Y-124.989 Z-5.938 I-0.24 J-1.489
X218.739 Y-122.011 Z-6.103 I0.24 J1.489
X218.26 Y-124.989 Z-6.269 I-0.24 J-1.489
X218.739 Y-122.011 Z-6.434 I0.24 J1.489
X218.26 Y-124.989 Z-6.6 I-0.24 J-1.489
X218.739 Y-122.011 Z-6.765 I0.24 J1.489
X218.26 Y-124.989 Z-6.931 I-0.24 J-1.489
X218.739 Y-122.011 Z-7.096 I0.24 J1.489
X218.26 Y-124.989 Z-7.262 I-0.24 J-1.489
X218.739 Y-122.011 Z-7.427 I0.24 J1.489
X218.26 Y-124.989 Z-7.593 I-0.24 J-1.489
X218.739 Y-122.011 Z-7.758 I0.24 J1.489
X218.26 Y-124.989 Z-7.923 I-0.24 J-1.489
X218.739 Y-122.011 Z-8.089 I0.24 J1.489
X218.26 Y-124.989 Z-8.254 I-0.24 J-1.489
X218.739 Y-122.011 Z-8.42 I0.24 J1.489
X218.26 Y-124.989 Z-8.585 I-0.24 J-1.489
X218.739 Y-122.011 Z-8.751 I0.24 J1.489
X218.26 Y-124.989 Z-8.916 I-0.24 J-1.489
X218.739 Y-122.011 Z-9.082 I0.24 J1.489
X218.26 Y-124.989 Z-9.247 I-0.24 J-1.489
X218.739 Y-122.011 Z-9.413 I0.24 J1.489
X218.26 Y-124.989 Z-9.578 I-0.24 J-1.489
X218.739 Y-122.011 Z-9.743 I0.24 J1.489
X218.26 Y-124.989 Z-9.909 I-0.24 J-1.489
X220.008 Y-123.5 Z-10 I0.24 J1.489
X216.992 I-1.508
X220.008 I1.508
G1 X220.027 Y-122.762 F1000
X220.049 Y-122.673
X220.065 Y-122.523
X220.052 Y-122.374
X220.016 Y-122.228
X219.962 Y-122.089
