%
(dowl hole)
(T1  D=3.175 CR=0 - ZMIN=-2.985 - flat end mill)
G90 G94
G17
G21
G28 G91 Z0
G90

(Adaptive2)
M9
T1 M6
S5000 M3
G54
M8
G0 X-1.092 Y1.04
Z15
Z5
Z3.5
G3 X1.092 Y-1.04 Z3.335 I1.092 J-1.04 F333.3
X-1.092 Y1.04 Z3.169 I-1.092 J1.04
X1.092 Y-1.04 Z3.004 I1.092 J-1.04
X-1.092 Y1.04 Z2.838 I-1.092 J1.04
X1.092 Y-1.04 Z2.673 I1.092 J-1.04
X-1.092 Y1.04 Z2.507 I-1.092 J1.04
X1.092 Y-1.04 Z2.342 I1.092 J-1.04
X-1.092 Y1.04 Z2.176 I-1.092 J1.04
X1.092 Y-1.04 Z2.011 I1.092 J-1.04
X-1.092 Y1.04 Z1.845 I-1.092 J1.04
X1.092 Y-1.04 Z1.68 I1.092 J-1.04
X-1.092 Y1.04 Z1.515 I-1.092 J1.04
X1.092 Y-1.04 Z1.349 I1.092 J-1.04
X-1.092 Y1.04 Z1.184 I-1.092 J1.04
X1.092 Y-1.04 Z1.018 I1.092 J-1.04
X-1.092 Y1.04 Z0.853 I-1.092 J1.04
X1.092 Y-1.04 Z0.687 I1.092 J-1.04
X-1.092 Y1.04 Z0.522 I-1.092 J1.04
X1.092 Y-1.04 Z0.356 I1.092 J-1.04
X-1.092 Y1.04 Z0.191 I-1.092 J1.04
X1.092 Y-1.04 Z0.026 I1.092 J-1.04
X-1.092 Y1.04 Z-0.14 I-1.092 J1.04
X1.092 Y-1.04 Z-0.305 I1.092 J-1.04
X-1.092 Y1.04 Z-0.471 I-1.092 J1.04
X1.092 Y-1.04 Z-0.636 I1.092 J-1.04
X-1.092 Y1.04 Z-0.802 I-1.092 J1.04
X1.092 Y-1.04 Z-0.967 I1.092 J-1.04
X-1.092 Y1.04 Z-1.133 I-1.092 J1.04
X1.092 Y-1.04 Z-1.298 I1.092 J-1.04
X-1.092 Y1.04 Z-1.464 I-1.092 J1.04
X1.092 Y-1.04 Z-1.629 I1.092 J-1.04
X-1.092 Y1.04 Z-1.794 I-1.092 J1.04
X1.092 Y-1.04 Z-1.96 I1.092 J-1.04
X1.508 Y0 Z-2 I-1.092 J1.04
X-1.508 I-1.508
X1.508 I1.508
G1 X1.525 Y0.642 F1000
X1.554 Y0.717
X1.588 Y0.863
X1.592 Y1.013
X1.57 Y1.161
X1.528 Y1.305
X1.467 Y1.442
X1.392 Y1.572
X1.302 Y1.692
X1.201 Y1.803
X1.09 Y1.904
X0.971 Y1.995
X0.844 Y2.074
X0.71 Y2.143
X0.569 Y2.202
X0.419 Y2.251
X0.263 Y2.289
X0.101 Y2.314
X-0.066 Y2.327
X-0.236 Y2.326
X-0.409 Y2.311
X-0.581 Y2.282
X-0.753 Y2.239
X-0.923 Y2.181
X-1.089 Y2.11
X-1.25 Y2.024
X-1.405 Y1.925
X-1.553 Y1.814
X-1.691 Y1.69
X-1.82 Y1.555
X-1.939 Y1.409
X-2.046 Y1.253
X-2.14 Y1.089
X-2.221 Y0.917
X-2.288 Y0.739
X-2.341 Y0.555
X-2.378 Y0.368
X-2.401 Y0.178
X-2.409 Y-0.014
X-2.401 Y-0.206
X-2.377 Y-0.397
X-2.339 Y-0.585
X-2.285 Y-0.771
X-2.216 Y-0.951
X-2.134 Y-1.125
X-2.037 Y-1.293
X-1.927 Y-1.452
X-1.805 Y-1.602
X-1.671 Y-1.741
X-1.526 Y-1.87
X-1.372 Y-1.986
X-1.208 Y-2.09
X-1.037 Y-2.18
X-0.859 Y-2.256
X-0.675 Y-2.318
X-0.487 Y-2.365
X-0.296 Y-2.396
X-0.103 Y-2.412
X0.091 Y-2.413
X0.284 Y-2.398
X0.476 Y-2.367
X0.664 Y-2.322
X0.848 Y-2.261
X1.027 Y-2.186
X1.199 Y-2.096
X1.363 Y-1.993
X1.519 Y-1.877
X1.665 Y-1.749
X1.8 Y-1.61
X1.923 Y-1.461
X2.034 Y-1.302
X2.139 Y-1.122
X2.278 Y-0.834
X2.432 Y-0.434
X2.52 Y-0.138
X2.575 Y0.125
X2.607 Y0.368
X2.617 Y0.596
X2.61 Y0.813
X2.586 Y1.023
X2.546 Y1.229
X2.489 Y1.429
X2.417 Y1.625
X2.329 Y1.814
X2.226 Y1.996
X2.108 Y2.169
X1.976 Y2.335
X1.828 Y2.491
X1.667 Y2.636
X1.536 Y2.737
X1.485 Y2.773
X1.432 Y2.804
X1.376 Y2.83
X1.022 Y2.982
X0.949 Y3.008
X0.584 Y3.091
X0.438 Y3.123
X0.292 Y3.133
X0 Y3.147
X-0.146 Y3.151
X-0.292 Y3.133
X-0.584 Y3.093
X-0.73 Y3.068
X-1.189 Y2.919
X-1.251 Y2.896
X-1.605 Y2.706
X-1.747 Y2.627
X-2.114 Y2.335
X-2.189 Y2.271
X-2.517 Y1.897
X-2.572 Y1.824
X-2.833 Y1.386
X-2.865 Y1.313
X-3.029 Y0.876
X-3.062 Y0.73
X-3.141 Y0.292
X-3.143 Y0.146
Y-0.146
X-3.141 Y-0.292
X-3.062 Y-0.73
X-3.029 Y-0.876
X-2.865 Y-1.313
X-2.833 Y-1.386
X-2.572 Y-1.824
X-2.517 Y-1.897
X-2.189 Y-2.271
X-2.114 Y-2.335
X-1.747 Y-2.627
X-1.605 Y-2.706
X-1.251 Y-2.896
X-1.189 Y-2.919
X-0.73 Y-3.068
X-0.584 Y-3.093
X-0.292 Y-3.133
X-0.146 Y-3.151
X0 Y-3.147
X0.292 Y-3.133
X0.438 Y-3.123
X0.73 Y-3.058
X0.949 Y-3.008
X1.022 Y-2.982
X1.459 Y-2.795
X1.504 Y-2.773
X1.751 Y-2.61
X1.947 Y-2.481
X2.043 Y-2.396
X2.335 Y-2.116
X2.371 Y-2.08
X2.401 Y-2.043
X2.627 Y-1.732
X2.715 Y-1.605
X2.856 Y-1.313
X2.927 Y-1.167
X2.958 Y-1.094
X3.099 Y-0.584
X3.117 Y-0.438
X3.143 Y-0.146
X3.155 Y0
X3.143 Y0.146
X3.117 Y0.438
X3.099 Y0.584
X2.958 Y1.094
X2.927 Y1.167
X2.773 Y1.487
X2.715 Y1.605
X2.613 Y1.751
X2.401 Y2.043
X2.371 Y2.08
X2.335 Y2.116
X2.043 Y2.396
X1.947 Y2.481
X1.605 Y2.707
X1.504 Y2.773
X1.459 Y2.795
X1.376 Y2.83
G3 X0.988 Y2.373 I-0.115 J-0.296
G1 X1.024 Y2.312 Z-1.992
X1.059 Y2.254 Z-1.969
X1.089 Y2.202 Z-1.931
X1.115 Y2.159 Z-1.88
X1.134 Y2.126 Z-1.82
X1.146 Y2.106 Z-1.753
X1.15 Y2.099 Z-1.683
G0 Z15

(Contour1)
M9
X-0.062 Y3.149
Z15
Z2
G1 Z0.05 F1000
X-0.14 Y3.153 Z0.047 F333.3
X-0.142
X-0.701 Y3.077 Z0.027
X-0.704
X-1.238 Y2.903 Z0.008
X-1.241 Y2.902
X-1.737 Y2.635 Z-0.012
X-1.739 Y2.633
X-2.179 Y2.283 Z-0.032
X-2.181 Y2.281
X-2.553 Y1.856 Z-0.052
X-2.554 Y1.853
X-2.843 Y1.371 Z-0.071
X-2.844 Y1.369
X-3.042 Y0.841 Z-0.091
Y0.839
X-3.143 Y0.284 Z-0.111
Y0.282
Y-0.282 Z-0.131
Y-0.284
X-3.042 Y-0.839 Z-0.15
Y-0.841
X-2.844 Y-1.369 Z-0.17
X-2.843 Y-1.371
X-2.554 Y-1.853 Z-0.19
X-2.553 Y-1.856
X-2.181 Y-2.281 Z-0.21
X-2.179 Y-2.283
X-1.739 Y-2.633 Z-0.229
X-1.737 Y-2.635
X-1.241 Y-2.902 Z-0.249
X-1.238 Y-2.903
X-0.704 Y-3.077 Z-0.269
X-0.701
X-0.142 Y-3.153 Z-0.289
X-0.14
X0.422 Y-3.128 Z-0.308
X0.424 Y-3.127
X0.974 Y-3.002 Z-0.328
X0.977 Y-3.001
X1.494 Y-2.78 Z-0.348
X1.496 Y-2.779
X1.967 Y-2.468 Z-0.368
X1.969 Y-2.467
X2.376 Y-2.077 Z-0.387
X2.377 Y-2.076 Z-0.388
X2.709 Y-1.62 Z-0.407
X2.71 Y-1.618
X2.954 Y-1.11 Z-0.427
X2.955 Y-1.108
X3.105 Y-0.564 Z-0.447
X3.106 Y-0.562
X3.156 Y0 Z-0.467
X3.106 Y0.562 Z-0.486
X3.105 Y0.564
X2.955 Y1.108 Z-0.506
X2.954 Y1.11
X2.71 Y1.618 Z-0.526
X2.709 Y1.62
X2.377 Y2.076 Z-0.546
X2.376 Y2.077
X1.969 Y2.467 Z-0.565
X1.967 Y2.468
X1.496 Y2.779 Z-0.585
X1.494 Y2.78
X0.977 Y3.001 Z-0.605
X0.974 Y3.002
X0.424 Y3.127 Z-0.625
X0.422 Y3.128
X-0.14 Y3.153 Z-0.644
X-0.142
X-0.701 Y3.077 Z-0.664
X-0.704
X-1.238 Y2.903 Z-0.684
X-1.241 Y2.902
X-1.737 Y2.635 Z-0.704
X-1.739 Y2.633
X-2.179 Y2.283 Z-0.723
X-2.181 Y2.281
X-2.553 Y1.856 Z-0.743
X-2.554 Y1.853
X-2.843 Y1.371 Z-0.763
X-2.844 Y1.369
X-3.042 Y0.841 Z-0.783
Y0.839
X-3.143 Y0.284 Z-0.802
Y0.282
Y-0.282 Z-0.822
Y-0.284
X-3.042 Y-0.839 Z-0.842
Y-0.841
X-2.844 Y-1.369 Z-0.862
X-2.843 Y-1.371
X-2.554 Y-1.853 Z-0.881
X-2.553 Y-1.856
X-2.181 Y-2.281 Z-0.901
X-2.179 Y-2.283
X-1.739 Y-2.633 Z-0.921
X-1.737 Y-2.635
X-1.241 Y-2.902 Z-0.941
X-1.238 Y-2.903
X-0.704 Y-3.077 Z-0.96
X-0.701 Z-0.961
X-0.142 Y-3.153 Z-0.98
X-0.14
X0.422 Y-3.128 Z-1
X0.424 Y-3.127
X0.974 Y-3.002 F1000
X0.977 Y-3.001
X1.494 Y-2.78
X1.496 Y-2.779
X1.967 Y-2.468
X1.969 Y-2.467
X2.376 Y-2.077
X2.377 Y-2.076
X2.709 Y-1.62
X2.71 Y-1.618
X2.954 Y-1.11
X2.955 Y-1.108
X3.105 Y-0.564
X3.106 Y-0.562
X3.156 Y0
X3.106 Y0.562
X3.105 Y0.564
X2.955 Y1.108
X2.954 Y1.11
X2.71 Y1.618
X2.709 Y1.62
X2.377 Y2.076
X2.376 Y2.077
X1.969 Y2.467
X1.967 Y2.468
X1.496 Y2.779
X1.494 Y2.78
X0.977 Y3.001
X0.974 Y3.002
X0.424 Y3.127
X0.422 Y3.128
X-0.14 Y3.153
X-0.142
X-0.701 Y3.077
X-0.704
X-1.238 Y2.903
X-1.241 Y2.902
X-1.737 Y2.635
X-1.739 Y2.633
X-2.179 Y2.283
X-2.181 Y2.281
X-2.553 Y1.856
X-2.554 Y1.853
X-2.843 Y1.371
X-2.844 Y1.369
X-3.042 Y0.841
Y0.839
X-3.143 Y0.284
Y0.282
Y-0.282
Y-0.284
X-3.042 Y-0.839
Y-0.841
X-2.844 Y-1.369
X-2.843 Y-1.371
X-2.554 Y-1.853
X-2.553 Y-1.856
X-2.181 Y-2.281
X-2.179 Y-2.283
X-1.739 Y-2.633
X-1.737 Y-2.635
X-1.241 Y-2.902
X-1.238 Y-2.903
X-0.704 Y-3.077
X-0.701
X-0.142 Y-3.153
X-0.14
X0.422 Y-3.128
X0.424 Y-3.127
X0.485 Y-3.114
X0.546 Y-3.1
X0.668 Y-3.072
X0.913 Y-3.016 Z-1.001
X0.974 Y-3.002
X0.978 Y-3.001
X1.032 Y-2.977
X1.147 Y-2.928
X1.377 Y-2.83 Z-1.002
X1.493 Y-2.781 Z-1.003
X1.496 Y-2.779
X1.545 Y-2.747
X1.597 Y-2.712 Z-1.004
X1.807 Y-2.574 Z-1.005
X1.911 Y-2.505 Z-1.006
X1.967 Y-2.468 Z-1.007
X1.97 Y-2.466
X2.009 Y-2.428
X2.191 Y-2.254 Z-1.01
X2.375 Y-2.079 Z-1.012
X2.377 Y-2.076
X2.41 Y-2.031 Z-1.013
X2.446 Y-1.981 Z-1.014
X2.52 Y-1.879 Z-1.015
X2.667 Y-1.676 Z-1.018
X2.709 Y-1.619 Z-1.019
X2.711 Y-1.616
X2.733 Y-1.57 Z-1.02
X2.787 Y-1.457 Z-1.021
X2.896 Y-1.231 Z-1.025
X2.954 Y-1.111 Z-1.027
X2.955 Y-1.108
X2.969 Y-1.059 Z-1.028
X2.985 Y-0.998 Z-1.029
X3.052 Y-0.757 Z-1.033
X3.085 Y-0.636 Z-1.035
X3.105 Y-0.564 Z-1.036
X3.106 Y-0.56
X3.11 Y-0.513 Z-1.037
X3.132 Y-0.264 Z-1.042
X3.156 Y-0.002 Z-1.047
Y0.002
X3.152 Y0.049 Z-1.048
X3.146 Y0.111 Z-1.049
X3.135 Y0.236 Z-1.051
X3.124 Y0.361 Z-1.054
X3.112 Y0.485 Z-1.057
X3.105 Y0.563 Z-1.058
X3.103 Y0.571 Z-1.059
X3.093 Y0.609
X3.06 Y0.73 Z-1.062
X3.026 Y0.85 Z-1.065
X2.993 Y0.971 Z-1.068
X2.955 Y1.107 Z-1.071
X2.954 Y1.111
X2.935 Y1.15 Z-1.072
X2.908 Y1.206 Z-1.074
X2.854 Y1.319 Z-1.077
X2.799 Y1.432 Z-1.08
X2.745 Y1.545 Z-1.083
X2.709 Y1.619 Z-1.085
X2.684 Y1.654 Z-1.086
X2.61 Y1.755 Z-1.09
X2.537 Y1.857 Z-1.093
X2.463 Y1.958 Z-1.096
X2.378 Y2.075 Z-1.1
X2.375 Y2.078
X2.347 Y2.105 Z-1.101
X2.301 Y2.149 Z-1.103
X2.211 Y2.235 Z-1.106
X2.12 Y2.322 Z-1.11
X2.03 Y2.408 Z-1.114
X1.97 Y2.465 Z-1.116
X1.967 Y2.468
X1.934 Y2.49 Z-1.117
X1.83 Y2.558 Z-1.121
X1.725 Y2.627 Z-1.125
X1.621 Y2.697 Z-1.128
X1.497 Y2.778 Z-1.133
X1.493 Y2.78
X1.461 Y2.794 Z-1.134
X1.403 Y2.819 Z-1.136
X1.288 Y2.868 Z-1.14
X1.173 Y2.917 Z-1.144
X1 Y2.991 Z-1.15
X0.978 Y3
X0.975 Y3.002 Z-1.151
X0.94 Y3.01 Z-1.152
X0.818 Y3.038 Z-1.156
X0.696 Y3.065 Z-1.16
X0.573 Y3.093 Z-1.164
X0.424 Y3.127 Z-1.169
X0.421 Y3.128
X0.327 Y3.132 Z-1.172
X0.202 Y3.137 Z-1.177
X0.076 Y3.143 Z-1.181
X-0.111 Y3.152 Z-1.187
X-0.139 Y3.153 Z-1.188
X-0.143
X-0.174 Y3.149 Z-1.19
X-0.298 Y3.132 Z-1.194
X-0.422 Y3.115 Z-1.198
X-0.546 Y3.098 Z-1.203
X-0.702 Y3.077 Z-1.208
X-0.705 Y3.076
X-0.732 Y3.067 Z-1.209
X-0.791 Y3.048 Z-1.211
X-0.91 Y3.009 Z-1.216
X-1.03 Y2.971 Z-1.22
X-1.238 Y2.903 Z-1.228
X-1.242 Y2.901
X-1.376 Y2.829 Z-1.233
X-1.487 Y2.77 Z-1.238
X-1.597 Y2.71 Z-1.242
X-1.735 Y2.636 Z-1.247
X-1.739 Y2.634 Z-1.248
X-1.742 Y2.632
X-1.76 Y2.617 Z-1.249
X-1.809 Y2.578 Z-1.251
X-1.907 Y2.5 Z-1.255
X-2.005 Y2.422 Z-1.259
X-2.103 Y2.344 Z-1.264
X-2.179 Y2.282 Z-1.267
X-2.182 Y2.28
X-2.198 Y2.262 Z-1.268
X-2.527 Y1.885 Z-1.286
X-2.553 Y1.855 Z-1.287
X-2.565 Y1.835 Z-1.288
X-2.843 Y1.371 Z-1.307
X-2.844 Y1.367
X-2.895 Y1.232 Z-1.312
X-3.027 Y0.88 Z-1.325
X-3.041 Y0.843 Z-1.326
X-3.042 Y0.839 Z-1.327
X-3.046 Y0.82
X-3.057 Y0.758 Z-1.329
X-3.124 Y0.388 Z-1.343
X-3.143 Y0.284 Z-1.346
Y0.28
Y0.265 Z-1.347
Y-0.28 Z-1.366
Y-0.284
X-3.129 Y-0.361 Z-1.369
X-3.043 Y-0.839 Z-1.386
X-3.041 Y-0.842
X-2.993 Y-0.971 Z-1.391
X-2.85 Y-1.352 Z-1.405
X-2.844 Y-1.367
X-2.843 Y-1.37 Z-1.406
X-2.805 Y-1.434 Z-1.408
X-2.58 Y-1.811 Z-1.423
X-2.554 Y-1.855 Z-1.425
X-2.551 Y-1.858
X-2.546 Y-1.863 Z-1.426
X-2.381 Y-2.052 Z-1.434
X-2.216 Y-2.241 Z-1.443
X-2.183 Y-2.279 Z-1.445
X-2.18 Y-2.282
X-2.125 Y-2.326 Z-1.447
X-1.739 Y-2.634 Z-1.465
X-1.736 Y-2.636
X-1.732 Y-2.638
X-1.242 Y-2.901 Z-1.484
X-1.239 Y-2.903
X-1.175 Y-2.923 Z-1.487
X-0.702 Y-3.077 Z-1.504
X-0.698
X-0.574 Y-3.094 Z-1.509
X-0.155 Y-3.151 Z-1.523
X-0.144 Y-3.153 Z-1.524
X-0.14
X-0.077 Y-3.15 Z-1.526
X0.42 Y-3.128 Z-1.543
X0.424 Y-3.127 Z-1.544
X0.913 Y-3.016 Z-1.561
X0.974 Y-3.002 Z-1.563
X0.978 Y-3.001
X1.032 Y-2.977 Z-1.565
X1.493 Y-2.781 Z-1.583
X1.496 Y-2.779
X1.597 Y-2.712 Z-1.587
X1.911 Y-2.505 Z-1.6
X1.967 Y-2.468 Z-1.603
X1.97 Y-2.466
X2.009 Y-2.428 Z-1.605
X2.281 Y-2.168 Z-1.618
X2.375 Y-2.079 Z-1.622
X2.377 Y-2.076 Z-1.623
X2.446 Y-1.981 Z-1.627
X2.709 Y-1.619 Z-1.642
X2.711 Y-1.616
X2.733 Y-1.57 Z-1.644
X2.787 Y-1.457 Z-1.649
X2.896 Y-1.231 Z-1.657
X2.954 Y-1.111 Z-1.662
X2.955 Y-1.108
X2.969 Y-1.059 Z-1.664
X2.985 Y-0.998 Z-1.666
X3.052 Y-0.757 Z-1.675
X3.104 Y-0.568 Z-1.682
X3.105 Y-0.564
X3.106 Y-0.56
X3.11 Y-0.513 Z-1.683
X3.144 Y-0.139 Z-1.697
X3.156 Y-0.002 Z-1.701
Y0.002 Z-1.702
X3.105 Y0.563 Z-1.721
X3.103 Y0.571
X3.093 Y0.609 Z-1.723
X3.06 Y0.73 Z-1.727
X3.026 Y0.85 Z-1.732
X2.955 Y1.107 Z-1.741
X2.954 Y1.111
X2.908 Y1.206 Z-1.745
X2.854 Y1.319 Z-1.749
X2.799 Y1.432 Z-1.753
X2.718 Y1.601 Z-1.76
X2.709 Y1.619 Z-1.761
X2.684 Y1.654 Z-1.762
X2.61 Y1.755 Z-1.767
X2.537 Y1.857 Z-1.771
X2.463 Y1.958 Z-1.775
X2.378 Y2.075 Z-1.78
X2.375 Y2.078
X2.211 Y2.235 Z-1.788
X2.12 Y2.322 Z-1.793
X1.97 Y2.465 Z-1.8
X1.967 Y2.468
X1.83 Y2.558 Z-1.806
X1.725 Y2.627 Z-1.81
X1.621 Y2.697 Z-1.815
X1.497 Y2.778 Z-1.82
X1.493 Y2.78
X1.288 Y2.868 Z-1.827
X1.173 Y2.917 Z-1.832
X1.058 Y2.966 Z-1.836
X0.978 Y3 Z-1.839
X0.975 Y3.002
X0.818 Y3.038 Z-1.844
X0.696 Y3.065 Z-1.848
X0.573 Y3.093 Z-1.852
X0.424 Y3.127 Z-1.857
X0.421 Y3.128
X0.327 Y3.132 Z-1.86
X0.202 Y3.137 Z-1.864
X0.076 Y3.143 Z-1.868
X-0.049 Y3.149 Z-1.871
X-0.139 Y3.153 Z-1.874
X-0.143
X-0.174 Y3.149 Z-1.875
X-0.298 Y3.132 Z-1.879
X-0.422 Y3.115 Z-1.883
X-0.546 Y3.098 Z-1.886
X-0.702 Y3.077 Z-1.891
X-0.705 Y3.076
X-0.791 Y3.048 Z-1.893
X-0.91 Y3.009 Z-1.897
X-1.03 Y2.971 Z-1.9
X-1.149 Y2.932 Z-1.904
X-1.238 Y2.903 Z-1.906
X-1.242 Y2.901
X-1.266 Y2.888 Z-1.907
X-1.376 Y2.829 Z-1.91
X-1.487 Y2.77 Z-1.914
X-1.597 Y2.71 Z-1.917
X-1.739 Y2.634 Z-1.921
X-1.742 Y2.632
X-1.809 Y2.578 Z-1.923
X-1.907 Y2.5 Z-1.926
X-2.005 Y2.422 Z-1.929
X-2.103 Y2.344 Z-1.932
X-2.179 Y2.282 Z-1.934
X-2.182 Y2.28
X-2.198 Y2.262 Z-1.935
X-2.28 Y2.168 Z-1.938
X-2.363 Y2.073 Z-1.94
X-2.445 Y1.979 Z-1.943
X-2.551 Y1.858 Z-1.947
X-2.553 Y1.855
X-2.565 Y1.835
X-2.598 Y1.781 Z-1.948
X-2.662 Y1.673 Z-1.951
X-2.726 Y1.566 Z-1.953
X-2.79 Y1.458 Z-1.956
X-2.843 Y1.371 Z-1.958
X-2.844 Y1.367
X-2.851 Y1.349
X-2.939 Y1.114 Z-1.963
X-3.027 Y0.88 Z-1.967
X-3.041 Y0.843 Z-1.968
X-3.042 Y0.839
X-3.057 Y0.758 Z-1.969
X-3.079 Y0.635 Z-1.971
X-3.124 Y0.388 Z-1.975
X-3.143 Y0.284 Z-1.977
Y0.28
Y0.265
Y0.139 Z-1.979
Y-0.111 Z-1.982
Y-0.268 Z-1.984
Y-0.28
Y-0.284
X-3.129 Y-0.361 Z-1.985
X-3.084 Y-0.607 Z-1.988
X-3.062 Y-0.731 Z-1.989
X-3.043 Y-0.839 Z-1.99
X-3.041 Y-0.842
X-3.037 Y-0.853
X-2.949 Y-1.088 Z-1.993
X-2.861 Y-1.323 Z-1.994
X-2.844 Y-1.367 Z-1.995
X-2.843 Y-1.37
X-2.805 Y-1.434
X-2.741 Y-1.542 Z-1.996
X-2.612 Y-1.757 Z-1.998
X-2.554 Y-1.855
X-2.551 Y-1.858
X-2.546 Y-1.863
X-2.464 Y-1.958 Z-1.999
X-2.299 Y-2.147
X-2.196 Y-2.264 Z-2
X-2.183 Y-2.279
X-2.18 Y-2.282
X-2.125 Y-2.326
X-1.924 Y-2.486
X-1.739 Y-2.633
X-1.737 Y-2.635
X-1.241 Y-2.902
X-1.238 Y-2.903
X-0.704 Y-3.077
X-0.701
X-0.142 Y-3.153
X-0.14
X0.422 Y-3.128
X0.424 Y-3.127
X0.974 Y-3.002
X0.977 Y-3.001
X1.494 Y-2.78
X1.496 Y-2.779
X1.967 Y-2.468
X1.969 Y-2.467
X2.376 Y-2.077
X2.377 Y-2.076
X2.709 Y-1.62
X2.71 Y-1.618
X2.954 Y-1.11
X2.955 Y-1.108
X3.105 Y-0.564
X3.106 Y-0.562
X3.156 Y0
X3.106 Y0.562
X3.105 Y0.564
X2.955 Y1.108
X2.954 Y1.11
X2.71 Y1.618
X2.709 Y1.62
X2.377 Y2.076
X2.376 Y2.077
X1.969 Y2.467
X1.967 Y2.468
X1.496 Y2.779
X1.494 Y2.78
X0.977 Y3.001
X0.974 Y3.002
X0.424 Y3.127
X0.422 Y3.128
X-0.14 Y3.153
X-0.142
X-0.701 Y3.077
X-0.704
X-1.238 Y2.903
X-1.241 Y2.902
X-1.737 Y2.635
X-1.739 Y2.633
X-2.179 Y2.283
X-2.181 Y2.281
X-2.553 Y1.856
X-2.554 Y1.853
X-2.843 Y1.371
X-2.844 Y1.369
X-3.042 Y0.841
Y0.839
X-3.143 Y0.284
Y0.282
Y-0.282
Y-0.284
X-3.042 Y-0.839
Y-0.841
X-2.844 Y-1.369
X-2.843 Y-1.371
X-2.554 Y-1.853
X-2.553 Y-1.856
X-2.181 Y-2.281
X-2.179 Y-2.283
X-1.924 Y-2.486
X-1.875 Y-2.525
X-1.826 Y-2.564
X-1.74 Y-2.633
X-1.737 Y-2.635
X-1.726 Y-2.641
X-1.506 Y-2.759 Z-2.001
X-1.285 Y-2.878
X-1.243 Y-2.9 Z-2.002
X-1.24 Y-2.902
X-1.169 Y-2.925
X-1.05 Y-2.964 Z-2.003
X-0.812 Y-3.041 Z-2.004
X-0.704 Y-3.076 Z-2.005
X-0.7 Y-3.077
X-0.692 Y-3.078
X-0.568 Y-3.095 Z-2.006
X-0.319 Y-3.129 Z-2.008
X-0.164 Y-3.15 Z-2.009
X-0.145 Y-3.152
X-0.141 Y-3.153
X-0.071 Y-3.15 Z-2.01
X0.18 Y-3.138 Z-2.012
X0.305 Y-3.133 Z-2.014
X0.422 Y-3.128 Z-2.015
X0.426 Y-3.127
X0.43 Y-3.126
X0.675 Y-3.07 Z-2.018
X0.919 Y-3.014 Z-2.022
X0.973 Y-3.002
X0.976 Y-3.001
X1.038 Y-2.975 Z-2.023
X1.153 Y-2.926 Z-2.025
X1.383 Y-2.827 Z-2.029
X1.495 Y-2.78 Z-2.031
X1.498 Y-2.777
X1.603 Y-2.708 Z-2.033
X1.812 Y-2.57 Z-2.038
X1.956 Y-2.476 Z-2.041
X1.966 Y-2.469
X1.969 Y-2.467
X2.014 Y-2.423 Z-2.042
X2.195 Y-2.25 Z-2.047
X2.286 Y-2.163 Z-2.05
X2.376 Y-2.077 Z-2.052
X2.379 Y-2.074
X2.413 Y-2.026 Z-2.054
X2.45 Y-1.975 Z-2.055
X2.524 Y-1.874 Z-2.058
X2.598 Y-1.773 Z-2.06
X2.671 Y-1.671 Z-2.063
X2.708 Y-1.62 Z-2.064
X2.71 Y-1.617 Z-2.065
X2.736 Y-1.564 Z-2.066
X2.79 Y-1.451 Z-2.069
X2.844 Y-1.338 Z-2.072
X2.899 Y-1.226 Z-2.075
X2.955 Y-1.109 Z-2.078
X2.956 Y-1.105
X2.97 Y-1.052 Z-2.079
X2.987 Y-0.992 Z-2.081
X3.02 Y-0.871 Z-2.084
X3.054 Y-0.75 Z-2.087
X3.105 Y-0.566 Z-2.092
X3.106 Y-0.562 Z-2.093
X3.11 Y-0.507 Z-2.094
X3.122 Y-0.382 Z-2.097
X3.133 Y-0.257 Z-2.101
X3.144 Y-0.132 Z-2.104
X3.156 Y-0.004 Z-2.108
Y0
X3.151 Y0.055 Z-2.11
X3.146 Y0.117 Z-2.111
X3.134 Y0.242 Z-2.115
X3.123 Y0.367 Z-2.119
X3.106 Y0.554 Z-2.124
X3.105 Y0.562 Z-2.125
Y0.566
X3.091 Y0.615 Z-2.126
X3.058 Y0.736 Z-2.13
X3.025 Y0.857 Z-2.134
X2.991 Y0.977 Z-2.138
X2.956 Y1.106 Z-2.142
X2.955 Y1.109
X2.932 Y1.155 Z-2.144
X2.905 Y1.212 Z-2.146
X2.851 Y1.325 Z-2.15
X2.797 Y1.438 Z-2.154
X2.71 Y1.618 Z-2.16
X2.708 Y1.621
X2.68 Y1.659 Z-2.162
X2.606 Y1.76 Z-2.166
X2.533 Y1.862 Z-2.17
X2.459 Y1.963 Z-2.174
X2.379 Y2.074 Z-2.179
X2.376 Y2.077
X2.342 Y2.11 Z-2.181
X2.297 Y2.153 Z-2.183
X2.116 Y2.326 Z-2.192
X2.025 Y2.413 Z-2.196
X1.968 Y2.467 Z-2.199
X1.965 Y2.469
X1.929 Y2.493 Z-2.2
X1.825 Y2.562 Z-2.205
X1.72 Y2.631 Z-2.209
X1.615 Y2.7 Z-2.214
X1.498 Y2.778 Z-2.218
X1.494 Y2.78 Z-2.219
X1.455 Y2.797 Z-2.22
X1.397 Y2.821 Z-2.222
X1.282 Y2.871 Z-2.227
X1.167 Y2.92 Z-2.231
X0.976 Y3.001 Z-2.238
X0.972 Y3.002
X0.812 Y3.039 Z-2.244
X0.689 Y3.067 Z-2.249
X0.567 Y3.095 Z-2.253
X0.426 Y3.127 Z-2.258
X0.422 Y3.128
X0.383 Y3.129 Z-2.259
X0.32 Y3.132 Z-2.262
X0.195 Y3.138 Z-2.266
X0.07 Y3.143 Z-2.27
X-0.055 Y3.149 Z-2.275
X-0.141 Y3.153 Z-2.278
X-0.145 Y3.152
X-0.18 Y3.148 Z-2.279
X-0.553 Y3.097 Z-2.292
X-0.7 Y3.077 Z-2.297
X-0.704 Y3.076 Z-2.298
X-0.738 Y3.065 Z-2.299
X-1.24 Y2.902 Z-2.317
X-1.244 Y2.9
X-1.382 Y2.826 Z-2.323
X-1.713 Y2.648 Z-2.336
X-1.737 Y2.635 Z-2.337
X-1.741 Y2.633
X-1.814 Y2.574 Z-2.34
X-2.108 Y2.34 Z-2.353
X-2.178 Y2.283 Z-2.357
X-2.181 Y2.281
X-2.202 Y2.257 Z-2.358
X-2.552 Y1.856 Z-2.376
X-2.555 Y1.853 Z-2.377
X-2.601 Y1.776 Z-2.38
X-2.842 Y1.372 Z-2.396
X-2.844 Y1.369
X-2.853 Y1.343 Z-2.397
X-3.042 Y0.84 Z-2.416
X-3.043 Y0.837
X-3.058 Y0.752 Z-2.419
X-3.137 Y0.32 Z-2.434
X-3.143 Y0.286 Z-2.436
Y0.282
Y0.258 Z-2.437
Y0.008 Z-2.445
Y-0.243 Z-2.454
Y-0.282 Z-2.455
Y-0.286
X-3.139 Y-0.305 Z-2.456
X-3.106 Y-0.49 Z-2.463
X-3.043 Y-0.837 Z-2.475
X-3.042 Y-0.841
X-3.035 Y-0.859 Z-2.476
X-2.844 Y-1.369 Z-2.495
X-2.842 Y-1.373
X-2.801 Y-1.44 Z-2.498
X-2.554 Y-1.853 Z-2.515
X-2.552 Y-1.856
X-2.542 Y-1.868
X-2.377 Y-2.057 Z-2.524
X-2.181 Y-2.281 Z-2.534
X-2.178 Y-2.284
X-2.12 Y-2.33 Z-2.537
X-1.74 Y-2.633 Z-2.554
X-1.737 Y-2.635
X-1.726 Y-2.641 Z-2.555
X-1.257 Y-2.893 Z-2.573
X-1.243 Y-2.9 Z-2.574
X-1.24 Y-2.902
X-1.229 Y-2.906
X-1.05 Y-2.964 Z-2.581
X-0.752 Y-3.061 Z-2.592
X-0.704 Y-3.076 Z-2.593
X-0.7 Y-3.077 Z-2.594
X-0.568 Y-3.095 Z-2.598
X-0.196 Y-3.146 Z-2.611
X-0.145 Y-3.152 Z-2.613
X-0.141 Y-3.153
X-0.071 Y-3.15 Z-2.616
X0.368 Y-3.13 Z-2.631
X0.422 Y-3.128 Z-2.633
X0.426 Y-3.127
X0.43 Y-3.126
X0.797 Y-3.042 Z-2.646
X0.973 Y-3.002 Z-2.653
X0.976 Y-3.001
X1.038 Y-2.975 Z-2.655
X1.153 Y-2.926 Z-2.659
X1.383 Y-2.827 Z-2.668
X1.495 Y-2.78 Z-2.672
X1.498 Y-2.777 Z-2.673
X1.603 Y-2.708 Z-2.677
X1.707 Y-2.639 Z-2.681
X1.966 Y-2.469 Z-2.692
X1.969 Y-2.467
X2.014 Y-2.423 Z-2.694
X2.105 Y-2.337 Z-2.699
X2.195 Y-2.25 Z-2.703
X2.354 Y-2.098 Z-2.711
X2.376 Y-2.077 Z-2.712
X2.379 Y-2.074
X2.45 Y-1.975 Z-2.716
X2.524 Y-1.874 Z-2.721
X2.598 Y-1.773 Z-2.725
X2.708 Y-1.62 Z-2.732
X2.71 Y-1.617
X2.79 Y-1.451 Z-2.738
X2.844 Y-1.338 Z-2.743
X2.955 Y-1.109 Z-2.751
X2.956 Y-1.105 Z-2.752
X2.987 Y-0.992 Z-2.756
X3.02 Y-0.871 Z-2.76
X3.054 Y-0.75 Z-2.764
X3.087 Y-0.63 Z-2.769
X3.105 Y-0.566 Z-2.771
X3.106 Y-0.562
X3.11 Y-0.507 Z-2.773
X3.122 Y-0.382 Z-2.777
X3.133 Y-0.257 Z-2.782
X3.144 Y-0.132 Z-2.786
X3.156 Y-0.004 Z-2.791
Y0
X3.146 Y0.117 Z-2.795
X3.134 Y0.242 Z-2.799
X3.123 Y0.367 Z-2.804
X3.112 Y0.492 Z-2.808
X3.105 Y0.562 Z-2.81
Y0.566 Z-2.811
X3.058 Y0.736 Z-2.816
X3.025 Y0.857 Z-2.821
X2.991 Y0.977 Z-2.825
X2.956 Y1.106 Z-2.829
X2.955 Y1.109
X2.905 Y1.212 Z-2.833
X2.851 Y1.325 Z-2.837
X2.797 Y1.438 Z-2.841
X2.742 Y1.55 Z-2.845
X2.71 Y1.618 Z-2.847
X2.708 Y1.621
X2.68 Y1.659 Z-2.849
X2.606 Y1.76 Z-2.853
X2.533 Y1.862 Z-2.857
X2.459 Y1.963 Z-2.86
X2.379 Y2.074 Z-2.864
X2.376 Y2.077 Z-2.865
X2.297 Y2.153 Z-2.868
X2.206 Y2.24 Z-2.871
X2.116 Y2.326 Z-2.875
X2.025 Y2.413 Z-2.879
X1.968 Y2.467 Z-2.881
X1.965 Y2.469
X1.825 Y2.562 Z-2.885
X1.72 Y2.631 Z-2.889
X1.615 Y2.7 Z-2.892
X1.498 Y2.778 Z-2.896
X1.494 Y2.78
X1.397 Y2.821 Z-2.899
X1.282 Y2.871 Z-2.902
X1.167 Y2.92 Z-2.905
X1.052 Y2.969 Z-2.908
X0.976 Y3.001 Z-2.91
X0.972 Y3.002
X0.934 Y3.011 Z-2.911
X0.812 Y3.039 Z-2.914
X0.689 Y3.067 Z-2.917
X0.567 Y3.095 Z-2.92
X0.426 Y3.127 Z-2.923
X0.422 Y3.128 Z-2.924
X0.32 Y3.132 Z-2.926
X0.195 Y3.138 Z-2.929
X0.07 Y3.143 Z-2.931
X-0.055 Y3.149 Z-2.934
X-0.141 Y3.153 Z-2.936
X-0.145 Y3.152
X-0.18 Y3.148
X-0.304 Y3.131 Z-2.939
X-0.553 Y3.097 Z-2.944
X-0.7 Y3.077 Z-2.946
X-0.704 Y3.076
X-0.797 Y3.046 Z-2.948
X-1.036 Y2.969 Z-2.953
X-1.155 Y2.93 Z-2.955
X-1.24 Y2.902 Z-2.956
X-1.272 Y2.885 Z-2.957
X-1.492 Y2.767 Z-2.96
X-1.734 Y2.637 Z-2.964
X-1.737 Y2.635
X-1.741 Y2.633
X-1.814 Y2.574 Z-2.966
X-1.912 Y2.496 Z-2.967
X-2.108 Y2.34 Z-2.97
X-2.178 Y2.283 Z-2.971
X-2.181 Y2.281
X-2.202 Y2.257 Z-2.972
X-2.284 Y2.163 Z-2.973
X-2.449 Y1.974 Z-2.976
X-2.552 Y1.856 Z-2.977
X-2.555 Y1.853
X-2.569 Y1.829
X-2.601 Y1.776 Z-2.978
X-2.729 Y1.56 Z-2.98
X-2.794 Y1.453 Z-2.981
X-2.842 Y1.372
X-2.844 Y1.369
X-2.853 Y1.343
X-2.942 Y1.108 Z-2.983
X-3.03 Y0.874 Z-2.984
X-3.042 Y0.84
X-3.043 Y0.837
X-3.047 Y0.813
X-3.058 Y0.752
X-3.081 Y0.629
X-3.125 Y0.382 Z-2.985
X-3.143 Y0.283
Y0.28
Y0.208
Y0.183
Y-0.282
Y-0.284
X-3.042 Y-0.839
Y-0.841
X-2.844 Y-1.369
X-2.843 Y-1.371
X-2.554 Y-1.853
X-2.553 Y-1.856
X-2.181 Y-2.281
X-2.179 Y-2.283
X-1.924 Y-2.486
X-1.739 Y-2.633
X-1.737 Y-2.635
X-1.241 Y-2.902
X-1.238 Y-2.903
X-0.704 Y-3.077
X-0.701
X-0.142 Y-3.153
X-0.14
X0.422 Y-3.128
X0.424 Y-3.127
X0.974 Y-3.002
X0.977 Y-3.001
X1.494 Y-2.78
X1.496 Y-2.779
X1.967 Y-2.468
X1.969 Y-2.467
X2.376 Y-2.077
X2.377 Y-2.076
X2.709 Y-1.62
X2.71 Y-1.618
X2.954 Y-1.11
X2.955 Y-1.108
X3.105 Y-0.564
X3.106 Y-0.562
X3.156 Y0
X3.106 Y0.562
X3.105 Y0.564
X2.955 Y1.108
X2.954 Y1.11
X2.71 Y1.618
X2.709 Y1.62
X2.377 Y2.076
X2.376 Y2.077
X1.969 Y2.467
X1.967 Y2.468
X1.496 Y2.779
X1.494 Y2.78
X0.977 Y3.001
X0.974 Y3.002
X0.424 Y3.127
X0.422 Y3.128
X-0.14 Y3.153
X-0.142
X-0.701 Y3.077
X-0.704
X-1.238 Y2.903
X-1.241 Y2.902
X-1.737 Y2.635
X-1.739 Y2.633
X-2.179 Y2.283
X-2.181 Y2.281
X-2.553 Y1.856
X-2.554 Y1.853
X-2.843 Y1.371
X-2.844 Y1.369
X-3.042 Y0.841
Y0.839
X-3.143 Y0.284
Y0.282
Y0.183
Z2
G0 Z15
G28 G91 Z0
G90
G28 G91 X0 Y0
G90
M30
%
